/* XPM */
static char *de8d048efcbd4c36aa7afaba8eaae7f4[] = {
/* columns rows colors chars-per-pixel */
"500 277 193 2 ",
"   c None",
".  c #000000",
"X  c #0B0502",
"o  c #0A0A0A",
"O  c #0F0803",
"+  c #140B04",
"@  c #1B0E05",
"#  c #1F1005",
"$  c #1D150A",
"%  c #141414",
"&  c #1C1C1C",
"*  c #231206",
"=  c #291607",
"-  c #2C1708",
";  c #2D1A09",
":  c #341B09",
">  c #3A1E0A",
",  c #2D200D",
"<  c #3E210B",
"1  c #30220F",
"2  c #332E19",
"3  c #342714",
"4  c #36311A",
"5  c #2A2019",
"6  c #311622",
"7  c #341B2B",
"8  c #222222",
"9  c gray18",
"0  c #333333",
"q  c #3C3C3C",
"w  c #37322E",
"e  c #44230D",
"r  c #49260E",
"t  c #4D280F",
"y  c #542C11",
"u  c #5D3113",
"i  c #593F19",
"p  c #49371C",
"a  c #613413",
"s  c #683715",
"d  c #5D421B",
"f  c #61441C",
"g  c #624B29",
"h  c #63502F",
"j  c #665C32",
"k  c #685D33",
"l  c #784E32",
"z  c #6B6239",
"x  c #706536",
"c  c #5E502A",
"v  c #622B45",
"b  c #642D48",
"n  c #673656",
"m  c #783654",
"M  c #444444",
"N  c gray29",
"B  c #5A5A5A",
"V  c #545454",
"C  c #704D48",
"Z  c #756C48",
"A  c #646464",
"S  c #696969",
"D  c #865E26",
"F  c #855A3A",
"G  c #89622A",
"H  c #92672A",
"J  c #926A30",
"K  c #8A6834",
"L  c #B47F33",
"P  c #AC7931",
"I  c #813B5C",
"U  c #8D7643",
"Y  c #A37B41",
"T  c #944167",
"R  c #954168",
"E  c #9B436C",
"W  c #98507F",
"Q  c #8F5270",
"!  c #A64A73",
"~  c #B48033",
"^  c #BD8535",
"/  c #BB873B",
"(  c #C48B38",
")  c #C98D39",
"_  c #C38A37",
"`  c #CE923B",
"'  c #D6973D",
"]  c #DE9D3F",
"[  c #D7983D",
"{  c #8F8149",
"}  c #998A4B",
"|  c #978148",
" . c #A48A4D",
".. c #AD964F",
"X. c #C28C40",
"o. c #DB9D43",
"O. c #D89B44",
"+. c #D0994A",
"@. c #C9A45E",
"#. c #DBA558",
"$. c #DBA14D",
"%. c #E8A74A",
"&. c #E9A749",
"*. c #E9AE55",
"=. c #F5B150",
"-. c #F5B75D",
";. c #F7BC5A",
":. c #CBB763",
">. c #CCB863",
",. c #D1B965",
"<. c #C9AC60",
"1. c #F6BB65",
"2. c #F6BE6C",
"3. c #F9C662",
"4. c #F9C86B",
"5. c #FBD16B",
"6. c #F6C173",
"7. c #F8CA75",
"8. c #F7C875",
"9. c #FAD077",
"0. c #FDDB73",
"q. c #FBD778",
"w. c #FDDE7A",
"e. c #EBC46B",
"r. c #FFE67C",
"t. c #FEE077",
"y. c #9A4F81",
"u. c #995080",
"i. c #B45487",
"p. c #CA4986",
"a. c #CD4E8A",
"s. c #D24F8D",
"d. c #C6578B",
"f. c #CF518D",
"g. c #D1548F",
"h. c #D55692",
"j. c #DB5695",
"k. c #D95995",
"l. c #DE5C99",
"z. c #D55993",
"x. c #CE5B90",
"c. c #E25E9C",
"v. c #E5619F",
"b. c #DE5EA2",
"n. c #CC6BAB",
"m. c #DB74A5",
"M. c #D76DA0",
"N. c #E662A0",
"B. c #EC65A4",
"V. c #EF68A7",
"C. c #EE69AD",
"Z. c #F066A7",
"A. c #F76CAD",
"S. c #F76CAC",
"D. c #E27BAC",
"F. c #F56EB1",
"G. c #F971B5",
"H. c #FA76BD",
"J. c #F878B3",
"K. c #F06FB0",
"L. c #FC7BC5",
"P. c #818181",
"I. c #A7A7A7",
"U. c gray70",
"Y. c #EA83B3",
"T. c #F989BD",
"R. c #F685BA",
"E. c #E69CBF",
"W. c #DE83AE",
"Q. c #FD80CD",
"!. c #F98FC1",
"~. c #EB9DC2",
"^. c #F996C5",
"/. c #FF85D4",
"(. c #E7A3C3",
"). c #FAA7CE",
"_. c #F4A3C9",
"`. c #E9B6CE",
"'. c #F4BBD6",
"]. c #EDBBD2",
"[. c #FCC4DE",
"{. c #F6C1D9",
"}. c #EFC4D9",
"|. c #F9DAE9",
" X c #F4CEE0",
".X c #E6E6E6",
"XX c #E6E6E6",
"oX c #EAEAEA",
"OX c #FCE1EE",
"+X c #F3F3F3",
"@X c white",
"#X c #FDFDFD",
"$X c #FFFFFF",
/* pixels */
"                                                                                                                                                                                                                                                                                                                                                                                                                                                                                                                                                                                                                                                                                                                                                                                                                                                                                                                                                                                                                                        ",
"                                                                                                                                                                                                                                                                                                                                                                                                                                                                                                                                                                                                                                                                                                                                                                                                                                                                                                                                                                                                                                        ",
"                                                                                                                                                                                                                                                                                                                                                                                                                                                                                                                                                                                                                                                                                                                                                                                                                                                                                                                                                                                                                                        ",
"                                                                                                                                                                                                                                                                                                                                                                                                                                                                                                                                                                                                                                                                                                                                                                                                                                                                                                                                                                                                                                        ",
"                                                                                                                                                                                                                                                                                                                                                                                                                                                                                                                                                                                                                                                                                                                                                                                                                                                                                                                                                                                                                                        ",
"                                                                                                                                                                                                                                                                                                                                                                                                                                                                                                                                                                                                                                                                                                                                                                                                                                                                                                                                                                                                                                        ",
"                                                                                                                                                                                                                                                                                                                                                                                                                                                                                                                                                                                                                                                                                                                                                                                                                                                                                                                                                                                                                                        ",
"                                                                                                                                                                                                                                                                                                                                                                                                                                                                                                                                                                                                                                                                                                                                                                                                                                                                                                                                                                                                                                        ",
"                                                                                                                                                                                                                                                                                                                                                                                                                                                                                                                                                                                                                                                                                                                                                                                                                                                                                                                                                                                                                                        ",
"                                                                                                                                                                                                                                                                                                                                                                                                                                                                                                                                                                                                                                                                                                                                                                                                                                                                                                                                                                                                                                        ",
"                                                                                                                                                                                                                                                                                                                                                                                                                                                                                                                                                                                                                                                                                                                                                                                                                                                                                                                                                                                                                                        ",
"                                                                                                                                                                                                                                                                                                                                                                                                                                                                                                                                                                                                                                                                                                                                                                                                                                                                                                                                                                                                                                        ",
"                                                                                                                                                                                                                                                                                                                                                                                                                                                                                                                                                                                                                                                                                                                                                                                                                                                                                                                                                                                                                                        ",
"                                                                                                                                                                                                                                                                                                                                                                                                                                                                                                                                                                                                                                                                                                                                                                                                                                                                                                                                                                                                                                        ",
"                                                                                                                                                                                                                                                                                                                                                                                                                                                                                                                                                                                                                                                                                                                                                                                                                                                                                                                                                                                                                                        ",
"                                                                                                                                                                                                                                                                                                                                                                                                                                                                                                                                                                                                                                                                                                                                                                                                                                                                                                                                                                                                                                        ",
"                                                                                                                                                                                                                                                                                                                                                                                                                                                                                                                                                                                                                                                                                                                                                                                                                                                                                                                                                                                                                                        ",
"                                                                                                                                                                                                                                                                                                                                                                                                                                                                                                                                                                                                                                                                                                                                                                                                                                                                                                                                                                                                                                        ",
"                                                                                                                                                                                                                                                                                                                                                                                                                                                                                                                                                                                                                                                                                                                                                                                                                                                                                                                                                                                                                                        ",
"                                                                                                                                                                                                                                                                                                                                                                                                                                                                                                                                                                                                                                                                                                                                                                                                                                                                                                                                                                                                                                        ",
"                                                                                                                                                                                                                                                                                                                                                                                                                                                                                                                                                                                                                                                                                                                                                                                                                                                                                                                                                                                                                                        ",
"                                                                                                                                                                                                                                                                                                                                                                                                                                                                                                                                                                                                                                                                                                                                                                                                                                                                                                                                                                                                                                        ",
"                                                                                                                                                                                                                                                                                                                                                                                                                                                                                                                                                                                                                                                                                                                                                                                                                                                                                                                                                                                                                                        ",
"                                                                                                                                                                                                                                                                                                                                                                                                                                                                                                                                                                                                                                                                                                                                                                                                                                                                                                                                                                                                                                        ",
"                                                                                                                                                                                                                                                                                                                                                                                                                                                                                                                                                                                                                                                                                                                                                                                                                                                                                                                                                                                                                                        ",
"                                                                                                                                                                                                                                                                                                                                                                                                                                                                                                                                                                                                                                                                                                                                                                                                                                                                                                                                                                                                                                        ",
"                                                                                                                                                                                                                                                                                                                                                                                                                                                                                                                                                                                                                                                                                                                                                                                                                                                                                                                                                                                                                                        ",
"                                                                                                                                                                                                                                                                                                                                                                                                                                                                                                                                                                                                                                                                                                                                                                                                                                                                                                                                                                                                                                        ",
"                                                                                                                                                                                                                                                                                                                                                                                                                                                                                                                                                                                                                                                                                                                                                                                                                                                                                                                                                                                                                                        ",
"                                                                                                                                                                                                                                                                                                                                                                                                                                                                                                                                                                                                                                                                                                                                                                                                                                                                                                                                                                                                                                        ",
"                                                                                                                                                                                                                                                                                                                                                                                                                                                                                                                                                                                                                                                                                                                                                                                                                                                                                                                                                                                                                                        ",
"                                                                                                                                                                                                                                                                                                                                                                                                                                                                                                                                                                                                                                                                                                                                                                                                                                                                                                                                                                                                                                        ",
"                                                                                                                                                                                                                                                                                                                                                                                                                                                                                                                                                                                                                                                                                                                                                                                                                                                                                                                                                                                                                                        ",
"                                                                                                                                                                                                                                                                                                                                                                                                                                                                                                                                                                                                                                                                                                                                                                                                                                                                                                                                                                                                                                        ",
"                                                                                                                                                                                                                                                                                                                                                                                                                                                                                                                                                                                                                                                                                                                                                                                                                                                                                                                                                                                                                                        ",
"                                                                                                                                                                                                                                                                                                                                                                                                                                                                                                                                                                                                                                                                                                                                                                                                                                                                                                                                                                                                                                        ",
"                                                                                                                                                                                                                                                                                                                                                                                                                                                                                                                                                                                                                                                                                                                                                                                                                                                                                                                                                                                                                                        ",
"                                                                                                                                                                                                                                                                                                                                                                                                                                                                                                                                                                                                                                                                                                                                                                                                                                                                                                                                                                                                                                        ",
"                                                                                                                                                                                                                                                                                                                                                                                                                                                                                                                                                                                                                                                                                                                                                                                                                                                                                                                                                                                                                                        ",
"                                                                                                                                                                                                                                                                                                                                                                                                                                                                                                                                                                                                                                                                                                                                                                                                                                                                                                                                                                                                                                        ",
"                                                                                                                                                                                                                                                                                                                                                                                                                                                                                                                                                                                                                                                                                                                                                                                                                                                                                                                                                                                                                                        ",
"                                                                                                                                                                                                                                                                                                                                                                                                                                                                                                                                                                                                                                                                                                                                                                                                                                                                                                                                                                                                                                        ",
"                                                                                                                                                                                                                                                                                                                                                                                                                                                                                                                                                                                                                                                                                                                                                                                                                                                                                                                                                                                                                                        ",
"                                                                                                                                                                                                                                                                                                                                                                                                                                                                                                                                                                                                                                                                                                                                                                                                                                                                                                                                                                                                                                        ",
"                                                                                                                                                                                                                                                                                                                                                                                                                                                                                                                                                                                                                                                                                                                                                                                                                                                                                                                                                                                                                                        ",
"                                                                                                                                                                                                                                                                                                                                                                                                                                                                                @X. . . . . . . . . . . . . . . . . . . . . . . . . . . . . . . . . . . . .                                                                                                                                                                                                                                                                                                                                                                                                                                                                             ",
"                                                                                                                                                                                                                                                                                                                                                                                                                                                                                @X. . . . . . . . . . . . . . . . . . . . . . . . . . . . . . . . . . . . .                                                                                                                                                                                                                                                                                                                                                                                                                                                                             ",
"                                                                                                                                                                                                                                                                                                                                                                                                                                                                                @X. . . . . . . . . . . . . . . . . . . . . . . . . . . . . . . . . . . . .                                                                                                                                                                                                                                                                                                                                                                                                                                                                             ",
"                                                                                                                                                                                                                                                                                                                                                                                                                                                            o o o o o o o o o o 8 = = = = = = = = = = = = = = = = = = = = = = = = = = = = = = = = = = = = = * o o o o o o o o o                                                                                                                                                                                                                                                                                                                                                                                                                                                         ",
"                                                                                                                                                                                                                                                                                                                                                                                                                                                            . . . . . . . . . . . > r : > : : e : t : t : e : : > : r : y : r : > : : e : t : t : e : : > : = . . . . . . . . . .                                                                                                                                                                                                                                                                                                                                                                                                                                                       ",
"                                                                                                                                                                                                                                                                                                                                                                                                                                                            . . . . . . . . . . . : : : : : : : : : : : : : : : : : : : : : : : : : : : : : : : : : : : : : # . . . . . . . . . .                                                                                                                                                                                                                                                                                                                                                                                                                                                       ",
"                                                                                                                                                                                                                                                                                                                                                                                                                                                            . . . . . . . . . . . : : : : : : : : : : : : : : : : : : : : : : : : : : : : : : : : : : : : : > . . . . . . . . . .                                                                                                                                                                                                                                                                                                                                                                                                                                                       ",
"                                                                                                                                                                                                                                                                                                                                                                                                                                              . . . . . . . : : : : : : : : : : : : : y : s : y : < : : r : u : u : r : : < : y : s : y : < : : r : u : u : : : : : : : : : : : : . . . . . . .                                                                                                                                                                                                                                                                                                                                                                                                                                         ",
"                                                                                                                                                                                                                                                                                                                                                                                                                                              . . . . . . . < : t : < : : > : y : : : : : : : : : : : : : : : : : : : : : : : : : : : : : : : : : : : : : : : : : : : t : < : : r . . . . . . .                                                                                                                                                                                                                                                                                                                                                                                                                                         ",
"                                                                                                                                                                                                                                                                                                                                                                                                                                              . . . . . . . : : : : : : : : : : : : e : : : : : : : : : : : : : : : : : : : : : : : : : : : : : : : : : : : < : : : : : : : : e : . . . . . . .                                                                                                                                                                                                                                                                                                                                                                                                                                         ",
"                                                                                                                                                                                                                                                                                                                                                                                                                                            A + + + + + + + y : : : : : : > : : : : : : t : : e : t : t : e : : > : r : y : r : > : : e : t : t : e : : > : : : r : : : : : : : : + + + + + + + w                                                                                                                                                                                                                                                                                                                                                                                                                                       ",
"                                                                                                                                                                                                                                                                                                                                                                                                                                & . . . . . . t : : y : > : : : t : < : : : : : u : : : : : : : : : : : : : : : : : : : : : : : : : : : : : : : : : : : : > : : : : : t : u : : : < : : : - + = X . .                                                                                                                                                                                                                                                                                                                                                                                                                                   ",
"                                                                                                                                                                                                                                                                                                                                                                                                                                % . . . . . . : : : : : : : : : : : : : : : : : : : : : : : < : : : : : : : : : : : : : : : : : : : : : : : : : : : : : : : : : : : : : : : : y : : : : : : X : X . .                                                                                                                                                                                                                                                                                                                                                                                                                                   ",
"                                                                                                                                                                                                                                                                                                                                                                                                                                & . . . . . . t : : : : : : : y : : : : : > : y : : > r : : : : > : < : > : : : : > : > : > : > : : : : > : < : > : : : : : : y : > : : : : : : : : : : : @ : : X . .                                                                                                                                                                                                                                                                                                                                                                                                                                   ",
"                                                                                                                                                                                                                                                                                                                                                                                                                  . . . . . . . y s s u : : : : : : : e : : : : : < : : > : : : : : : : : : : : : : : : : : : : : : : : : : : : : : : : : : : : : : : : : e : : : : : < : : t : : r : : : * * # @ : * = . . .                                                                                                                                                                                                                                                                                                                                                                                                                           ",
"                                                                                                                                                                                                                                                                                                                                                                                                                  . . . . . . . y s s u : : e : : : > : : > : : : : : : : : : : : r : : : y : : e : r : e : > : : > : r : r : < : : > : e : r : e : > : : : : : : : > : : : : : : : : : = * - # * = - = . . .                                                                                                                                                                                                                                                                                                                                                                                                                           ",
"                                                                                                                                                                                                                                                                                                                                                                                                                  . . . . . . . y s s u : : : : : : : : > : : : r : : : : : t : : : : > : : : : : : : : : : : : : : : : : : : : : : : : : : : : : : : : : : r : : : : : : < : : t : : > : @ : : : + : = . . .                                                                                                                                                                                                                                                                                                                                                                                                                           ",
"                                                                                                                                                                                                                                                                                                                                                                                                            . . . s s s s s s s < : : : : : : : u : : : : : : : : : u : : : : : : : : : : : : : : : : : : : : : : : : : : : : : : : : : : : : : : : : : u : : : : : : r : : : : : : : : : : : : : : + : : : : . . .                                                                                                                                                                                                                                                                                                                                                                                                                     ",
"                                                                                                                                                                                                                                                                                                                                                                                                            . . . s s s s s s s < : : : : y : : : : : : : : < : : : : : : : : y : : : : : < : > : < : : r : y : y : r : : > : t : u : t : < : : r : y : : : : : : : : : : : : t : : : : : : : : : + * : : * : . . .                                                                                                                                                                                                                                                                                                                                                                                                                     ",
"                                                                                                                                                                                                                                                                                                                                                                                                            . . . s s s s s s s < : : : : : : : : : : > : : : : > : : : t : : : : : r : : : : : : : : : : : : : : : : : : : : : : : : : : : : : : : : : : : < : : : r : : : : : : : r : : : : : * * * : + : - . . .                                                                                                                                                                                                                                                                                                                                                                                                                     ",
"                                                                                                                                                                                                                                                                                                                                                                                                            . . . s s s s s s s < : : > : : > : > : : : e : : : : : t : : : : : : : : : > : : > : : : : : : : : : : : : : : : : : : : : : : : : : : : : r : : : r : : : : : > : : : : : e : t : @ = - : : - = . . .                                                                                                                                                                                                                                                                                                                                                                                                                     ",
"                                                                                                                                                                                                                                                                                                                                                                                                    q . . . : : : s s s s : : : : : : : : : : : : : : : : : < : : : : : : : t : u : : : : : : : : < : : r : y : y : r : : > : t : u : t : < : : s s s : : : : : : : : > : : : : : y : : : : : : : : : : = - @ : - : X . . .                                                                                                                                                                                                                                                                                                                                                                                                             ",
"                                                                                                                                                                                                                                                                                                                                                                                                    0 . . . < : : s s s s : : : : : r : : : : r : : : r : : : : y : : s : : : : : : : y : : : : : : : : : : : : : : : : : : : : : : : : : : : : s s s : : : r : : : : : : : : r : : : : : : : : : : : : : X : + : . X . . .                                                                                                                                                                                                                                                                                                                                                                                                             ",
"                                                                                                                                                                                                                                                                                                                                                                                                    0 . . . : : : s s s s : : : : : : : : y : : : : : : : : : : : : : : : : : : : : : : : : y : r : : : : : : : : : : : : : : : : : : : : : : : s s s : : : : : : : > : : : : : : : : > : > : : > : : : = + @ : + X X . . .                                                                                                                                                                                                                                                                                                                                                                                                             ",
"                                                                                                                                                                                                                                                                                                                                                                                              & % & 5 # # * y y y r r r r : : : r : : : : : : : : r : : < : : : : e : : : > : r : - : : - : : : : : = : : : : = : : : : = : e : > : : > : t : : r r r y y y r : y : : : : r : : < : : : : : : : : : : : # @ * - - : X . . .                                                                                                                                                                                                                                                                                                                                                                                                             ",
"                                                                                                                                                                                                                                                                                                                                                                                              . . . - : : : s s s : : : : : : : : : e : : : : < : : : : : : : > : : : r : : : : : * * - : + @ * * * # @ = - - : : - * * # : : : : : : : : : : : : : : s s s y : : : : < : : : : : : : r : < : : : e : : + : - * * + X . . .                                                                                                                                                                                                                                                                                                                                                                                                             ",
"                                                                                                                                                                                                                                                                                                                                                                                              . . . # : : : s s s : : : : : y : : > : : u : : : : : y : : > : : : : : : : : > : : : * - - X + @ : : : - : - + = - @ : : : - : : > : : > : : < : : : : s s s y : : : : : : : : r : > : : : : : < : : : : : * @ - * : X . . .                                                                                                                                                                                                                                                                                                                                                                                                             ",
"                                                                                                                                                                                                                                                                                                                                                                                              . . . # : : : s s s : : : : : : : : : : : : : : : : : : : : : : : r : : : : : : : s X : : = : = # : : . : : : : : : : + : : = r : : : : : : : : : : : : s s s y : : : : : : : : : : : : : : : : : : : : u : = : : : . X . . .                                                                                                                                                                                                                                                                                                                                                                                                             ",
"                                                                                                                                                                                                                                                                                                                                                                                              . . . * : : : s s s : : : > : : : : : r : : : > : : : : : : : : : : : - : : * @ - = : : - * : - * - * : . . . . . . . * : : - : @ : : : : : : : : r : : s s s s s s s r : : < : : : : : y : : : : : : : : : - @ : : : - @ : + . . .                                                                                                                                                                                                                                                                                                                                                                                                       ",
"                                                                                                                                                                                                                                                                                                                                                                                              . . . # : : : s s s : : : : < : : > : : : : > : : : : t : < : : > : - - : + * - - : : - = * + @ = - @ : . . . . . . . : + : - - - : : : e : r : : : : : s s s s s s s r : : : : e : t : : : e : : : > : : # @ * - : + * : = @ . . .                                                                                                                                                                                                                                                                                                                                                                                                       ",
"                                                                                                                                                                                                                                                                                                                                                                                              . . . : : : : s s s : : : : : : : : : : : : : : < : : : : : : : : : : : + * = - @ # @ * * - : : : * : : . . . . . . . : - : : * * : : : : : : : : : : : s s s s s s s r : > : : : : : : : : : : : : : : - : - - @ - : : = @ : . . .                                                                                                                                                                                                                                                                                                                                                                                                       ",
"                                                                                                                                                                                                                                                                                                                                                                                      . . . . s s s s s s s s s s : : : r : : : : r : y : : : : : : : : : : : - - * : X : : - - : . . . . . . . . . . o.' ' ' ' ' %.. . . . . . X : : : : : : y : : : s s s s s s s r : : : : : : : : y : : : : > : > : X + - : + X - * @ - . . .                                                                                                                                                                                                                                                                                                                                                                                                       ",
"                                                                                                                                                                                                                                                                                                                                                                                      . . . . s s s s s s s s s s : : : : : : : : : : : : : r : : : < : y : . : : # = : : : : : : . . . . . . . . . . ^ L L L L L ` . . . . . . + : : : : u : : : : : s s s s s s s r : : : : : r : : : : r : : : : : = : = # # = : = : + : . . .                                                                                                                                                                                                                                                                                                                                                                                                       ",
"                                                                                                                                                                                                                                                                                                                                                                                      . . . . s s s s s s s s s s : : : : : : : : : : : : : : : : : : : : : X - - * - = - - : : : . . . . . . . . . . ^ L L L L L ` . . . . . . + : : > : : : : : : : s s s s s s s r : : : > : : : : : : : : : : : : : X + @ - - : - + : : . . .                                                                                                                                                                                                                                                                                                                                                                                                       ",
"                                                                                                                                                                                                                                                                                                                                                                                      . . . . s s s s s s s s s s : : r : < : : : e : > : : : < : : : : : t + * * : @ # * * - : : . . . . . . . . . . ^ L L L L L ` . . . . . . X : t : r : : : < : : s s s s s s s r : : : : : : : r : : : : : > : : : + @ * - @ + * * - @ . . .                                                                                                                                                                                                                                                                                                                                                                                                       ",
"                                                                                                                                                                                                                                                                                                                                                                                      . . . . s s s s s s s : : : : : : : : : : > : : : : : > : : : t - = @ : + * * * + : . . . . ' ` ` ` ` ` ` ` ` ` L L L L ~ ~ ~ ` ` ` ` ` ` / . . . @ : : : : : : : : : : s s s s s s s : : < : : : r : : : : : : : # * = * : : - - @ : . . .                                                                                                                                                                                                                                                                                                                                                                                                       ",
"                                                                                                                                                                                                                                                                                                                                                                                      . . . . s s s s s s s : : : : : : : > : : : : : > : : : : > : : - : + X - * @ - X : . . . . ^ L L L L L L L L L L L L L ~ ~ ~ L L L L L L L . . . @ : : : > : : : : : r s s s s s s s : : : : < : : : < : : r : : = - - * - X + : - - . . .                                                                                                                                                                                                                                                                                                                                                                                                       ",
"                                                                                                                                                                                                                                                                                                                                                                                      . . . . s s s s s s s : : : : s : : : : : : : : : : : : : : : : : : X . : + : = : = . . . . ^ L L L L L L L L L L L L L L ~ L L L L L L L L . . . + : : : : : : : : : r s s s s s s s : : : : : : : : : : : : : : : : : + : . X + : : . . .                                                                                                                                                                                                                                                                                                                                                                                                       ",
"                                                                                                                                                                                                                                                                                                                                                                                o . o y y y y s s s s s s s : : : : : : : : : : : > : : : > : : : : : : @ - : - @ @ X X X ^ L L L ~ L _ , ; ; ; ; ; ; ; ; ; ; ; ; ; ) L L L L L L . . . + : : : : : : u u u a s s s s s s s : : : : : : : > : : : : : : = - - @ + : - * @ - = = = # . o                                                                                                                                                                                                                                                                                                                                                                                                 ",
"                                                                                                                                                                                                                                                                                                                                                                                . . . s s s s s s s s s s s : : < : : : < : > : : : : : : : : r : y : * = : # * = # . . . ( L L L L L ( . . . . . . . . . . . . . . ` L L L L L L . . . @ : : : : : : s s s s s s s s s s s : : < : : > : : > : : e : : : : @ = : # - = * * # - - # . .                                                                                                                                                                                                                                                                                                                                                                                                 ",
"                                                                                                                                                                                                                                                                                                                                                                                . . . s s s s s s s s s s s : : : : : : : : : : r : : t : : : : : : : * - @ + @ = # . . . ( L L L L ~ ( . . . . . . . . . . . . . . ` L L L L L L . . . * : : : r : : s s s s s s s s s s s : : : : : : : : : : : : : : # - = = @ : : - = @ : : @ # . .                                                                                                                                                                                                                                                                                                                                                                                                 ",
"                                                                                                                                                                                                                                                                                                                                                                                . . . s s s s s s s s s s s : : : : u : : t : : : : : : : : : : : : : @ - - X + : # . . . ( L L ^ L L ~ % & 9 0 0 9 8 8 & & & & % & L L L L L L J X X X @ : : : : : : s s s s s s a s s s s : : > : : : : t : : : : : : = + @ : : X : : - - X - - # . .                                                                                                                                                                                                                                                                                                                                                                                                 ",
"                                                                                                                                                                                                                                                                                                                                                                                . . . s s s s s s s s s s s : : y : : : : : : : : : : : : : : : = : X + : : . X : # . . . ( L L ] . . .     @X@X@X#X.X.X            . . . . . . + : : : : : : : : : : s s s s s s s s s s s : : : : : < : : : : : : : : : : # + = : : : : : : = : # . .                                                                                                                                                                                                                                                                                                                                                                                                 ",
"                                                                                                                                                                                                                                                                                                                                                                                . . . s s s s s s r s s s s : : : : : y : : : : : > : : : : : + : X : @ : + X + - # . . . ( L L ] . . .           #X                . . . . . . X : : > : : : : : : : s s s s s s s s s s s : : : : : : : : : : : t : - = - : @ - X : + - - = - : # . .                                                                                                                                                                                                                                                                                                                                                                                                 ",
"                                                                                                                                                                                                                                                                                                                                                                                . . . s s s s s s s s s s s : : : : : : : : : : : : : > : : : * * : @ * - - : : - # . . . o.` ` ] . . . @X@X@X@X@X#X                . . . . . . + : : : : > : : : : : s s s s s s s s s s s : : : > : : : e : y : : : - : : @ - - : @ : @ : : - @ # . .                                                                                                                                                                                                                                                                                                                                                                                                 ",
"                                                                                                                                                                                                                                                                                                                                                                                . . . s s s s s s s r : : : : : e : : : : r : : t : : : : : r @ - : : @ * : . . . d ` ` %.. . . .     @X@X@X@X@X@X#X                      8 . . O : : : : : : : s s s s s s u s s s s s s s : : : : : r : : : : : : : : : @ = * * # @ * : + : : = # . .                                                                                                                                                                                                                                                                                                                                                                                                 ",
"                                                                                                                                                                                                                                                                                                                                                                                . . . s s s s s s s r : : : : : : : : > : : : : : : > : : : : - + X : : @ + . . . i L L ' . . . .       @X#X#X#X#X+XoX                    & . . X : : t : : : : s s s s s s s s s r s s s s : : t : : : : : : : : > : : X : : @ - = - * + : : + @ # . .                                                                                                                                                                                                                                                                                                                                                                                                 ",
"                                                                                                                                                                                                                                                                                                                                                                                . . . s s s s s s s r : : : : r : : : : : : : : : : : : : : : : X . X : + X . . . i L L ' . . . .         .X.X.X.XoX                      & . . X : : : : : : : s s s s s s s s s s s s s s : : : : : : : y : : : : : : . X : + : : X + : : : : # # . .                                                                                                                                                                                                                                                                                                                                                                                                 ",
"                                                                                                                                                                                                                                                                                                                                                                                . . . s s s s s s s r : : : : : : y : : t : : : y : : : : : : : - : - - * : . . . i L L ' . . .           .X.X.X.XoX                      & . . O : : : : : : : s s s s s s s s s s s s s s : : : < : : : : : < : : : y : - : @ + : + @ * - = - * # . .                                                                                                                                                                                                                                                                                                                                                                                                 ",
"                                                                                                                                                                                                                                                                                                                                                                        S . . . s s s s s s s s s s r : : r : : : : : : : : : : : : e : : t : = * + @ - = @ . . . i L L ' . . .               .X.X          U.. . . . . . = : : : : t : e : : : s s s s s s r : : : : : : : : : r : : : : : : : : * : * # - @ = : # - = * @ # * * # . .                                                                                                                                                                                                                                                                                                                                                                                                 ",
"                                                                                                                                                                                                                                                                                                                                                                        S . . . s s s s s s s s s s r : : : : > : : r : : : t : : : : : : : : * - # * = * * . . . i L L ' . . .             .X.X.X          U.. . . . . . e : < : : : : : : : : s s s s s s y : : : : : : : : : : : : r : r : : @ = * - # * = : @ + * = - - : - = # . .                                                                                                                                                                                                                                                                                                                                                                                                 ",
"                                                                                                                                                                                                                                                                                                                                                                        S . . . s s s s s s a s s s r : : : : : : : : : > : : : y : : : : : : @ + : : : @ - . . . d ^ ^ o.. . . .           .X              U.. . . . . . = : : : : : : : : : : s s s s s s y : : : : : : : : : : : : : : : : : + - * - : : : @ - : * - : : X + @ # . .                                                                                                                                                                                                                                                                                                                                                                                                 ",
"                                                                                                                                                                                                                                                                                                                                                                        S . . . s s s s s s s s s s r : : s : : r : : : : : : : : : r : : < : : : : : : + : : : : # . . . . . . . oX          M . . . . . . X : : : : : : : : : < s s s s s s s s s s s s s y : : : : : : : : : : < : : : : : : X : : X . : : : = : = : : : : X + # . . .                                                                                                                                                                                                                                                                                                                                                                                               ",
"                                                                                                                                                                                                                                                                                                                                                                        S . . . s s s s s s s s s s r : : : : : : : u : : : < : : : : : : : : : : : : - @ - = - : # . . . . . . . oX.X        N . . . . . . + : y : : y : > : : < s s s s s s s s s s s s s y : : : > : : : : : > : : : t : : : + - : - : : : - - : - + - - = + @ # . . .                                                                                                                                                                                                                                                                                                                                                                                               ",
"                                                                                                                                                                                                                                                                                                                                                                        S . . . s s s s s s s s s s r : : : : e : : : : : : : : : r : : : : : : : : : = * @ : - @ # . . . . . .               M . . . . . . X : : : : : : : : : < s s s s s s s s s s s s s y : : > : : > : : : : : : : : : t : @ * - @ # * * - : : - @ - : + @ * # . .                                                                                                                                                                                                                                                                                                                                                                                                 ",
"                                                                                                                                                                                                                                                                                                                                                                        S . . . s s s s s a s s s s r : > : : : : : : : e : : : : : : > : : e : > : : : * @ # @ = * + + + . . . .             w + + + + + + @ : : : : : : : : : < s s s s s s s y y y y y y r : : : : e : : : e : : r : : : : : = = * : + @ @ * - : : - * @ # * = # . .                                                                                                                                                                                                                                                                                                                                                                                                 ",
"                                                                                                                                                                                                                                                                                                                                                                        S . . . s s s s s s s s s s r : : : : : r : : : : : y : > : : : : : : : : : : : : : = + - * : : : . . . . . . . . . . * : : < : > : < : : t : : u : : : < s s s s s s s : : : : : : : : : : : : : < : : : : : : : @ - : * @ * : = - - @ + X - @ * - = - - # . .                                                                                                                                                                                                                                                                                                                                                                                                 ",
"                                                                                                                                                                                                                                                                                                                                                                        S . . . s s s s s s s s s s r : : : : : : : : < : : : : : : : : : : : y : : : : : : : X : + : : : . . . . . . . . . . # : : : : : : : : : : : : : : : : < s s s s s s s : : : : : : : : : : : : : : : : : : : : : : X . : + # = : X : + X . : + : : : : : # . .                                                                                                                                                                                                                                                                                                                                                                                                 ",
"                                                                                                                                                                                                                                                                                                                                                                        S . . . s s s s s s s s s s r : : : : > : : : : : : : : : : > : : : : : : : : : > : = + @ : + : : . . . . . . . . . . * : : : : : : : : : : : : : : : : < s s s s s s s : : : : : : : : : : > : : : : r : > : : - : - : - + * - : - : @ + X + : + : : : : X . .                                                                                                                                                                                                                                                                                                                                                                                                 ",
"                                                                                                                                                                                                                                                                                                                                                                        S . . . s s s s s u s s s s r : > : : : < : : : e : > : : : : : : : : : : : : : : : : : : : : : : : : : y : : : : : : : : > : : e : > : : < : r : u s s u : : : : : : : : : : : > : r : : : : < : : : : : : : > : = * + * * = - : - - @ - : - = * * . . .                                                                                                                                                                                                                                                                                                                                                                                                       ",
"                                                                                                                                                                                                                                                                                                                                                                        S . . . s s s s s s s s s s r : : : : : : : r : : : : : : r : > : : r : > : : r : : : : : : : : : : r : : : e : t : t : : : : : : : : : : : : : : u s s u : : : : : : : : < : : : : : : : > : : : r : : : : : : * * - : + : @ : : : = = @ # * = * : . . .                                                                                                                                                                                                                                                                                                                                                                                                       ",
"                                                                                                                                                                                                                                                                                                                                                                        S . . . s s s s s s s s s s r : : : : r : : : : > : : : : : : : : : : : : : : : : : u : > : : : : : : : : : : : : : : : t : : : : > : < : > : : : u s s u : : : : : : : : : : : : : : : : : : : : : : > : y : : : @ - = : * @ - = - * - + = - : - + . . .                                                                                                                                                                                                                                                                                                                                                                                                       ",
"                                                                                                                                                                                                                                                                                                                                                                        S . . . s s s s s s s s s s r : : : : : : : : : : : : : : : : : : : : : : : u : : : : : : : : : : : : : : < : : : : : : : : : < : : : : : : : : : u s s u : : : : : : : r : : : : r : u : : : r : : : : : : : : : : X : X + # : : : # : X : : : : : . . .                                                                                                                                                                                                                                                                                                                                                                                                       ",
"                                                                                                                                                                                                                                                                                                                                                                        S . . . s s s s a s a s s s s s s s : : > : : : : : : : > : > : : > : > : : : : > : : : : : : : : > : > : : : : : : : : : : : : : : : : : : : : : : : : : : : : > < : : : : : : : : : : : y : : : u : : : - : + - * : X + @ * - = - * @ : X X . . . . . .                                                                                                                                                                                                                                                                                                                                                                                                       ",
"                                                                                                                                                                                                                                                                                                                                                                        S . . . s s s s s s s s s s s s s s : : : : r : : : t : : : : : : : : : : : : : : : : r : : : y : : : : : : e : : : : < : r : : : e : : > : e > : : : : : : t : : : : : : r : : : : : : : : : : : : : : : - : + * = : : - = * + : @ * : @ + X . . . . . .                                                                                                                                                                                                                                                                                                                                                                                                       ",
"                                                                                                                                                                                                                                                                                                                                                                        S . . . s s s s s s s s s s s s s s : : < : : : r : : : : e : > : : e : > : : e : > : : : e : : : : e : r : : : : r : : : : : t : : : : : : : : : : : : : : : : : : : > : : : : t : e : : : : : r : : e : * # * * = @ : * = - - : - @ * : # X . . . . . .                                                                                                                                                                                                                                                                                                                                                                                                       ",
"                                                                                                                                                                                                                                                                                                                                                                        S . . . s s s s s s s s s s s s s s : : : : : : : : : : : : : : : : : : : : : : : : : > : : : : : : : : : : : > : : : > : : : : : : : : : > : : : y : r : : : : t : : : : : < : : : : : : > : : : : : : - : : : * - - X : : @ * : - - @ + : X . . . . . .                                                                                                                                                                                                                                                                                                                                                                                                       ",
"                                                                                                                                                                                                                                                                                                                                                                        S . . . s s s s s y s u s s s s s s : : : : : : : : : : : : : : : : : : : : : : : : : : : : : : < : : : : : : : : : : : : : : : : y : : : : : u : : : : : s : : : : : : : y : : : : : : : : : : : : : : # : : X : : = : : + : = : = # # : : X . . . . . .                                                                                                                                                                                                                                                                                                                                                                                                       ",
"                                                                                                                                                                                                                                                                                                                                                                        S . . . s s s s s s s s s s s s s s : : t : : : : > : : : : : > : > : : > : > : > : : : : > : : : : t : u : : : < : : : : : : : : : : : : : : : : : : : : : : : : y : y : : : : y : : > : : : > : : - - @ + = + : - - X - * + - : - - * - = X . . . . . .                                                                                                                                                                                                                                                                                                                                                                                                       ",
"                                                                                                                                                                                                                                                                                                                                                                        S . . . s s s s s s s s s s s s s s : : : : y : : : : : : < : : : : : : : : : : : : y : : : : : : : : : : : < : : : : e : t : r : : : : t : : : y : : e : : : < : : : : : : : : : : : : : > : : : : * * * @ # - = = @ : : = * * + * * + + + l D D G . . . o & & & 8 8 8 8 8 8 8 8 8 & & & &                                                                                                                                                                                                                                                                                                                                                                     ",
"                                                                                                                                                                                                                                                                                                                                                                        S . . . s s s s s s s s s s u s s s : : : : : : e : > : : : < : : > : r : r : e : : : : r : > : t : : : : : : : r : : : : : : : : e : : : : r : : : : : > : : : : : : : : : > : : e : : : : e : : : - @ - - : : - * @ # @ - = @ : : = . . . L L L ^ . . . . . . . . . . . . . . . . . . . .                                                                                                                                                                                                                                                                                                                                                                     ",
"                                                                                                                                                                                                                                                                                                                                                                        S . . . s s s s s t s s s s s s s s : : > : : : : : : : > : : : : : : : : : : : : : : : : : : : : : : < : : > : : : : : : : : : : : : : : : : : : : r : : : : : t : u : t : : : : : : > : : : : : : + - : : X - : @ + : - : - - = + : . . . L L L ^ . . . . . . . . . . . . . . . . . . . .                                                                                                                                                                                                                                                                                                                                                                     ",
"                                                                                                                                                                                                                                                                                                                                                                        S . . . s s s s s s s s s s s s s s : : : : : : : r : : : : : : : : : : : : : : : : : < : : : : : y : : : : : : : : u : r : : : : : : : < : : u : : : : : : : : : : : : : : : : < : : : : : : : < : = # : : : : # + X : X : : : : : : . . . L L L ^ . . . . . . . . . . . . . . . . . . . . .                                                                                                                                                                                                                                                                                                                                                                   ",
"                                                                                                                                                                                                                                                                                                                                                    . . . . . . . . . . . . . . . . . s s s s s < s s s s s s s s : : : : : : : : : : : u : > : : : > : > : : : : > : : : : : : : : : r : : : : : : : : : : y : : : : : : : : > : : > : : : : : : r : : : : : : : > : * : : + - : : : : @ * : : : @ : = . . . ' ^ ^ ~ L L ^ . . . b k.k.k.k.k.k.k.k.k.k.k.k.k.k.k.k.S.. . . . . . . . . .                                                                                                                                                                                                                                                                                                                                               ",
"                                                                                                                                                                                                                                                                                                                                                    . . . . . . . . . . . . . . . . . s s s s s s s s s s s s s s : : : : : : : > : e : : : : : : : : : : > : : : : : r : : : r : > : : : y : : : > : : < : : : : e : : : > : : : : : : : r : r : : : : : e : : : : : @ : : : @ - + : : - = * # @ * - = . . . ` L L L L L ^ . . . v g.g.g.g.g.g.g.g.g.g.g.g.g.g.g.g.S.. . . . . . . . . .                                                                                                                                                                                                                                                                                                                                               ",
"                                                                                                                                                                                                                                                                                                                                                    . . . . . . . . . . . . . . . . . s s s s s s s s u s s s s s : : : r : r : : : : : : : : r : : : > : : : : e : : : : e : : : : : : : : : r : : : : : : : : > : : : : : : : t : : e : : : : : : : y : : : > : : : = @ : - - * * + + * : @ : @ * * = . . . ` L L L L L ^ . . . v g.g.g.g.g.g.g.g.g.g.g.g.g.g.g.g.S.. . . . . . . . . .                                                                                                                                                                                                                                                                                                                                               ",
"                                                                                                                                                                                                                                                                                                                                                    4 2 2 2 2 2 2 2 2 2 2 2 2 2 . . . y y y y s s s s s s s s s s < < < < : : : : > : < : > : : : u : : : : : : : : y : : : : : : : t : : : : : : : : > : > : : : : r : : y : : : : : : : : : > : > : : : : : : : : - : - : - - @ - X - * @ - X - = = - ; ; ; ) L L L L L ~ 6 6 6 m g.g.g.g.g.g.g.g.g.g.g.g.g.g.g.g.V.6 6 6 6 6 6 6 6 6 6                                                                                                                                                                                                                                                                                                                                               ",
"                                                                                                                                                                                                                                                                                                                                      & . . . . . . q.6.6.6.6.6.6.6.6.6.1.=.=.0.. . . . . . . s s s s s s s s s s s s s s : : : : : : : : : : : : : : : r : : : : : : : : : : u : : : : < : : : : : : : : : : : : : : : : : : r : : < : : u : : : : : : u : : = : X : : X . X : # : . : + # : . X . . , L L L L L L ; . . . S.g.g.g.g.g.g.g.g.g.g.g.g.g.g.g.g.g.g.g.g.g.g.g.g.g.g.g.g.g.g.6 . . . . . .                                                                                                                                                                                                                                                                                                                                 ",
"                                                                                                                                                                                                                                                                                                                                      & . . . . . . q.6.6.6.6.6.6.6.6.6.1.=.=.0.. . . . . . . s s s s s s s s s s s s s s : : u : : : : : : : > : : : : : : < : > : : : > : : : : y : : : : : > : > : : : : : : : > : < : : : : : : : : : : : : : : : : : : : : = + - : - : - @ : * : - : @ - X X . . , L L L L L L ; . . . S.g.g.g.g.g.g.g.g.g.g.g.g.g.g.g.g.g.g.g.g.g.g.g.g.g.g.g.g.g.g.6 . . . . . .                                                                                                                                                                                                                                                                                                                                 ",
"                                                                                                                                                                                                                                                                                                                                      & . . . . . . q.6.6.6.6.6.6.6.6.6.1.=.=.0.. . . . . . . s s s s s s y s s s s s s s : : : : : : r : : : : : : r : : : : : : : t : : : r : : : : e : : : : : : : > : : > : : : : : : : < : : : : e : : : > r : t : > : : + : : = = @ : - = @ - : - - : * : X . . , L L L L L L ; . . . S.g.g.g.g.g.g.g.g.g.g.g.g.g.g.g.g.g.g.g.g.g.g.g.g.g.g.g.g.g.g.6 . . . . . .                                                                                                                                                                                                                                                                                                                                 ",
"                                                                                                                                                                                                                                                                                                                        . . . . . . . >.q.q.q.q.q.q.6.6.6.-.=.=.=.=.=.=.=.=.=.0.. . . . . . . . . . < s s s s s s s s s s s s s < : : : : > r : > : : : e : r : : : : : : : : : r : : : : : > : e : : : r : : : : : r : : : : : > : : : e : : : * - @ : @ : = * + @ = * @ # * = : @ # @ + . . . / ` ` ) L L L L L L ; . . . S.g.g.g.g.g.g.g.g.g.g.g.g.g.g.g.g.g.g.g.g.g.g.g.g.g.g.g.g.g.g.v.N.N.N.N.N.Z.. . . .                                                                                                                                                                                                                                                                                                                         ",
"                                                                                                                                                                                                                                                                                                                        . . . . . . . >.6.6.6.6.6.6.6.6.6.-.=.=.=.=.=.=.=.=.=.0.. . . . . . . . . . < s s s s s a s s s s s s s < : t : : : : : : : : : : : : : t : : : y : : : : : > : : : : : : : : : : : : : > : : : u : > : : : : : : : : : @ - - X : @ - : X + : * - = - : @ + : - + . . . L L L L ~ L ~ ~ L L ; . . . S.g.g.g.g.g.g.g.g.g.g.g.g.g.g.g.g.g.g.g.g.g.g.g.g.g.g.g.g.g.g.g.g.g.g.g.g.N.. . . .                                                                                                                                                                                                                                                                                                                         ",
"                                                                                                                                                                                                                                                                                                                        . . . . . . . >.6.6.6.6.6.6.6.6.6.-.=.=.=.=.=.=.=.=.=.0.. . . . . . . . . . < s s s s s s s s s s s s s < : : : : : : : : : : : : : : : : : : : : : r : : : : : : : : : : : s : : r : : : : : : : : : : : : < : : : : : # : = : : # + = : = + # = : : + # : : X + . . . L L L L ~ L L ~ ~ L ; . . . S.g.g.g.g.g.g.g.g.g.g.g.g.g.g.g.g.g.g.g.g.g.g.g.g.g.g.g.g.g.g.g.g.g.g.g.g.N.. . . .                                                                                                                                                                                                                                                                                                                         ",
"                                                                                                                                                                                                                                                                                                                  o o % ,.>.>.>.>.>.>.e.6.6.6.6.6.6.-.-.-.=.=.=.=.=.=.=.=.=.=.-.<.>.>.. . . . >.>.>.c + + + + + + s s s s s s s a u u y : : : > : : : : r : : > : : > : : : : : : > : : : : : : t : : : : : : : : > : : : : : : : : : : > - : : * - + = + @ * - : - : * - : X X X X X X l L L L ^ L L L L L ) ; ; ; ! d.d.d.k.g.g.g.g.g.g.g.g.g.|.|.|.|.V.V.V.j.g.g.g.g.g.g.g.g.g.g.g.g.g.g.g.g.g.g.g.h.d.d.d.x.o o %                                                                                                                                                                                                                                                                                                                   ",
"                                                                                                                                                                                                                                                                                                                  . . . w.6.6.6.6.6.6.6.6.6.6.6.6.6.=.=.=.=.=.=.=.=.=.=.=.=.=.=.=.=.;.. . . . w.6.6.j . . . . . . s s s s s s s s s s u : t : : : : : : : : : : r : : : r : : : : : r : : : : : : : : : r : : : > : : > : t : < : : : : = * : - = @ : : : = * * # @ - = @ : . . . . . . D ~ L L L L L L L L ` . . . d.g.g.g.g.g.g.g.g.g.g.g.g.a.@X@X@X@XS.S.S.j.g.g.g.g.g.g.g.g.g.g.g.g.g.g.g.g.g.g.g.g.g.g.g.V.. . .                                                                                                                                                                                                                                                                                                                   ",
"                                                                                                                                                                                                                                                                                                                  . . . w.6.6.6.6.6.6.6.6.6.6.6.6.6.=.=.=.=.=.=.=.=.=.=.=.=.=.=.=.=.;.. . . . w.6.6.j . . . . . . s s s s s s s s s s u : : : : t : : > : : : : : : r : : : : r : : : : : : > : : > : : : : r : : : : : : : : : : : t : - - : : @ : @ : - - @ - : : @ - - : . . . . . . D L L L L L L L L L ` . . . d.g.g.g.g.g.g.g.g.g.g.g.g.a.@X@X@X@Xv.S.S.l.g.g.g.g.g.g.g.g.g.g.g.g.g.g.g.g.g.g.g.g.g.g.g.V.. . .                                                                                                                                                                                                                                                                                                                   ",
"                                                                                                                                                                                                                                                                                                                U.2 2 2 q.6.6.6.6.6.6.2.2.2.2.2.2.2.=.=.=.=.=.=.=.=.=.=.=.=.=.=.=.=.-.3 2 2 2 >.>.>.x 2 2 2 2 2 2 y y y y s s s s s s a < < < < < < < < < < : : : : : : : > : : : : : : y : : : > : : : : : : : : t : : : : : r : y : : r + = - - @ - = = = = = = = = = = = , ; ; ; ; ; H L L L L L L ~ L L / 6 6 6 d.g.g.g.g.g.g.g.s.s.s.s.s.s.OXOXOXOXD.T.T.N.s.s.s.s.s.h.g.g.g.g.g.g.g.g.g.g.g.g.g.g.g.g.g.N.6 6 6                                                                                                                                                                                                                                                                                                                   ",
"                                                                                                                                                                                                                                                                                                          q . . . 8.6.6.6.6.6.6.6.6.6.-.=.=.=.=.=.=.=.=.=.=.=.=.=.=.=.=.=.=.=.=.=.=.=.=.=.=.3.. . . } 6.6.6.6.6.9.. . . . s s s s s s s s s s s s s s s s s : : : : : : : : : : : < : : : : : : : : : < : : : : : : # : : = : : X : X + : = : : : # : . . . . . . . . . . . ^ L L L L L L L L L L L L L . . . N.g.g.g.g.g.g.g.g.h.j.S.S.S.S.S.S.S.S.S.S.@X@X@X).S.S.S.S.S.S.g.g.g.g.g.g.g.g.g.g.g.g.g.g.g.g.g.g.g.g.k.. . .                                                                                                                                                                                                                                                                                                             ",
"                                                                                                                                                                                                                                                                                                          q . . . 8.6.6.6.6.6.6.6.6.6.-.=.=.=.=.=.=.=.=.=.=.=.=.=.=.=.=.=.=.=.=.=.=.=.=.=.=.-.. . . } 6.6.6.6.6.9.. . . . s s s s s s s s s s s s s s s s s : : > : < : : : r : : : : t : : y : : : : : : t : < : : * : : - - : + X : * + - : : : - + . . . . . . . . . . . ^ L L L L L L L L L L L L L . . . N.g.g.g.g.g.g.g.g.h.j.S.S.S.S.S.S.S.S.S.B.@X@X@X~.S.S.S.S.S.S.g.g.g.g.g.g.g.g.g.g.g.g.g.g.g.g.g.g.g.g.k.. . .                                                                                                                                                                                                                                                                                                             ",
"                                                                                                                                                                                                                                                                                                          q . . . 8.6.6.6.6.6.6.6.6.6.-.=.=.=.=.=.=.=.=.=.=.=.=.=.=.=.=.=.=.=.=.=.=.=.=.=.=.3.. . . } 6.6.6.6.6.9.. . . . s s s s s s s s s s s s s s s s s : : : : : : : : : : : : : : : : : : e : : : : : : : : : = : : : - @ - : : = - - : : - @ : . . . . . . . . . . . ^ L L L L L L L L L L L L L . . . N.g.g.g.g.g.g.g.g.h.l.S.S.S.S.S.S.S.S.S.V.@X@X@X).S.S.S.S.S.S.f.g.g.g.g.g.g.g.g.g.g.g.g.g.g.g.g.g.g.g.k.. . .                                                                                                                                                                                                                                                                                                             ",
"                                                                                                                                                                                                                                                                                                          Z j j j 8.6.6.6.6.6.2.1.1.1.=.=.=.=.=.=.=.=.=.=.=.=.=.=.=.=.=.=.=.=.=.=.=.=.=.=.=.-.h j j U } } } 8.6.8.j j j j < < < < < < < < < < < < < < < < < r r r r r r r : : : : t : : r : : : : : < : > : : : : : = - : - = * : # # # # # # # # # # g i i i i i i i i i i ~ L L L L L L L L L H D D F v v v l.g.g.l.j.j.j.j.j.j.v.S.S.S.S.S.S.S.S.S.S.[.].[.!.S.S.S.S.S.S.j.j.j.j.j.j.j.h.g.g.g.g.g.g.g.g.g.g.g.g.h.v v v n                                                                                                                                                                                                                                                                                                           ",
"                                                                                                                                                                                                                                                                                                  B . . . } 6.6.6.6.6.6.6.6.6.-.=.=.=.=.=.=.=.=.=.=.=.=.=.=.=.=.=.=.=.=.=.=.=.=.=.=.=.=.=.=.=.=.=.=.j . . . 8.6.6.6.6.6.q.. . . . . . . . . . . . . . . . . s s s s s s s : : y : : : : : : : : * - = - @ : - : : * - + X + @ * = . . . . . . . . . . ] L L L L L L L L L L L L L L L L L L L L ; . . 6 g.g.g.g.g.g.V.S.S.S.S.S.S.S.S.S.S.S.S.S.S.S.S.S.S.S.S.S.S.S.S.S.S.S.S.S.S.S.S.S.S.h.h.g.g.g.g.g.g.g.g.g.g.g.g.g.g.g.T . . .                                                                                                                                                                                                                                                                                                     ",
"                                                                                                                                                                                                                                                                                                  B . . . } 6.6.6.6.6.6.6.6.6.-.=.=.=.=.=.=.=.=.=.=.=.=.=.=.=.=.=.=.=.=.=.=.=.=.=.=.=.=.=.=.=.=.=.=.j . . . 8.6.6.6.6.6.q.. . . . . . . . . . . . . . . . . s s s s s s s : : : : : : : : : : : + X : : : + : . : # # = : : + # = . . . . . . . . . . ] L L L L L L L L L L L L L L L L L L L L ; . . 6 g.g.g.g.g.g.V.S.S.S.S.S.S.S.S.S.S.S.S.S.S.S.S.S.S.S.S.S.S.S.S.S.S.S.S.S.S.S.S.S.S.s.h.g.g.g.g.g.g.g.g.g.g.g.g.g.g.g.T . . .                                                                                                                                                                                                                                                                                                     ",
"                                                                                                                                                                                                                                                                                                  A . . . } 6.6.6.6.6.6.6.6.6.-.=.=.=.=.=.=.=.=.=.=.=.=.=.=.=.=.=.=.=.=.=.=.=.=.=.=.=.=.=.=.=.=.=.=.h . . . t.w.w.6.6.6.q.. . . . . . . . . . . . . . . . . s s s s s s s : t y u > : t y u y : : : : : : : - : - : : : = - : : = . . . . . . . . . . ] L L L L L L L L L L L L L L L L ) ' ' ' 1 . . 6 g.g.g.f.p.p.V.S.S.S.S.S.S.S.S.S.S.S.S.S.S.S.S.S.S.S.S.S.S.S.S.S.S.S.S.S.S.S.S.S.S.g.p.p.a.g.g.g.g.g.g.g.g.g.g.g.g.g.T . . .                                                                                                                                                                                                                                                                                                     ",
"                                                                                                                                                                                                                                                                                            . . . k 9.9.9.8.6.6.6.6.6.6.=.=.=.=.=.=.=.=.=.=.=.=.=.=.=.=.=.=.=.=.=.=.=.=.=.=.=.=.=.=.=.=.=.=.=.=.=.=.-.3.3.r.. . . w.6.6.6.9.9.9.9.9.9.9.9.9.9.9.9.9.9.9.9.q.. . . . . . . . . . . . . . . . . . . . . . . . . . . . . . . . . . 2 3.3.3.3.3.3.3.( ( ( L L L L L L L L L L L L L L L L L i . . . d.c.c.l.g.g.f.S.S.S.S.S.S.S.S.S.S.S.S.S.S.S.S.S.S.S.S.S.S.S.S.S.S.S.S.S.S.S.S.S.S.S.S.S.S.S.S.S.K.g.g.g.g.g.g.g.g.g.g.g.g.g.z.c.c.Z.. . .                                                                                                                                                                                                                                                                                               ",
"                                                                                                                                                                                                                                                                                            . . . j 6.6.6.6.6.6.6.6.6.6.=.=.=.=.=.=.=.=.=.=.=.=.=.=.=.=.=.=.=.=.=.=.=.=.=.=.=.=.=.=.=.=.=.=.=.=.=.=.=.=.=.r.. . . w.6.6.6.6.6.6.6.6.6.6.6.6.6.6.6.6.6.6.6.8.. . . . . . . . . . . . . . . . . . . . . . . . . . . . . . . . . . 2 =.=.=.=.=.=.=.L L L L L L L L L L L L L L L L L L L L i . . . d.g.g.g.g.g.f.S.S.S.S.S.S.S.S.S.S.S.S.S.S.S.S.S.S.S.S.S.S.S.S.S.S.S.S.S.S.S.S.S.S.S.S.S.S.S.S.S.V.g.g.g.g.g.g.g.g.g.g.g.g.g.g.g.g.V.. . .                                                                                                                                                                                                                                                                                               ",
"                                                                                                                                                                                                                                                                                            . . . j 6.6.6.6.6.6.6.6.6.6.=.=.=.=.=.=.=.=.=.=.=.=.=.=.=.=.=.=.=.=.=.=.=.=.=.=.=.=.=.=.=.=.=.=.=.=.=.=.=.=.=.6.. . . t.8.8.8.8.8.8.6.6.6.6.6.6.6.6.6.6.6.6.6.8.. . . . . . . . . . . . . . . . . . . . . . . . . . . . . . . . . . 2 =.=.=.=.=.=.=.L L L L L L L L L L L L L L ^ ^ ^ ^ ^ ^ d . . . d.g.g.g.f.f.a.S.S.S.S.S.S.S.S.S.S.S.S.S.S.A.Z.Z.S.S.S.S.S.S.S.S.S.S.S.S.S.S.S.S.S.S.S.A.S.S.S.S.V.f.f.f.g.g.g.g.g.g.g.g.g.g.g.g.g.V.. . .                                                                                                                                                                                                                                                                                               ",
"                                                                                                                                                                                                                                                                                            . . . j 6.6.6.6.6.6.6.=.=.=.=.=.=.=.=.=.=.=.=.=.=.=.=.=.=.=.=.=.=.=.=.=.=.=.=.=.=.=.=.=.=.=.=.=.=.=.=.=.=.=.=.=.w.r.r.. . . . . . . >.6.6.6.6.6.6.6.6.6.6.6.6.6.r.r.r.r.r.r.r.r.r.r.r.r.r.r.r.r.r.r.r.r.r.r.r.r.r.r.r.r.r.r.r.r.r.r.2.=.=.=.=.=.=.=.=.=.-.L L L L L L L L L L ] . . . . . . R S.S.S.k.g.g.s.S.S.S.@X@X@XT.S.S.S.S.S.S.S.S.S.A.      S.S.S.S.S.S.S.S.S.S.S.S.S.S.S.S.S.S.@X  @XT.S.S.S.S.S.L.a.g.g.g.g.g.g.g.g.g.g.g.g.g.S.S.S.S.. . .                                                                                                                                                                                                                                                                                       ",
"                                                                                                                                                                                                                                                                                            . . . j 6.6.6.6.6.6.6.=.=.=.=.=.=.=.=.=.=.=.=.=.=.=.=.=.=.=.=.=.=.=.=.=.=.=.=.=.=.=.=.=.=.=.=.=.=.=.=.=.=.=.=.=.=.=.3.. . . . . . . >.6.6.6.6.6.6.6.6.6.6.6.6.6.6.6.6.6.6.6.6.6.6.6.6.6.6.6.=.=.=.=.=.=.=.=.=.=.=.=.=.=.=.=.=.=.=.=.=.=.=.=.=.=.=.=.=.=.=.L L L L L L L L L L ] . . . . . . R g.g.g.g.g.g.g.S.S.S.@X@X@XD.S.S.S.S.S.S.S.S.S.c.      V.S.S.S.S.S.S.S.S.S.S.S.S.S.S.S.S.N.@X@X@XD.S.S.S.S.S.S.g.g.g.g.g.g.g.g.g.g.g.g.g.g.g.g.g.S.. . .                                                                                                                                                                                                                                                                                       ",
"                                                                                                                                                                                                                                                                                            . . . j 6.6.6.6.6.6.6.=.=.=.=.=.=.=.=.=.=.=.=.=.=.=.=.=.=.=.=.=.=.=.=.=.=.=.=.=.=.=.=.=.=.=.=.=.=.=.=.=.=.=.=.=.=.=.1.. . . . . . . >.6.6.6.6.6.6.6.6.6.6.6.6.6.6.6.6.6.6.6.6.6.6.6.6.6.6.6.=.=.=.=.=.=.=.=.=.=.=.=.=.=.=.=.=.=.=.=.=.=.=.=.=.=.=.=.=.=.=.L L L L L L L L L L ] . . . . . . R g.h.h.g.g.g.h.S.S.V.@X@X@XT.S.S.S.S.S.S.S.S.S.N.      N.S.S.S.S.S.S.S.S.S.S.S.S.S.S.S.S.B.@X@X@XT.S.S.S.S.S.S.f.h.h.h.h.g.g.g.g.g.g.g.g.g.g.g.g.S.. . .                                                                                                                                                                                                                                                                                       ",
"                                                                                                                                                                                                                                                                                            j j j  .6.6.6.2.1.1.1.=.=.=.=.=.=.=.=.=.=.=.=.=.=.=.=.=.=.=.=.=.=.=.=.=.=.=.=.=.=.=.=.=.=.=.=.=.=.=.=.=.=.=.=.=.=.=.-.h j j j j j j { } } } } } } 8.6.6.6.6.6.6.6.6.6.6.6.6.6.6.6.6.6.6.6.6.*.-.-.-.-.-.-.=.=.=.=.=.=.=.=.=.=.=.=.=.=.=.=.=.=.=.=.-.o.o.o.L L L P D D D D D D J v v v v v v i.j.j.j.j.j.j.c.S.S.V.@X@X@XD.S.S.S.S.S.S.S.S.S.V.      N.S.S.S.S.S.S.S.S.S.S.S.S.S.S.S.S.S.[.'.[.J.S.S.S.S.S.S.j.j.j.b.g.g.g.g.g.g.g.g.g.g.g.g.g.S.. . .                                                                                                                                                                                                                                                                                       ",
"                                                                                                                                                                                                                                                                                      . . . r.6.6.6.6.6.6.-.=.=.=.=.=.=.=.=.=.=.=.=.=.=.=.=.=.=.=.=.=.=.=.=.=.=.=.=.=.=.=.=.=.=.=.=.=.=.=.=.=.=.=.=.=.=.=.=.=.=.=.=.=.=.=.=.=.=.2 . . . . . . q.6.6.6.6.6.6.6.6.6.6.6.6.6.6.6.6.6.6.6.6.6.6.6.6.6.6.6.=.=.=.=.=.=.=.=.=.=.=.=.=.=.=.=.=.=.=.=.=.L L L L L L D . . . . . . . k.g.g.g.g.g.c.S.S.S.S.S.S.S.S.S.S.@X@X@XR.S.S.S.S.S.S.S.S.S.S.      S.S.S.S.S.S.S.S.S.S.S.S.S.S.S.S.S.S.S.S.S.S.S.S.S.S.S.S.S.S.S.S.f.g.g.g.g.g.g.g.g.g.g.g.g.S.. . .                                                                                                                                                                                                                                                                                       ",
"                                                                                                                                                                                                                                                                                      . . . r.6.6.6.6.6.6.-.=.=.=.=.=.=.=.=.=.=.=.=.=.=.=.=.=.=.=.=.=.=.=.=.=.=.=.=.=.=.=.=.=.=.=.=.=.=.=.=.=.=.=.=.=.=.=.=.=.=.=.=.=.=.=.=.=.=.2 . . . . . . q.6.6.6.6.6.6.6.6.6.6.6.6.6.6.6.6.6.6.6.6.6.6.6.6.6.6.6.=.=.=.=.=.=.=.=.=.=.=.=.=.=.=.=.=.=.=.=.=.L L L L L L D . . . . . . . k.g.g.g.g.g.N.S.S.S.S.S.S.S.S.S.c.@X@X@XT.S.S.S.S.S.S.S.S.S.l.      h.S.S.S.S.S.S.S.S.S.S.S.S.S.S.S.S.S.S.S.S.S.S.S.S.S.S.S.S.S.S.S.a.g.g.g.g.g.g.g.g.g.g.g.g.S.. . .                                                                                                                                                                                                                                                                                       ",
"                                                                                                                                                                                                                                                                                      . . . r.6.6.6.6.6.6.-.=.=.=.=.=.=.=.=.=.=.=.=.=.=.=.=.=.=.=.=.=.=.=.=.=.=.=.=.=.=.=.=.=.=.=.=.=.=.=.=.=.=.=.=.=.=.=.=.=.=.=.=.=.=.=.=.=.=.2 . . . . . . q.6.6.6.6.6.6.6.6.6.6.6.6.6.6.6.6.6.6.6.6.6.6.6.6.6.6.6.=.=.=.=.=.=.=.=.=.=.=.=.=.=.=.=.=.=.=.=.=.L L L L L L D . . . . . . . k.g.g.g.g.g.N.S.S.S.S.S.S.S.S.S.S.@X@X@XD.S.S.S.S.S.S.S.S.S.        k.S.S.S.S.S.S.S.S.S.S.S.S.S.S.S.S.S.S.S.S.S.S.S.S.S.S.S.S.S.S.S.f.g.g.g.g.g.g.g.g.g.g.g.g.S.. . .                                                                                                                                                                                                                                                                                       ",
"                                                                                                                                                                                                                                                                                      . . . r.6.6.6.6.6.6.-.=.=.=.=.=.=.=.=.=.=.=.=.=.=.=.=.=.=.=.=.=.=.=.=.=.=.=.=.=.=.=.=.=.=.=.=.=.` ` ` ` ` ` ` ` ` ` ` ` ` ` =.=.=.=.=.=.=. .} } } } } } j j j j j j j j j j j j j j 1.-.-.-.-.-.-.-.-.-.-.-.-.-.=.=.=.=.=.=.=.=.=.=.=.=.=.&.` ` ` Y j j j i i i i i i l T T T T T T R B.c.c.c.c.c.Z.S.S.S.S.S.S.S.S.S.S.)._.).J.S.S.S.S.S.S.S.S.S.S.R.Y.^.S.S.S.S.S.S.S.S.S.S.S.S.S.S.S.S.S.S.S.S.S.S.S.S.S.S.S.S.S.S.S.S.c.c.c.a.g.g.g.g.g.g.g.g.g.c.T T E & & &                                                                                                                                                                                                                                                                                 ",
"                                                                                                                                                                                                                                                                                      . . . r.6.6.6.6.6.6.-.=.=.=.=.=.=.=.=.=.=.=.=.=.=.=.=.=.=.=.=.=.=.=.=.=.=.=.=.=.=.=.=.=.=.=.=.=.L L L L L L L L L L L L L L =.=.=.=.=.=.=.=.=.=.=.=.=.5.. . . . . . . . . . . . . . 3.=.=.=.=.=.=.=.=.=.=.=.=.=.=.=.=.=.=.=.=.=.=.=.=.=.=.%.L L L D . . . . . . . . . v g.g.g.g.g.g.a.S.S.S.S.S.S.S.S.S.S.S.S.S.S.S.S.S.S.S.S.S.S.S.S.S.S.S.S.S.S.S.S.S.S.S.S.S.S.S.S.S.S.S.S.S.S.S.S.S.S.S.S.S.S.S.S.S.S.S.S.S.S.S.S.S.S.S.S.S.a.g.g.g.g.g.g.g.g.g.g.g.g.c.. . .                                                                                                                                                                                                                                                                                 ",
"                                                                                                                                                                                                                                                                                      . . . r.6.6.6.6.6.6.-.=.=.=.=.=.=.=.=.=.=.=.=.=.=.=.=.=.=.=.=.=.=.=.=.=.=.=.=.=.=.=.=.=.=.=.=.=.L L L L L L L L L L L L L L =.=.=.=.=.=.=.=.=.=.=.=.=.1.. . . . . . . . . . . . . . 3.=.=.=.=.=.=.=.=.=.=.=.=.=.=.=.=.=.=.=.=.=.=.=.=.=.=.%.L L L D . . . . . . . . . v g.g.g.g.g.g.p.S.S.S.S.S.S.S.S.S.S.S.S.S.S.S.S.S.S.S.S.S.S.S.S.S.S.S.S.S.S.S.S.S.S.S.S.S.S.S.S.S.S.S.S.S.S.S.S.S.S.S.S.S.S.S.S.S.S.S.S.S.S.S.S.S.S.S.S.S.f.g.g.g.g.g.g.g.g.g.g.g.g.c.. . .                                                                                                                                                                                                                                                                                 ",
"                                                                                                                                                                                                                                                                                      . . . r.6.6.6.6.6.6.-.=.=.=.=.=.=.=.=.=.=.=.=.=.=.=.=.=.=.=.=.=.=.=.=.=.=.=.=.=.=.=.=.=.=.=.=.-.L L L L ] ] o.o.] ] ] L L L 2.=.=.=.=.=.=.=.=.=.=.=.=.1.. . . . . . . . . . . . . . r.r.r.r.r.r.r.r.r.r.r.r.r.r.r.r.r.r.r.r.r.r.r.r.r.r.r.0.] ] ] J . . . . . . . . . v g.g.g.p.p.p.p.S.S.S.S.S.S.S.S.S.S.S.S.S.S.S.S.S.S.S.S.S.S.S.S.S.S.S.S.S.S.S.S.S.S.S.S.S.S.A.S.S.S.S.S.S.S.S.S.S.S.S.S.S.S.S.S.S.S.S.S.S.S.S.S.S.S.S.S.S.g.g.g.g.g.g.g.g.g.g.g.g.g.c.. . .                                                                                                                                                                                                                                                                                 ",
"                                                                                                                                                                                                                                                                              B . . . q.8.8.6.6.6.1.=.=.=.=.=.=.=.=.=.=.=.=.=.=.=.=.=.=.=.=.=.=.=.=.=.=.=.=.=.=.=.=.=.=.o.L L L L L L L L L ( . . . . . . . ^ L L L L L L L L L %.=.=.=.=.=.=.-.;.;.;.;.;.;.^ ^ ^ ^ ^ ^ o.. . . . . . . . . . . . . . . . . . . . . . . . . . . . . . . . . . . N.k.k.k.k.k.h.g.g.g.`.@X@X@XS.S.S.S.S.S.S.S.S.S.S.S.S.S.S.S.S.S.S.S.S.S.S.S.S.S.S.S.S.S.S.f.g.g.f.g.g.g.h.g.g.g.h.h.p.S.S.S.S.S.S.S.S.S.S.S.S.S.S.S.S.S.S.S.S.S.S.S.S.f.g.g.g.g.g.g.g.g.g.g.g.g.c.. . .                                                                                                                                                                                                                                                                                 ",
"                                                                                                                                                                                                                                                                              N . . . 9.6.6.6.6.6.1.=.=.=.=.=.=.=.=.=.=.=.=.=.=.=.=.=.=.=.=.=.=.=.=.=.=.=.=.=.=.=.=.=.=.o.L L L L L L L L ~ ( . . . . . . . ^ L L L L L L L L L %.=.=.=.=.=.=.=.=.=.=.=.=.=.L L L L L L ' . . . . . . . . . . . . . . . . . . . . . . . . . . . . . . . . . . . c.g.g.g.g.g.g.g.g.f.`.@X@X@XS.S.S.S.S.S.S.S.S.S.S.S.S.S.S.S.S.S.S.S.S.S.S.S.S.S.S.S.S.S.S.g.g.g.g.g.g.g.g.g.g.g.h.h.a.S.S.S.S.S.S.S.S.S.S.S.S.S.S.S.S.S.S.S.S.S.S.S.S.a.g.g.g.g.g.g.g.g.g.g.g.g.c.. . .                                                                                                                                                                                                                                                                                 ",
"                                                                                                                                                                                                                                                                              M . . . 9.6.6.6.6.6.1.=.=.=.=.=.=.=.=.=.=.=.=.=.=.=.=.=.=.=.=.=.=.=.=.=.=.=.=.=.=.=.=.=.=.$.L L L L L L ( ( ( ` . . . . . . . ) ( ( ( ( ( ( ( ( ( %.=.=.=.=.=.=.=.=.=.=.=.=.=.L L L L L L ) . . . . . . . . . . . . . . . . . . . . . . . . . . . . . . . . . . . c.g.g.g.g.g.g.a.a.p.`.@X@X@XS.Z.S.S.S.S.S.S.S.S.S.S.S.S.S.S.S.S.S.S.S.S.S.S.S.S.S.S.S.S.H.f.g.g.c.c.c.c.c.c.c.z.h.h.a.S.S.S.S.S.S.S.Z.S.S.S.S.S.S.S.S.S.S.S.S.S.S.S.S.p.a.a.g.g.g.g.g.g.g.g.g.g.c.. . .                                                                                                                                                                                                                                                                                 ",
"                                                                                                                                                                                                                                                                              M . . . 9.6.6.6.6.6.1.=.=.=.=.=.=.=.=.=.=.=.=.=.=.=.=.=.=.=.=.=.=.=.=.=.=.=.=.=.=.=.L L L L L L L L L ^ . . . .               . . . . . . . . . . @.=.=.=.=.=.=.=.=.=.=.=.=.=.=.=.=.=.=.=.1.) ' ' ' ' ' ' ' ' ' ' ' ' ' ' ' ' ' ' ' ' ' ' ' 1 . . 1 ' ' ' H . . . c.g.g.g.g.g.l.S.S.S.[.@X@X@X@X@X@XS.S.S.S.S.S.S.S.S.S.S.S.S.S.S.S.S.S.S.S.S.S.S.S.c.a.g.a.g.g.k.. . . . . . . R g.g.g.g.g.a.S.S.S.Z.@X@X@XR.S.S.S.S.S.S.S.S.S.S.S.S.S.S.S.S.c.g.g.g.g.g.g.g.g.g.g.Z.V.Z.v . .                                                                                                                                                                                                                                                                           ",
"                                                                                                                                                                                                                                                                              q . . . 9.6.6.6.6.6.1.=.=.=.=.=.=.=.=.=.=.=.=.=.=.=.=.=.=.=.=.=.=.=.=.=.=.=.=.=.=.=.L L L L L L L L ~ ^ . . . .               . . . . . . . . . . >.=.=.=.=.=.=.=.=.=.=.=.=.=.=.=.=.=.=.=.=.L L L L L L L L L L L L L L L L L L L L L L L L ; . . , L L L D . . . c.g.g.g.g.g.c.S.S.S.[.@X@X@X@X@X@Xk.S.S.S.S.S.S.S.S.S.S.S.S.S.S.S.S.S.S.S.S.S.S.S.c.h.h.g.g.g.k.. . . . . . . R g.g.g.g.g.g.S.S.S.S.      M.S.S.S.S.S.S.S.S.S.S.S.S.A.A.S.S.c.g.g.g.g.g.g.g.g.g.g.g.g.g.v . .                                                                                                                                                                                                                                                                           ",
"                                                                                                                                                                                                                                                                              q . . . 9.6.6.6.6.6.1.=.=.=.=.=.=.=.=.=.=.=.=.=.=.=.=.=.=.=.=.=.=.=.=.=.=.=.=.=.=.=.L L L L L L L ~ ~ ^ . . . .               . . . . . . . . . . >.=.=.=.=.=.=.=.=.=.=.=.=.=.=.=.=.=.=.=.=.L L L L L L L L L L L L L L L L L L L L L L L L ; . . , L L L D . . . c.g.g.g.g.g.l.S.S.S.[.@X@X@X@X@X@Xl.S.S.S.S.S.S.S.S.S.S.S.S.S.S.S.S.S.S.S.S.S.S.S.c.h.h.g.g.g.k.. . . . . . . R g.g.g.g.g.g.S.S.S.N.      m.S.S.S.S.S.S.S.S.S.S.S.S.S.S.S.S.c.g.g.g.g.g.g.g.g.g.g.g.g.g.v . .                                                                                                                                                                                                                                                                           ",
"                                                                                                                                                                                                                                                                              q . . . 9.6.6.-.-.-.-.=.=.=.=.=.=.=.=.=.=.=.=.=.=.=.=.=.=.=.=.=.=.=.=.=.=.=.O.` ` +.L L L L L L ) i i f                                           z j j F =.=.=.=.=.=.=.=.=.=.=.=.=.=.=.=.=.o.o.o.o.o.o.o.o.o.o._ L L L L L L L L L _ i i i G D D H L L L D . . . C.c.c.c.c.c.B.S.S.S.!.).~.)._.~.).S.S.S.S.S.S.S.S.S.S.S.S.S.S.S.S.S.S.S.S.S.S.S.S.c.h.h.v.v v v J D D D D D D l v v v h.g.g.c.c.c.j.)._.^.J.S.S.S.S.S.S.S.S.S.S.S.S.S.S.S.S.c.g.g.g.g.g.g.g.g.g.g.g.g.g.v . .                                                                                                                                                                                                                                                                           ",
"                                                                                                                                                                                                                                                                              q . . . 7.6.6.=.=.=.=.=.=.=.=.=.=.=.=.=.=.=.=.=.=.=.=.=.=.=.=.=.=.=.=.=.=.=._ L L L L L L L L L ' . . .                                           & . . 2 =.=.=.=.=.=.=.=.=.=.=.=.=.=.=.=.=.=.=.=.=.=.=.=.=.=.=.` L L L L L L L L L ` . . . L L L L L L L D . . . H.A.A.A.S.S.S.S.S.S.S.S.S.S.S.S.S.S.S.S.S.S.S.S.S.S.S.S.S.S.S.S.S.S.S.S.S.S.S.S.S.v.g.g.V.. . . ] L L L L L L i . . . k.g.g.g.g.g.f.S.S.S.S.S.S.S.S.S.S.S.S.S.S.S.S.S.S.S.S.v.g.g.g.g.g.g.g.g.g.g.g.g.g.v . .                                                                                                                                                                                                                                                                           ",
"                                                                                                                                                                                                                                                                                . . . 9.6.6.=.=.=.=.=.=.=.=.=.=.=.=.=.=.=.=.=.=.=.=.=.=.=.=.=.=.=.=.=.=.=._ L L L L L L L L L ' . . .                                           % . . 2 =.=.=.=.=.=.=.=.=.=.=.=.=.=.=.=.=.=.=.=.=.=.=.=.=.=.=.` L L L L L L L L L ` . . . L L L L L L L D . . . H.S.S.S.S.S.S.S.S.S.S.S.S.S.S.S.S.S.S.S.S.S.S.S.S.S.S.S.S.S.S.S.S.S.S.S.S.S.S.S.S.N.g.g.V.. . . ] L L L L L L i . . . k.g.g.g.g.g.a.S.S.S.S.S.S.S.S.S.S.S.S.S.S.S.S.S.S.S.S.N.g.g.g.g.g.g.g.g.g.g.g.g.g.v . .                                                                                                                                                                                                                                                                           ",
"                                                                                                                                                                                                                                                                              M . . . 7.6.6.=.=.=.=.=.=.=.=.=.=.=.=.=.=.=.=.=.=.=.=.=.=.=.=.=.=.=.=.=.=.=._ L L L L L L L ~ L ' . . .                                           % . . 2 =.=.=.=.=.=.=.=.=.=.=.=.=.=.=.=.=.=.=.=.=.=.=.=.=.=.=.` L L L L L L L L L ` . . . L L L L L L L D . . . H.S.S.S.S.S.S.S.S.S.S.S.S.S.S.S.S.S.S.S.S.S.S.S.S.S.S.S.S.S.S.S.S.S.S.S.S.S.S.S.S.N.g.g.V.. . . ] L L L L L L i . . . k.g.g.g.g.g.a.S.S.S.S.S.S.S.S.S.S.S.S.S.S.S.S.S.S.A.A.N.g.g.g.g.g.g.g.g.g.g.g.g.g.v . .                                                                                                                                                                                                                                                                           ",
"                                                                                                                                                                                                                                                                        o o o z :.:.:.8.6.6.=.=.=.=.=.=.=.=.=.=.=.=.=.=.=.=.=.=.=.=.=.=.=.=.=.=.=.=.=.=.=._ L L L L L L H , , 3                                                 % . . 2 =.=.=.=.=.=.=.=.=.=.=.=.=.=.=.=.=.=.=.=.=.=.=.=.=.=.=.` L L L L L L L L L ` . . . L L L L , , , C n.n.n.G.S.S.S.S.S.S.S.S.S.S.S.S.S.S.S.S.S.S.S.S.S.S.S.S.S.S.R.OXOXOXS.S.S.S.S.S.S.S.S.S.i.6 6 7 . . . ] L L L L L L ~ L L X.6 6 6 N.g.g.a.S.S.S.S.S.S.S.S.S.S.S.S.S.S.S.S.S.|.    E.g.g.g.g.g.g.g.g.g.g.g.g.g.v . .                                                                                                                                                                                                                                                                           ",
"                                                                                                                                                                                                                                                                        . . . z 6.6.6.6.6.6.=.=.=.=.=.=.=.=.=.=.=.=.=.=.=.=.=.=.=.=.=.=.=.=.=.=.=.=.=.=.=._ L L L L L L D . . .                                                 % . . 2 =.=.=.=.=.=.=.=.=.=.=.=.=.=.=.=.=.=.=.=.=.=.=.=.=.=.=.` L L L L L L L L L ` . . . L L L L . . . n S.S.S.S.S.S.S.S.S.S.S.S.S.S.S.S.S.S.S.S.S.S.S.S.S.S.S.S.S.S.Y.@X@X@XV.S.S.S.S.S.S.S.S.S.W . . . . . . ] L L L L L L L L L ] . . . V.g.h.f.S.S.S.S.S.S.S.S.S.S.S.S.S.S.S.S.S.      (.g.g.g.g.g.g.g.g.g.g.g.g.g.v . .                                                                                                                                                                                                                                                                           ",
"                                                                                                                                                                                                                                                                        . . . j 6.6.6.6.6.6.=.=.=.=.=.=.=.=.=.=.=.=.=.=.=.=.=.=.=.=.=.=.=.=.=.=.=.=.=.=.=._ L L L L L L D . . .                                                 % . . 2 =.=.=.=.=.=.=.=.=.=.=.=.=.=.=.=.=.=.=.=.=.=.=.=.=.=.=.` L L L L L L L L L ` . . . L L L L . . . n S.S.S.S.S.S.S.S.S.S.S.S.S.S.S.S.S.S.S.S.S.S.S.S.S.S.S.S.S.S.Y.@X@X@XV.S.S.S.S.S.S.S.S.S.W . . . . . . ] L L L L L L L L L ] . . . V.g.h.f.S.S.S.S.S.S.S.S.S.S.S.S.S.S.S.S.A.      (.g.g.g.g.g.g.g.g.g.g.g.g.g.v . .                                                                                                                                                                                                                                                                           ",
"                                                                                                                                                                                                                                                                        . . . j 6.6.6.6.6.6.=.=.=.=.=.=.=.=.=.=.=.=.=.=.=.=.=.=.=.=.=.=.=.=.=.=.=.=.=.=.=._ L L L L L L D . . .                                                 % . . 2 =.=.=.=.=.=.=.=.=.=.=.=.=.=.=.=.=.=.=.=.=.=.=.=.=.=.=.O._ _ X.L L L L L L ` . . . / X.X./ . . . n S.S.S.S.S.S.S.S.S.S.S.S.S.S.S.S.S.S.S.S.S.S.S.S.S.S.S.S.S.S.R.OXOX|.D.D.m.G.S.S.S.S.S.S.W . . . 0 0 0 L L L L ^ L L L L L ' 6 6 6 d.d.d.d.L.S.S.S.S.S.S.S.S.S.S.S.S.S.S.S.S.|. X|.(.s.s.h.g.g.g.g.g.g.g.g.g.g.m 6 6                                                                                                                                                                                                                                                                           ",
"                                                                                                                                                                                                                                                                        . . . j 6.6.6.6.6.6.=.=.=.=.=.=.=.=.=.=.=.=.=.=.=.=.=.=.=.=.=.=.=.=.=.=.=.=.=.=.=._ L L L L L L D . . .                                                 % . . 2 =.=.=.=.=.=.=.=.=.=.=.=.=.=.=.=.=.=.=.=.=.=.=.=.=.=.=.=.=.=.=.L L L L L L ` . . . >.6.6.:.. . . n S.S.S.S.S.S.S.S.S.S.S.S.S.S.S.S.S.S.S.S.S.S.S.S.S.S.S.S.S.S.S.S.S.S.@X@X@Xm.S.S.S.S.S.S.W . . . +X.XoX. . . . ' L L L L L L g.g.c.. . . . L.S.S.S.S.S.S.S.S.S.S.S.S.S.S.S.S.S.S.S.S.S.S.S.a.g.g.g.g.g.g.g.g.g.g.g.g.                                                                                                                                                                                                                                                                          ",
"                                                                                                                                                                                                                                                                        . . . j 6.6.6.6.6.6.=.=.=.=.=.=.=.=.=.=.=.=.=.=.=.=.=.=.=.=.=.=.=.=.=.=.=.=.=.=.=._ L L L L L L D . . .                                                 % . . 2 =.=.=.=.=.=.=.=.=.=.=.=.=.=.=.=.=.=.=.=.=.=.=.=.=.=.=.=.=.=.=.L L L L L L ` . . . >.6.6.:.. . . n S.S.S.S.S.S.S.S.S.S.S.S.S.S.S.S.S.S.S.S.S.S.S.S.S.S.S.S.S.S.S.S.S.Z.@X@X@XT.S.S.S.S.S.S.W . . . +X.XoX. . . . ' L L L L L L g.g.c.. . . . L.S.S.S.S.S.S.S.S.S.S.S.S.S.S.S.S.S.S.S.S.S.S.S.f.g.g.g.g.g.g.g.g.g.g.g.g.                                                                                                                                                                                                                                                                          ",
"                                                                                                                                                                                                                                                                        . . . j 6.6.6.6.6.6.=.=.=.=.=.=.=.=.=.=.=.=.=.=.=.=.=.=.=.=.=.=.=.=.=.=.=.=.=.=.=._ L L L L L L D . . .                                                 % . . 2 =.=.=.=.=.=.=.=.=.=.=.=.=.=.=.=.=.=.=.=.=.=.=.=.=.=.=.=.=.=.=.L L L L L L ` . . . >.6.6.:.. . . n S.S.S.S.S.S.S.S.S.S.S.S.S.S.S.S.S.S.S.S.S.S.S.S.S.S.S.S.S.S.S.S.S.V.@X@X@XY.S.S.S.S.S.S.W . . . #X+X+X. . . . ] ` ` ^ L L L h.g.c.. . . . L.S.S.S.S.S.S.S.Z.V.S.S.S.S.S.S.S.S.S.S.S.S.S.S.f.g.g.g.g.g.g.g.g.g.g.g.g.                                                                                                                                                                                                                                                                          ",
"                                                                                                                                                                                                                                                                        . . . j 6.6.6.6.6.6.=.=.=.=.=.=.=.=.=.=.=.=.=.=.=.=.=.=.=.=.=.=.=.=.=.=.=.=.=.=.=.=.=.=.=.L L L ^ ` ` ] . . .                             . . . . . . . >.5.5.1.=.=.=.=.=.=.=.=.=.=.=.=.=.=.=.=.=.=.=.=.=.=.=.=.=.=.=.=.=.=.=.L L L L L L ` . . . >.6.6.:.. . . n S.S.S.S.S.S.S.S.S.S.S.S.S.S.S.S.S.S.S.S.S.S.S.S.S.S.S.S.S.S.S.S.S.S.S.N.S.S.S.S.S.S.S.S.Z.N.N.S.. . . @X+X+X#X. . . D L L L L L ( . . . . L.S.S.S.S.S.J.      V.S.S.S.S.S.S.S.S.S.S.S.S.S.g.g.g.g.g.g.g.g.g.g.g.g.g.S.. . .                                                                                                                                                                                                                                                                   ",
"                                                                                                                                                                                                                                                                        . . . j 6.6.6.6.6.6.=.=.=.=.=.=.=.=.=.=.=.=.=.=.=.=.=.=.=.=.=.=.=.=.=.=.=.=.=.=.=.=.=.=.=.L L L L L L ' . . .                             . . . . . . . >.=.=.=.=.=.=.=.=.=.=.=.=.=.=.=.=.=.=.=.=.=.=.=.=.=.=.=.=.=.=.=.=.=.=.L L L L L L ` . . . >.6.6.:.. . . n S.S.S.S.S.S.S.S.S.S.S.S.S.S.S.S.S.S.S.S.S.S.S.S.S.S.S.A.S.S.S.S.S.S.S.S.S.S.S.S.S.S.S.S.N.g.g.V.. . . @X.X.X+X. . . D L L L L L ( . . . . L.S.S.S.S.S.k.      S.S.S.S.S.S.S.S.S.S.S.S.S.S.g.g.g.g.g.g.g.g.g.g.g.g.g.S.. . .                                                                                                                                                                                                                                                                   ",
"                                                                                                                                                                                                                                                                        . . . j 6.6.6.6.6.6.=.=.=.=.=.=.=.=.=.=.=.=.=.=.=.=.=.=.=.=.=.=.=.=.=.=.=.=.=.=.=.=.=.=.=.L L L L L L ' . . .                             . . . . . . . >.=.=.=.=.=.=.=.=.=.=.=.=.=.=.=.=.=.=.=.=.=.=.=.=.=.=.=.=.=.=.=.=.=.=.L L L L L L ` . . . >.6.6.:.. . . n S.S.S.S.S.S.S.S.S.S.S.S.S.S.S.S.S.S.S.S.S.S.S.S.S.S.S.S.S.S.S.S.S.S.S.S.S.S.S.S.S.S.S.S.N.g.g.V.. . . @X.X.X+X. . . D L L L L L ( . . . . L.S.S.S.S.S.h.      c.S.S.S.S.S.S.S.S.S.S.S.S.S.g.g.g.g.g.g.g.g.g.g.g.g.g.S.. . .                                                                                                                                                                                                                                                                   ",
"                                                                                                                                                                                                                                                                        . . . j 6.6.6.6.6.6.=.=.=.=.=.=.=.=.=.=.=.=.=.=.=.=.=.=.=.=.=.=.=.=.=.=.=.=.=.=.=.=.=.=.=.%.%.%.$.L L ^ L L ~ o o o o o o o o o o o o o % >.:.:.:.:.:.:.*.=.=.=.=.=.=.=.=.=.=.=.=.=.=.=.=.=.=.=.=.=.=.=.=.=.=.=.=.=.=.=.=.=.=.L L L L L L ` . . . >.6.6.:.. . . n S.S.S.S.S.S.S.S.S.S.S.S.S.'.|.OXOXA.A.S.S.S.S.S.S.S.S.S.S.S.S.S.S.S.S.S.S.S.S.S.S.S.S.S.Z.V.V.L.. . . @X.X.X+X. . . D L L L L L ( . . . . L.S.S.S.S.S.        S.S.S.S.S.S.S.S.S.S.S.S.S.S.g.g.g.g.g.g.g.g.g.g.g.g.g.S.. . .                                                                                                                                                                                                                                                                   ",
"                                                                                                                                                                                                                                                                        . . . j 6.6.6.6.6.6.=.=.=.=.=.=.=.=.=.=.=.=.=.=.=.=.=.=.=.=.=.=.=.=.=.=.=.=.=.=.=.=.=.=.=.=.=.=.o.L L L ~ ~ ^ . . . . . . . . . . . . . . w.6.6.6.=.=.=.=.=.=.=.=.=.=.=.=.=.=.=.=.=.=.=.=.=.=.=.=.=.=.=.=.=.=.=.=.=.=.=.=.=.=.L L L L L L ` . . . >.6.6.:.. . . n S.S.S.S.S.S.S.S.S.S.S.S.S.{.@X@X@XS.S.S.S.S.S.S.S.S.S.S.S.S.S.S.S.S.S.S.S.S.S.S.S.S.S.S.S.S.S.Q.. . . @X.X.X+X. . . D L L L L L ( . . . . L.S.S.S.S.S.B.      V.S.S.S.S.S.S.S.S.S.S.S.S.S.g.g.g.g.g.g.g.g.g.g.g.g.g.S.. . .                                                                                                                                                                                                                                                                   ",
"                                                                                                                                                                                                                                                                        . . . j 6.6.6.6.6.6.=.=.=.=.=.=.=.=.=.=.=.=.=.=.=.=.=.=.=.=.=.=.=.=.=.=.=.=.=.=.=.=.=.=.=.=.=.=.o.L L L L ~ ^ . . . . . . . . . . . . . . w.6.6.6.=.=.=.=.=.=.=.=.=.=.=.=.=.=.=.=.=.=.=.=.=.=.=.=.=.=.=.=.=.=.=.=.=.=.=.=.=.=.L L L L L L ` . . . >.6.6.:.. . . n S.S.S.S.S.S.S.S.S.S.S.S.S.{.@X@X@XZ.S.S.S.S.S.S.S.S.S.S.S.S.S.S.S.S.S.S.S.S.S.S.S.S.S.S.S.S.S.Q.. . . @X@X@X@X. . . D L L L L L ( . . . . L.S.S.S.S.S.B.      N.S.S.S.S.S.S.S.S.S.S.S.S.S.f.g.g.g.g.g.g.g.g.g.g.g.g.S.. . .                                                                                                                                                                                                                                                                   ",
"                                                                                                                                                                                                                                                                        . . . k 8.8.8.6.6.6.=.=.=.=.=.=.=.=.=.=.=.=.=.=.=.=.=.=.=.=.=.=.=.=.=.=.=.=.=.=.=.=.=.=.=.=.=.=.o.L L L L ~ ^ . . . . . . . . . . . . . . w.6.6.6.=.=.=.=.=.=.=.=.=.=.=.=.=.=.=.=.=.=.=.=.=.=.=.=.=.=.=.=.=.=.=.=.=.=.=.=.=.-.L L L L L L ` . . . >.6.6.:.. . . n S.S.S.S.S.S.S.S.S.S.S.S.S.[.@X@X@XA.A.Z.S.S.S.S.S.S.S.S.S.S.S.S.S.S.S.S.S.S.S.S.S.S.S.S.S.S.S.Q.. . . @X@X@X@X. . . D L L L L L ( . . . . L.S.S.S.S.S.G.      S.S.S.S.S.S.S.S.S.S.S.S.S.S.f.g.g.g.g.g.g.g.g.g.g.g.g.S.. . .                                                                                                                                                                                                                                                                   ",
"                                                                                                                                                                                                                                                                              B . . . 9.6.6.6.6.6.1.=.=.=.=.=.=.=.=.=.=.=.=.=.=.=.=.=.=.=.=.=.=.=.=.=.=.=.=.=.=.=.=.=.=.=.=.=.=.=.=.=.6.r.r.r.r.r.r.r.r.r.r.r.r.q.=.=.=.=.=.=.=.=.=.=.=.=.=.=.=.=.=.=.=.=.=.=.=.=.=.=.=.=.=.=.=.=.=.=.=.=.=.=.` L L L L L L L L L ` . . . >.6.6.:.. . . n S.S.S.S.S.S.S.S.S.S.S.S.S.S.N.S.g.@X@X@XS.S.S.S.S.S.S.S.S.S.S.S.S.S.S.S.S.S.S.S.S.S.S.S.S.S.S.S./././.. . . . . . . D L L L L L ( . . . . L.S.S.S.S.S.S.g.S.N.S.S.S.S.S.S.S.S.S.S.S.S.S.S.a.g.g.g.g.g.g.g.g.g.g.g.g.S.. . .                                                                                                                                                                                                                                                                   ",
"                                                                                                                                                                                                                                                                              M . . . 9.6.6.6.6.6.1.=.=.=.=.=.=.=.=.=.=.=.=.=.=.=.=.=.=.=.=.=.=.=.=.=.=.=.=.=.=.=.=.=.=.=.=.=.=.=.=.=.=.=.=.=.=.=.=.=.=.=.=.=.=.=.=.=.=.=.=.=.=.=.=.=.=.=.=.=.=.=.=.=.=.=.=.=.=.=.=.=.=.=.=.=.=.=.=.=.=.=.=.=.` L L L L L L L L L ` . . . >.6.6.:.. . . n S.S.S.S.S.S.S.S.S.S.S.S.S.S.S.S.S.@X@X@Xl.S.S.S.S.S.S.S.S.S.S.S.S.S.S.S.S.S.S.S.S.S.S.S.S.S.S.S.S.S.G.. . . . . . . D L L L L L ( . . . . L.S.S.S.S.S.S.S.S.S.S.S.S.S.S.S.S.S.S.S.S.S.S.S.f.g.g.g.g.g.g.g.g.g.g.g.g.S.. . .                                                                                                                                                                                                                                                                   ",
"                                                                                                                                                                                                                                                                              q . . . 9.6.6.6.6.6.1.=.=.=.=.=.=.=.=.=.=.=.=.=.=.=.=.=.=.=.=.=.=.=.=.=.=.=.=.=.=.=.=.=.=.=.=.=.=.=.=.=.=.=.=.=.=.=.=.=.=.=.=.=.=.=.=.=.=.=.=.=.=.=.=.=.=.=.=.=.=.=.=.=.=.=.=.=.=.=.=.=.=.=.=.=.=.=.=.=.=.=.=.=.` L L L L L L L L L ` . . . >.6.6.:.. . . n S.S.S.S.S.S.S.S.S.S.S.S.S.S.S.S.N.@X@X@XN.S.S.S.S.S.S.S.S.S.S.S.S.S.S.S.S.S.S.S.S.S.S.S.S.S.S.S.S.S.G.. . . . . . . D L L L L L ( . . . . L.S.S.S.S.S.S.S.S.S.S.S.S.S.S.S.S.S.S.S.S.S.S.S.f.g.g.g.g.g.g.g.g.g.g.g.g.S.. . .                                                                                                                                                                                                                                                                   ",
"                                                                                                                                                                                                                                                                              q . . . 9.6.6.6.6.6.1.=.=.=.=.=.=.=.=.=.=.=.=.=.=.=.=.=.=.=.=.=.=.=.=.=.=.=.=.=.=.=.=.=.=.=.=.=.=.=.=.=.=.=.=.=.=.=.=.=.=.=.=.=.=.=.=.=.=.=.=.=.=.=.=.=.=.=.=.=.=.=.=.=.=.=.=.=.=.=.=.=.=.=.=.=.=.=.=.=.=.=.=.=.` L L L L L L L L L ` . . . >.6.6.:.. . . n S.S.S.S.S.S.S.S.S.S.S.S.S.S.S.S.S.[.'.[.S.S.S.S.S.S.S.S.S.S.S.S.S.S.S.S.S.S.S.S.S.S.S.S.S.S.S.S.S.S.G.n n n n n n n F D D D D D G n n n n H.S.S.S.S.S.S.S.S.S.S.S.S.S.S.S.S.S.S.S.Z.N.N.C.g.g.g.g.g.g.g.g.g.g.g.g.g.S.. . .                                                                                                                                                                                                                                                                   ",
"                                                                                                                                                                                                                                                                              q . . . 9.6.6.6.6.6.1.=.=.=.=.=.=.=.=.=.=.=.=.=.=.=.=.=.=.=.=.=.=.=.=.=.=.=.=.=.=.=.=.=.=.=.=.=.=.=.=.=.=.=.=.=.=.=.=.=.=.=.=.=.=.=.=.=.=.=.=.=.=.=.=.=.=.=.=.=.=.=.=.=.=.=.=.=.=.=.=.=.=.=.=.=.=.=.=.=.=.=.=.=.` L L L L L L L L L ` . . . >.6.6.:.. . . n S.S.S.S.S.S.S.S.S.S.S.S.S.S.S.S.S.S.S.S.S.S.S.S.S.S.S.S.S.S.S.S.S.S.S.S.S.S.S.S.S.S.S.S.S.S.S.S.S.S.S.S.S.S.S.S.S.S.n . . . . . . Q.S.S.S.S.S.S.S.S.S.S.S.S.S.S.S.S.S.S.S.S.S.S.S.N.g.g.g.g.g.g.g.g.g.g.g.g.g.g.g.g.S.. . .                                                                                                                                                                                                                                                                   ",
"                                                                                                                                                                                                                                                                              q . . . 9.6.6.6.6.6.1.=.=.=.=.=.=.=.=.=.=.=.=.=.=.=.=.=.=.=.=.=.=.=.=.=.=.=.=.=.=.=.=.=.=.=.=.=.=.=.=.=.=.=.=.=.=.=.=.=.=.=.=.=.=.=.=.=.=.=.=.=.=.=.=.=.=.=.=.=.=.=.=.=.=.=.=.=.=.=.=.=.=.=.=.=.=.=.=.=.=.=.=.=.` L L L L L L L L L ` . . . >.6.6.:.. . . n S.S.S.S.S.S.S.S.S.S.S.S.S.S.S.S.S.S.S.S.S.S.S.S.S.S.S.S.S.S.S.S.S.S.S.S.S.S.S.S.S.S.S.S.S.S.S.S.S.S.S.S.S.S.S.S.S.S.n . . . . . . Q.S.S.S.S.S.S.S.S.S.S.S.S.S.S.S.S.S.S.S.S.S.S.S.N.g.g.g.g.g.g.g.g.g.g.g.g.g.g.g.g.S.. . .                                                                                                                                                                                                                                                                   ",
"                                                                                                                                                                                                                                                                              M . . . 9.6.6.6.6.6.1.=.=.=.=.=.=.=.=.=.=.=.=.=.=.=.=.=.=.=.=.=.=.=.=.=.=.=.=.=.=.=.=.=.=.=.=.=.=.=.=.=.=.=.=.=.=.=.=.=.=.=.=.=.=.=.=.=.=.=.=.=.=.=.=.=.=.=.=.=.=.=.=.=.=.=.=.=.=.=.=.=.=.=.=.=.=.=.=.=.=.=.=.=.+.L L L L L L L L L ` . . . >.6.6.:.. . . n Q.Q.Q.S.S.S.S.S.S.S.S.S.S.S.S.S.S.S.S.S.S.S.S.S.S.S.S.S.S.S.S.S.S.S.S.S.S.S.S.S.S.S.S.S.S.S.S.S.S.S.S.S.S.S.S.S.S.S.n . . . . . . Q.S.S.S.S.S.S.S.S.S.S.S.S.S.S.S.S.S.S.S.S.S.S.S.N.g.g.g.g.g.g.p.p.p.p.a.g.g.g.g.g.S.. . .                                                                                                                                                                                                                                                                   ",
"                                                                                                                                                                                                                                                                              M . . . 9.6.6.6.6.6.6.6.6.6.-.=.=.=.=.=.=.=.=.=.=.=.=.=.=.=.=.=.=.=.=.=.=.=.=.=.=.=.=.=.=.=.=.=.=.=.=.=.=.=.=.=.=.=.=.=.=.=.=.=.=.=.=.=.=.=.=.=.=.=.=.=.=.=.=.=.=.=.=.=.=.=.=.=.=.=.=.=.=.=.=.=.=.=.=.=.=.L L L L L L L L L L L L L ` . . . >.6.6.8.9.9.9.} . . . H.S.S.S.S.S.S.S.S.S.S.S.S.S.S.S.S.S.S.S.S.S.S.S.S.S.S.S.S.S.S.S.S.S.S.S.S.S.S.S.S.S.S.S.S.S.S.S.S.S.S.S.S.S.S.G.H.H.H.H.H.H.S.S.S.S.S.S.S.S.S.S.S.S.S.S.S.S.S.S.S.S.S.S.S.S.v.g.g.g.g.g.g.p.    @Xp.g.g.g.g.g.S.. . .                                                                                                                                                                                                                                                                   ",
"                                                                                                                                                                                                                                                                              N . . . 9.6.6.6.6.6.6.6.6.6.-.=.=.=.=.=.=.=.=.=.=.=.=.=.=.=.=.=.=.=.=.=.=.=.=.=.=.=.=.=.=.=.=.=.=.=.=.=.=.=.=.=.=.=.=.=.=.=.=.=.=.=.=.=.=.=.=.=.=.=.=.=.=.=.=.=.=.=.=.=.=.=.=.=.=.=.=.=.=.=.=.=.=.=.=.=.=.L L L L L L L L L L L L L ` . . . >.6.6.6.6.6.6.} . . . H.S.S.S.S.S.S.S.S.S.S.S.S.S.S.S.S.S.S.S.S.S.S.S.S.S.S.S.S.S.S.S.S.S.S.S.S.S.S.S.S.S.S.S.S.S.S.S.S.S.S.S.S.S.S.S.S.S.S.S.S.S.S.S.S.S.S.S.S.S.S.S.S.S.S.S.S.S.S.S.S.S.S.S.S.S.c.g.g.g.g.g.g.p.    @Xp.g.g.g.g.g.S.. . .                                                                                                                                                                                                                                                                   ",
"                                                                                                                                                                                                                                                                              V . . . q.8.8.6.6.6.6.6.6.6.-.=.=.=.=.=.=.=.=.=.=.=.=.=.=.=.=.=.=.=.=.=.=.=.=.=.=.=.=.=.=.=.=.=.=.=.=.=.=.=.=.=.=.=.=.=.=.=.=.=.=.=.=.=.=.=.=.=.=.=.=.=.=.=.=.=.=.=.=.=.=.=.=.=.=.=.=.=.=.=.=.=.=.=.=.=.=.L L L L L L L L L L L L L ` . . . >.6.6.6.6.6.6.} . . . H.S.S.S.S.S.S.S.S.S.S.S.S.S.Z.Z.S.S.S.S.S.S.S.S.S.S.S.S.S.S.S.S.S.S.S.S.S.S.S.S.S.S.Z.V.S.S.S.S.S.S.S.S.S.S.S.S.S.S.S.S.S.S.S.S.S.S.S.S.S.S.S.S.S.S.S.S.S.S.S.S.S.S.S.S.S.S.c.g.g.g.g.g.f.p.      p.g.g.g.g.g.S.. . .                                                                                                                                                                                                                                                                   ",
"                                                                                                                                                                                                                                                                                      . . . r.6.6.6.6.6.6.-.=.=.=.=.=.=.=.=.=.=.=.=.=.=.=.=.=.=.=.=.=.=.=.=.=.=.=.=.=.=.=.=.=.=.=.=.=.=.=.=.=.=.=.=.=.=.=.=.=.=.=.=.=.=.=.=.=.=.=.=.=.=.=.=.=.=.=.=.=.=.=.=.=.=.=.=.=.=.=.=.=.=.=.=.=.=.L L L L L L L L L L L L L ` . . . >.6.6.6.6.6.6.} . . . H.S.S.S.S.S.S.S.S.S.S.S.S.S.@X@X@XS.S.S.S.S.S.S.S.S.S.S.S.S.S.S.S.S.S.S.S.S.S.S.S.).@X@X@XS.S.S.S.S.S.S.S.S.S.S.S.S.S.S.S.S.S.S.S.S.S.S.S.S.S.S.S.S.S.S.S.S.S.S.S.S.S.S.S.S.c.g.g.g.g.g.f.p.      p.g.g.g.g.g.S.. . .                                                                                                                                                                                                                                                                   ",
"                                                                                                                                                                                                                                                                                      . . . r.6.6.6.6.6.6.-.=.=.=.=.=.=.=.=.=.=.=.=.=.=.=.=.=.=.=.=.=.=.=.=.=.=.=.=.=.=.=.=.=.=.=.=.=.=.=.=.=.=.=.=.=.=.=.=.=.=.=.=.=.=.=.=.=.=.=.=.=.=.=.=.=.=.=.=.=.=.=.=.=.=.=.=.=.=.=.=.=.=.=.=.=.=.L L L L L L L L L L L L L ` . . . >.6.6.6.6.6.6.} . . . H.S.S.S.S.S.S.S.S.S.S.S.S.V.@X@X@Xl.S.S.S.S.S.S.S.S.S.S.S.S.S.S.S.S.S.S.S.S.S.S.S._.@X@X@XB.S.S.S.S.S.S.S.S.S.S.S.S.S.S.S.S.S.S.S.S.S.S.S.S.S.S.S.S.S.S.S.S.S.S.S.S.S.S.S.S.c.g.g.g.g.g.f.p.      p.g.g.g.g.g.S.. . .                                                                                                                                                                                                                                                                   ",
"                                                                                                                                                                                                                                                                                      . . . r.6.6.6.6.6.6.-.=.=.=.=.=.=.=.=.=.=.=.=.=.=.=.=.=.=.=.=.=.=.=.=.=.=.=.=.=.=.=.=.=.=.=.=.=.=.=.=.=.=.=.=.=.=.=.=.=.=.=.=.=.=.=.=.=.=.=.=.=.=.=.=.=.=.=.=.=.=.=.=.=.=.=.=.=.=.=.=.=.=.=.=.=.=.L L L L L L L L L L L L L ` . . . >.6.6.6.6.6.6.} . . . H.S.S.S.S.S.S.S.S.S.S.S.S.N.@X@X@XN.S.S.S.S.S.S.S.S.S.S.S.S.S.S.S.S.S.S.S.S.S.S.S._.@X@X@XV.S.S.S.S.S.S.S.S.S.S.S.S.S.S.S.S.S.S.S.S.S.S.S.S.S.S.S.S.S.S.S.S.S.S.S.S.S.S.S.S.c.h.g.g.g.g.f.        p.g.g.g.g.g.S.. . .                                                                                                                                                                                                                                                                   ",
"                                                                                                                                                                                                                                                                                      . . . r.6.6.6.6.6.6.-.=.=.=.=.=.=.=.=.=.=.=.=.=.=.=.=.=.=.=.=.=.=.=.=.=.=.=.=.=.=.=.=.=.=.=.=.=.=.=.=.=.=.=.=.=.=.=.=.=.=.=.=.=.=.=.=.=.=.=.=.=.=.=.=.=.=.=.=.=.=.=.=.=.=.=.=.=.=.=.=.=.=.=.=.=.-.L L L L L L L L L L L L L ` . . . >.9.9.7.6.6.6.} . . . H.S.S.S.S.S.S.S.S.S.S.S.S.c.@X@X@XB.S.S.S.S.S.S.S.S.S.S.S.S.S.S.B.N.S.S.S.S.S.S.S.~.@X@X@XZ.V.B.S.S.S.S.S.S.S.S.S.S.S.S.S.S.S.S.S.S.S.S.S.S.S.S.S.S.S.S.S.S.S.S.S.S.S.S.S.S.N.h.g.g.g.g.g.p.      p.g.g.g.g.g.S.. . .                                                                                                                                                                                                                                                                   ",
"                                                                                                                                                                                                                                                                                      . . . r.6.6.6.6.6.6.-.=.=.=.=.=.=.=.=.=.=.=.=.=.=.=.=.=.=.=.=.=.=.=.=.=.=.=.=.=.=.=.=.=.=.=.=.=.=.=.=.=.=.=.=.=.=.=.=.=.=.=.=.=.=.=.=.=.=.=.=.=.=.=.=.=.=.=.=.=.=.=.=.=.=.=.=.=.=.=.=.=.=.=.L L L L L L L L L L L L L L L L ` . . . . . . 2 6.6.6.} . . . H.S.S.S.S.S.S.S.S.S.S.S.S.k.@X@X@XS.S.S.S.S.S.S.S.S.S.S.S.S.Z.@X@X@XR.S.S.S.S.S.S.S.Z.S.l.@X@X@XV.S.S.S.S.S.S.S.S.S.S.S.S.S.S.S.S.S.S.S.S.S.S.S.S.S.S.S.S.S.S.S.S.S.S.p.h.h.g.g.g.g.g.g.g.p.p.p.p.a.g.g.g.g.g.S.. . .                                                                                                                                                                                                                                                                   ",
"                                                                                                                                                                                                                                                                                      . . . r.6.6.6.6.6.6.-.=.=.=.=.=.=.=.=.=.=.=.=.=.=.=.=.=.=.=.=.=.=.=.=.=.=.=.=.=.=.=.=.=.=.=.=.=.=.=.=.=.=.=.=.=.=.=.=.=.=.=.=.=.=.=.=.=.=.=.=.=.=.=.=.=.=.=.=.=.=.=.=.=.=.=.=.=.=.=.=.=.=.=.L L L L L L L L L L L L L L L L ` . . . . . . 2 6.6.6.} . . . H.S.S.S.S.S.S.S.S.S.S.S.S.h.@X@X@Xk.S.S.S.S.S.S.S.S.S.S.S.S.S.@X@X@XT.S.S.S.S.S.S.S.S.S.k.@X@X@XS.S.S.S.S.S.S.S.S.S.S.S.S.S.S.S.S.S.S.S.S.S.S.S.S.S.S.S.S.S.S.S.S.S.S.g.g.g.g.g.g.g.g.g.g.g.g.g.g.g.g.g.g.g.g.S.. . .                                                                                                                                                                                                                                                                   ",
"                                                                                                                                                                                                                                                                                      . . . r.6.6.6.6.6.6.-.=.=.=.=.=.=.=.=.=.=.=.=.=.=.=.=.=.=.=.=.=.=.=.=.=.=.=.=.=.=.=.=.=.=.=.=.=.=.=.=.=.=.=.=.=.=.=.=.=.=.=.=.=.=.=.=.=.=.=.=.=.=.=.=.=.=.=.=.=.=.=.=.=.=.=.=.=.=.=.=.=.=.=.L L L L L L L L L L L L L L L L ` . . . . . . 2 6.6.6.} . . . H.S.S.S.S.S.S.S.S.S.S.S.S.k.@X@X@XS.S.S.S.S.S.S.S.S.S.S.S.S.v.@X@X@XD.S.S.S.S.S.S.S.S.S.l.@X@X@XV.S.S.S.S.S.S.S.S.S.S.S.S.S.S.S.S.S.S.S.S.S.S.S.S.S.S.S.S.S.S.S.S.S.S.f.g.g.g.g.g.g.g.g.g.g.g.g.g.g.g.g.g.g.g.S.. . .                                                                                                                                                                                                                                                                   ",
"                                                                                                                                                                                                                                                                                            k j j  .6.6.6.2.1.1.1.=.=.=.=.=.=.=.=.=.=.=.=.=.=.=.=.=.=.=.=.=.=.=.=.=.=.=.=.=.=.=.=.=.=.=.=.=.=.=.=.=.=.=.=.=.=.=.=.=.=.=.=.=.=.=.=.=.=.=.=.=.=.=.=.=.=.=.=.=.=.=.=.=.=.=.=.=.=.=.=.L L L L L L L L L L L L L L L L ^ D D D $ . . 2 6.6.6.,.} } } n n n L.S.S.S.S.S.S.S.S.S.S.)._.).S.S.S.S.S.S.S.S.S.S.S.S.S.N.@X@X@XT.S.S.S.S.S.S.S.S.S.S.).~.).S.S.S.S.S.S.S.S.S.S.S.[.{.'.S.S.S.S.S.S.S.S.S.S.S.S.S.S.            _.p.g.g.g.g.g.g.g.g.g.g.g.g.g.g.g.g.R v v !                                                                                                                                                                                                                                                                         ",
"                                                                                                                                                                                                                                                                                            . . . j 6.6.6.6.6.6.6.=.=.=.=.=.=.=.=.=.=.=.=.=.=.=.=.=.=.=.=.=.=.=.=.=.=.=.=.=.=.=.=.=.=.=.=.=.=.=.=.=.=.=.=.=.=.=.=.=.=.=.=.=.=.=.=.=.=.=.=.=.=.=.=.=.=.=.=.=.=.=.=.=.=.=.=.=.=.=.=.L L L L L L L L L L L L L L L L L L L L ; . . 2 6.6.6.6.6.6.w.. . . /.S.S.S.S.S.S.S.S.S.S.S.S.S.S.S.S.S.S.S.S.S.S.S.S.S.S.V.@X@X@XD.S.S.S.S.S.S.S.S.S.S.S.S.S.S.S.S.S.S.S.S.S.S.S.c.@X@X@Xv.S.S.S.S.S.S.S.S.S.S.S.S.Z.              p.g.g.g.g.g.g.g.g.g.g.g.g.g.g.g.g.v . .                                                                                                                                                                                                                                                                           ",
"                                                                                                                                                                                                                                                                                            . . . j 6.6.6.6.6.6.6.=.=.=.=.=.=.=.=.=.=.=.=.=.=.=.=.=.=.=.=.=.=.=.=.=.=.=.=.=.=.=.=.=.=.=.=.=.=.=.=.=.=.=.=.=.=.=.=.=.=.=.=.=.=.=.=.=.=.=.=.=.=.=.=.=.=.=.=.=.=.=.=.=.=.=.=.=.=.=.=.L L L L L L L L L L L L L L L L L L L L ; . . 2 6.6.6.6.6.6.w.. . . /.S.S.S.S.S.S.S.S.S.S.S.S.S.S.S.S.S.S.S.S.S.S.S.S.S.S.Z.@X@X@XD.S.S.S.S.S.S.S.S.S.S.S.S.S.S.S.S.S.S.S.S.S.S.S.V.@X@X@XZ.S.S.S.S.S.S.S.S.S.S.S.S.S.              p.g.g.g.g.g.g.g.g.g.g.g.g.g.g.g.g.v . .                                                                                                                                                                                                                                                                           ",
"                                                                                                                                                                                                                                                                                            . . . j 6.6.6.6.6.6.6.=.=.=.=.=.=.=.=.=.=.=.=.=.=.=.=.=.=.=.=.=.=.=.=.=.=.=.=.=.=.=.=.=.=.=.=.=.=.=.=.=.=.=.=.=.=.=.=.=.=.=.=.=.=.=.=.=.=.=.=.=.=.=.=.=.=.=.=.=.=.=.=.=.=.=.=.=.=.=.6.L L L L L L L L L L L L L L L L L L L L ; . . 2 6.6.6.6.6.6.w.. . . /.S.S.S.S.S.S.S.S.S.S.S.S.S.S.S.S.S.S.S.S.S.S.S.S.S.S.S.@X@X@XT.S.S.S.S.S.S.S.S.S.S.S.S.S.S.S.S.S.S.S.S.S.S.S.S.@X@X@XS.S.S.S.S.S.S.S.S.S.S.S.S.A.              p.g.g.g.g.g.g.g.g.g.g.g.g.g.g.g.g.v . .                                                                                                                                                                                                                                                                           ",
"                                                                                                                                                                                                                                                                                            . . . j 6.6.6.6.6.6.6.=.=.=.=.=.=.=.=.=.=.=.=.=.=.=.=.=.=.=.=.=.=.=.=.=.=.=.=.=.=.=.=.=.=.=.=.=.=.=.=.=.=.=.=.=.=.=.=.=.=.=.=.=.=.=.=.=.=.=.=.=.=.=.=.=.=.=.=.=.=.=.=.=.=.=.=.L L L L L L L L L L L L L L L L L L L L L ~ L L ; . . 2 6.6.6.6.6.6.w.. . . /.S.S.S.S.S.S.S.S.S.S.S.S.S.S.S.S.S.S.S.S.S.S.S.S.S.S.S.S.Z.S.S.S.S.S.S.S.S.S.S.S.S.S.S.S.S.S.S.S.S.S.S.S.S.S.V.@X@X@Xl.S.S.S.S.S.S.S.S.S.S.S.S.S.S.Z.A.S.S.S.Z.p.g.g.g.g.g.g.g.g.g.g.g.g.g.g.g.g.v . .                                                                                                                                                                                                                                                                           ",
"                                                                                                                                                                                                                                                                                            . . . j 6.6.6.6.6.6.6.=.=.=.=.=.=.=.=.=.=.=.=.=.=.=.=.=.=.=.=.=.=.=.=.=.=.=.=.=.=.=.=.=.=.=.=.=.=.=.=.=.=.=.=.=.=.=.=.=.=.=.=.=.=.=.=.=.=.=.=.=.=.=.=.=.=.=.=.=.=.=.=.=.=.=.=.L L L L L L L L L L L L L L L L L L L L L ~ L L , . . 2 6.6.6.6.6.6.w.. . . /.S.S.S.S.S.S.S.S.S.S.S.S.S.S.S.S.S.S.S.S.S.S.S.S.S.S.S.S.S.S.S.S.S.S.S.S.S.S.S.S.S.S.S.S.S.S.S.S.S.S.S.S.S.S.N.@X@X@XN.S.S.S.S.S.S.S.S.S.S.S.S.S.S.S.S.S.S.S.S.a.g.g.g.g.g.g.g.g.g.g.g.g.g.g.g.g.v . .                                                                                                                                                                                                                                                                           ",
"                                                                                                                                                                                                                                                                                            . . . z 7.7.7.8.6.6.6.=.=.=.=.=.=.=.=.=.=.=.=.=.=.=.=.=.=.=.=.=.=.=.=.=.=.=.=.=.=.=.=.=.=.=.=.=.=.=.=.=.=.=.=.=.=.=.=.=.=.=.=.=.=.=.=.=.=.=.=.=.=.=.=.=.=.=.=.=.=.=.=.=.=.=.-.L L L L L L L L L L L L L L L L L L L L L ( ( ( , . . 2 6.6.6.6.6.6.w.. . . /.H.H.G.S.S.S.S.S.S.S.S.S.S.S.S.S.S.S.S.S.S.S.S.S.S.S.S.S.S.S.S.S.S.S.S.S.S.S.S.S.S.S.S.S.S.S.S.S.S.S.S.S.S.S.c.@X@X@XS.S.S.S.S.S.S.S.S.S.S.S.S.S.S.S.S.S.S.S.S.a.g.g.g.g.g.g.g.g.g.g.g.g.g.g.g.g.v . .                                                                                                                                                                                                                                                                           ",
"                                                                                                                                                                                                                                                                                                  S . . . } 6.6.6.6.6.6.=.=.=.=.=.=.=.=.=.=.=.=.=.=.=.=.=.=.=.=.=.=.=.=.=.=.=.=.=.=.=.=.=.=.=.=.=.=.=.=.=.=.=.=.=.=.=.=.=.=.=.=.=.=.=.=.=.=.=.=.=.=.=.=.=.=.=.=.=.o.L L L L L L L L L L L L L L L L L L L L L L L ` . . . . . . 2 6.6.6.6.6.6.6.w.w.t.. . . n S.S.S.S.S.S.S.S.S.S.S.S.S.S.S.S.S.S.S.S.S.S.S.S.S.S.S.S.S.S.S.S.S.S.S.S.S.S.S.S.S.S.S.S.S.S.S.S.S.S.S.S.S.B.S.S.S.S.S.S.S.S.S.S.S.S.S.S.S.S.S.S.S.a.g.g.g.g.g.g.g.g.g.g.g.g.g.g.g.g.g.g.g.v . .                                                                                                                                                                                                                                                                           ",
"                                                                                                                                                                                                                                                                                                  B . . . } 6.6.6.6.6.6.=.=.=.=.=.=.=.=.=.=.=.=.=.=.=.=.=.=.=.=.=.=.=.=.=.=.=.=.=.=.=.=.=.=.=.=.=.=.=.=.=.=.=.=.=.=.=.=.=.=.=.=.=.=.=.=.=.=.=.=.=.=.=.=.=.=.=.=.=.o.L L L L L L L L L L L L L L L L L L L L L L L ` . . . . . . 2 6.6.6.6.6.6.6.6.6.8.. . . n S.S.S.S.S.S.S.S.S.S.S.S.S.S.S.S.S.S.S.S.S.S.S.S.S.S.S.S.S.S.S.S.S.S.S.S.S.S.S.S.S.S.S.S.S.S.S.S.S.S.S.S.S.S.S.S.S.S.S.S.S.S.S.S.S.S.S.S.S.S.S.S.S.g.g.g.g.g.g.g.g.g.g.g.g.g.g.g.g.g.g.g.g.v . .                                                                                                                                                                                                                                                                           ",
"                                                                                                                                                                                                                                                                                                  V . . . } 6.6.6.6.6.6.=.=.=.=.=.=.=.=.=.=.=.=.=.=.=.=.=.=.=.=.=.=.=.=.=.=.=.=.=.=.=.=.=.=.=.=.=.=.=.=.=.=.=.=.=.=.=.=.=.=.=.=.=.=.=.=.=.=.=.=.=.=.=.=.=.=.=.=.=.o.L L L L L L L L L L L L L L L L L L L L L L ~ ` . . . . . . 2 6.6.6.6.6.6.6.6.6.8.. . . n S.S.S.S.S.S.S.S.S.S.S.S.S.S.S.S.S.S.S.S.S.S.S.S.S.S.S.S.S.S.S.S.S.S.S.S.S.S.S.S.S.S.S.S.S.S.S.S.S.S.S.S.S.S.S.S.S.S.S.S.S.S.S.S.S.S.S.S.S.S.S.S.S.g.g.g.g.g.g.g.g.g.g.g.g.g.g.g.g.g.g.g.g.v . .                                                                                                                                                                                                                                                                           ",
"                                                                                                                                                                                                                                                                                                    . . . } q.q.q.6.6.6.=.=.=.=.=.=.=.=.=.=.=.=.=.=.=.=.=.=.=.=.=.=.=.=.=.=.=.=.=.=.=.=.=.=.=.=.=.=.=.=.=.=.=.=.=.=.=.=.=.=.=.=.=.=.=.=.=.=.=.=.=.=.=.=.=.=.=.=.=.$.L L L L L L L L L L L L L L L L L L L L ` ` ` [ . . . . . . 4 q.q.q.7.6.6.6.6.6.8.. . . n L.L.L.G.S.S.S.S.S.S.S.S.S.S.S.S.S.S.S.S.S.S.S.S.S.S.S.S.S.S.S.S.S.S.S.S.S.S.S.S.S.S.S.S.S.S.S.S.S.S.S.S.S.S.S.S.S.S.S.S.S.S.S.S.S.S.S.S.S.S.S.S.S.g.g.g.g.g.g.g.g.g.g.g.g.g.g.g.g.g.N.N.N.v . .                                                                                                                                                                                                                                                                           ",
"                                                                                                                                                                                                                                                                                                          M . . . 8.6.6.6.6.6.-.=.=.=.=.=.=.=.=.=.=.=.=.=.=.=.=.=.=.=.=.=.=.=.=.=.=.=.=.=.=.=.=.=.=.=.=.=.=.=.=.=.=.=.=.=.=.=.=.=.=.=.=.=.=.=.=.=.=.=.L L L L L L L L L L L L L L L L L L L L L L L L L L L L . . .             U.. . . j 6.6.6.6.6.6.q.q.q.} . . . u.S.S.S.S.S.S.S.S.S.S.S.S.S.S.S.S.S.S.S.S.S.S.S.S.S.S.S.S.S.S.S.S.S.S.S.S.S.S.S.S.S.S.S.S.S.S.S.S.S.S.S.S.S.S.S.S.S.S.S.S.S.S.S.S.S.S.S.S.S.f.g.g.g.g.g.g.g.g.g.g.g.g.g.g.g.c.. . .                                                                                                                                                                                                                                                                                 ",
"                                                                                                                                                                                                                                                                                                          0 . . . 8.6.6.6.6.6.-.=.=.=.=.=.=.=.=.=.=.=.=.=.=.=.=.=.=.=.=.=.=.=.=.=.=.=.=.=.=.=.=.=.=.=.=.=.=.=.=.=.=.=.=.=.=.=.=.=.=.=.=.=.=.=.=.=.=.=.L L L L L L L L L L L L L L L L L L L L L L L L L L L L . . .             I.. . . j 6.6.6.6.6.6.6.6.6.} . . . u.S.S.S.S.S.S.S.S.S.S.S.S.S.S.S.S.S.S.S.S.S.S.S.S.S.S.S.S.S.S.S.S.S.S.S.S.S.S.S.S.S.S.S.S.S.S.S.S.S.S.S.S.S.S.S.S.S.S.S.S.S.S.S.S.S.S.S.S.S.f.g.g.g.g.g.g.g.g.g.g.g.g.g.g.g.c.. . .                                                                                                                                                                                                                                                                                 ",
"                                                                                                                                                                                                                                                                                                          0 . . . 8.6.6.6.6.6.-.=.=.=.=.=.=.=.=.=.=.=.=.=.=.=.=.=.=.=.=.=.=.=.=.=.=.=.=.=.=.=.=.=.=.=.=.=.=.=.=.=.=.=.=.=.=.=.=.=.=.=.=.=.=.=.=.=.=.=.L L L L L L L L L L L L L L L L L L L L L L L L L L L L . . .             I.. . . j 6.6.6.6.6.6.6.6.6.} . . . u.S.S.S.S.S.S.S.S.S.S.S.S.S.S.S.S.S.S.S.S.S.S.S.S.S.S.S.S.S.S.S.S.S.S.S.S.S.S.S.S.S.S.S.S.S.S.S.S.S.S.S.S.S.S.S.S.S.S.S.S.S.S.S.S.S.S.S.S.S.a.g.g.g.g.g.g.g.g.g.g.g.g.g.g.g.c.. . .                                                                                                                                                                                                                                                                                 ",
"                                                                                                                                                                                                                                                                                                                I.2 2 2 2 2 2 ..2.2.2.-.=.=.=.=.=.=.=.=.=.=.=.=.=.=.=.=.=.=.=.=.=.=.=.=.=.=.=.=.=.=.=.=.=.=.=.=.=.=.=.=.=.=.=.=.=.=.=.&._ _ _ _ _ _ ( L L L L L L L L L L L L L L L L L L L L L L L ] , , , p                   I.. . . j 6.6.6.6.6.6.6.6.6.e.:.:.:.C 7 7 7 G.S.S.S.S.S.S.S.S.S.S.S.S.S.S.S.S.S.S.S.S.S.S.S.S.S.S.S.S.S.S.S.S.S.S.S.S.S.S.S.S.S.S.S.S.S.S.S.S.S.S.S.S.S.S.S.S.S.S.S.S.S.    }.|.a.g.g.g.g.g.g.g.g.g.g.g.g.g.g.g.c.. . .                                                                                                                                                                                                                                                                                 ",
"                                                                                                                                                                                                                                                                                                                  . . . . . . } 6.6.6.-.=.=.=.=.=.=.=.=.=.=.=.=.=.=.=.=.=.=.=.=.=.=.=.=.=.=.=.=.=.=.=.=.=.=.=.=.=.=.=.=.=.=.=.=.=.=.=.%.L L L L L L L L L L L L L L L L L L L L L L L L L L L L L L ] . . .                     I.. . . j 6.6.6.6.6.6.6.6.6.1.=.=.=.j . . . G.S.S.S.S.S.S.S.S.S.S.S.S.S.S.S.S.S.S.S.S.S.S.S.S.S.S.S.S.S.S.S.S.S.S.S.S.S.S.S.S.S.S.S.S.S.S.S.S.S.S.S.S.S.S.S.S.S.S.S.S.V.  @X@X@Xa.g.g.g.g.g.g.g.g.g.g.g.g.g.g.g.c.. . .                                                                                                                                                                                                                                                                                 ",
"                                                                                                                                                                                                                                                                                                                  . . . . . . } 6.6.6.-.=.=.=.=.=.=.=.=.=.=.=.=.=.=.=.=.=.=.=.=.=.=.=.=.=.=.=.=.=.=.=.=.=.=.=.=.=.=.=.=.=.=.=.=.=.=.=.%.L L L L L L L L L L L L L L L L L L L L L L L L L L L L L L ] . . .                     I.. . . j 6.6.6.6.6.6.6.6.6.1.=.=.=.j . . . G.S.S.S.S.S.S.S.S.S.S.S.S.S.S.S.S.S.S.S.S.S.S.S.S.S.S.S.S.S.S.S.S.S.S.S.S.S.S.S.S.S.S.S.S.S.S.S.S.S.S.S.S.S.S.S.S.S.S.S.S.B.@X@X@X@Xa.g.g.g.g.g.g.g.g.g.g.g.g.g.g.g.c.. . .                                                                                                                                                                                                                                                                                 ",
"                                                                                                                                                                                                                                                                                                                  o o o o o o { >.>.>.>.>.>.@.-.-.-.=.=.=.=.=.=.=.=.=.=.=.=.=.=.=.=.=.=.=.=.=.=.=.=.=.=.=.=.=.=.=.=.=.=.=.=.=.=.&.%.%.#.L L L L L L L L L L L L L L L L L L L L L L L ( L L L L L L _ o o o                       o o o z :.:.>.8.6.6.6.6.6.2.-.-.-.G 2 2 2 n.n.n.G.S.S.S.S.S.S.S.S.S.S.S.S.S.S.S.S.S.S.S.S.S.S.S.S.S.S.S.S.S.S.S.S.S.S.S.S.S.S.S.S.S.S.S.S.S.S.S.S.S.S.S.S.S.S.S.S.S.N.      @Xa.g.g.g.g.g.g.g.g.g.g.g.g.k.d.d.x.o o o                                                                                                                                                                                                                                                                                 ",
"                                                                                                                                                                                                                                                                                                                              N . . . . . . 2 6.6.6.=.=.=.=.=.=.=.=.=.=.=.=.=.=.=.=.=.=.=.=.=.=.=.=.=.=.=.=.=.=.=.=.=.=.=.=.=.=._ L L L L L L L L L L L L L L L L L L L L L L L L L ~ ( . . . . . .                                     A . . . 9.6.6.6.6.6.6.6.6.6.-.=.=.r.. . . Q.S.S.S.S.S.S.S.S.S.S.S.S.S.S.S.S.S.S.S.S.S.S.S.S.S.S.S.S.S.S.S.S.S.S.S.S.S.S.S.S.S.S.S.S.S.S.S.S.S.S.S.S.S.S.S.S.S.c.  @X@X@Xa.g.g.g.g.g.g.g.g.g.g.g.g.S.. . .                                                                                                                                                                                                                                                                                       ",
"                                                                                                                                                                                                                                                                                                                              M . . . . . . 2 6.6.6.=.=.=.=.=.=.=.=.=.=.=.=.=.=.=.=.=.=.=.=.=.=.=.=.=.=.=.=.=.=.=.=.=.=.=.=.=.=._ L L L L L L L L L L L L L L L L L L L L L L L L L ~ ( . . . . . .                                     S . . . 9.6.6.6.6.6.6.6.6.6.-.=.=.r.. . . Q.S.S.S.S.S.S.S.S.S.S.S.S.S.S.S.S.S.S.S.S.S.S.S.S.S.S.S.S.S.S.S.S.S.S.S.S.S.S.S.S.S.S.S.S.S.S.S.S.S.S.S.S.S.S.S.S.S.N.      @Xa.g.g.g.g.g.g.g.g.g.g.g.g.S.. . .                                                                                                                                                                                                                                                                                       ",
"                                                                                                                                                                                                                                                                                                                              M . . . . . . 4 q.q.q.5.5.5.=.=.=.=.=.=.=.=.=.=.=.=.=.=.=.=.=.=.=.=.=.=.=.=.=.=.=.=.=.=.=.=.=.=.=.( L L L L L L L L L L L L L L L L L L L ) ` ` ` ` ` ` ' . . . . . .                                     A . . . w.q.q.6.6.6.6.6.6.6.-.=.=.7.. . . /.L.L.G.S.S.S.S.S.S.S.S.S.S.S.S.S.S.S.S.S.S.S.S.S.S.S.S.S.S.S.S.Z.V.B.N.c.v.S.S.S.S.S.S.S.S.S.S.S.S.S.S.S.S.S.S.S.S.S.      @Xa.g.g.g.g.g.g.g.g.g.g.g.g.S.. . .                                                                                                                                                                                                                                                                                       ",
"                                                                                                                                                                                                                                                                                                                                            U.. . . . . . @.=.=.=.=.=.=.=.=.=.=.=.=.=.=.=.=.=.=.=.=.=.=.=.=.L L L L L L L L L L L L L L L L L L L L L L L L L L L L L L ' . . . . . . .                                                         . . . r.6.6.6.6.6.6.-.=.=.=.4.5.0.. . . u.S.S.S.S.S.S.S.S.S.S.S.S.S.S.S.S.S.S.S.S.S.S.S.S.S.S.S.              ^.S.S.S.S.S.S.S.S.S.S.S.S.S.S.S.S.V.g.g.a.p.p.p.p.f.g.g.g.g.g.g.g.g.g.g.g.g.S.. . .                                                                                                                                                                                                                                                                                       ",
"                                                                                                                                                                                                                                                                                                                                            U.. . . . . . >.=.=.=.=.=.=.=.=.=.=.=.=.=.=.=.=.=.=.=.=.=.=.=.=.L L L L L L L L L L L L L L L L L L L L L L L L L L L L L L ' . . . . . . .                                                         . . . r.6.6.6.6.6.6.-.=.=.=.=.=.3.. . . u.S.S.S.S.S.S.S.S.S.S.S.S.S.S.S.S.S.S.S.S.S.S.S.S.S.S.A.              Y.S.S.S.S.S.S.S.S.S.S.S.S.S.S.S.S.V.g.g.g.g.g.g.g.g.g.g.g.g.g.g.g.g.g.g.g.g.S.. . .                                                                                                                                                                                                                                                                                       ",
"                                                                                                                                                                                                                                                                                                                                            I.. . . . . . >.=.=.=.=.=.=.=.=.=.=.=.=.=.=.=.=.=.=.=.=.=.=.=.=.L L L L L L L L L L L L L L L L L L L L L L L L L L L L L L ' . . . . . . .                                                         . . . r.6.6.6.6.6.6.-.=.=.=.=.=.3.. . . u.S.S.S.S.S.S.S.S.S.S.S.S.S.S.S.S.S.S.S.S.S.S.S.S.S.S.A.              W.S.S.S.S.S.S.S.S.S.S.S.S.S.S.S.S.V.g.g.g.g.g.g.g.g.g.g.g.g.g.g.g.g.g.g.g.g.S.. . .                                                                                                                                                                                                                                                                                       ",
"                                                                                                                                                                                                                                                                                                                                              . . . . . . >.0.0.0.0.0.0.0.0.0.0.0.0.0.=.=.=.=.=.=.=.=.=.=.2.L L L L L L L L L L L L L L L L L ' ' ' ' ' ' ' ' ' ' ' ' ' ] . . . . . . .                                                         . . . r.w.w.9.6.6.6.-.=.=.=.=.=.-.. . . u.Q.Q.Q.Q.Q.Q.L.S.S.S.S.S.S.S.S.S.S.S.S.S.S.S.S.S.S.S.A.              ^.S.S.S.S.S.S.S.S.S.S.S.S.S.S.S.S.V.g.g.g.g.g.g.g.g.g.g.g.g.g.g.g.g.g.V.V.V.S.. . .                                                                                                                                                                                                                                                                                       ",
"                                                                                                                                                                                                                                                                                                                                                          8 . . . . . . . . . . . . . ` L L L L L L L L L L L L L L L L L L L L L L L L L ~ ` . . . . . . . . . . . . . .                                                                             . . . j =.=.=.=.=.=.=.=.=.=.-.3.3.j . . . . . . 7 S.S.S.S.S.S.S.S.S.S.S.S.S.S.S.S.S.S.S.S.S.V.S.V.A.S.B.S.S.S.S.S.S.S.S.S.S.S.S.S.S.S.S.S.V.g.g.g.g.g.g.g.g.g.g.g.g.g.g.g.g.V.. . .                                                                                                                                                                                                                                                                                               ",
"                                                                                                                                                                                                                                                                                                                                                          & . . . . . . . . . . . . . ] L L L L L L L L L L L L L L L L L L L L L L L L ~ ~ ` . . . . . . . . . . . . .                                                                               . . . j =.=.=.=.=.=.=.=.=.=.=.=.=.j . . . . . . 7 S.S.S.S.S.S.S.S.S.S.S.S.S.S.S.S.S.S.S.S.S.S.S.S.S.S.S.S.S.S.S.S.S.S.S.S.S.S.S.S.S.S.S.S.V.g.g.g.g.g.g.g.g.g.g.g.g.g.g.g.g.V.. . .                                                                                                                                                                                                                                                                                               ",
"                                                                                                                                                                                                                                                                                                                                                          & . . . . . . . . . . . . . ] ^ ^ ^ ^ ^ ^ ^ ^ ^ ^ ^ ^ ^ ^ ^ ^ ^ ^ ^ ^ ^ ^ ^ ^ ^ ^ ' . . . . . . . . . . . . .                                                                               . . . j ;.;.;.=.=.=.=.=.=.=.=.=.=.h . . . . . . 7 G.G.G.G.G.G.F.S.S.S.S.S.S.S.S.S.S.S.S.S.S.S.S.S.S.S.S.S.S.S.S.S.S.S.S.S.S.S.S.S.S.S.S.S.V.g.g.g.g.g.g.g.g.g.g.g.g.g.h.k.k.Z.. . .                                                                                                                                                                                                                                                                                               ",
"                                                                                                                                                                                                                                                                                                                                                                                      . . . . . . . . . . . . . . . . . . . . . . . . . . . .                                                                                                               P.. . . U =.=.=.=.=.=.=.=.=.1.r.r.r.r.r.r.:.. . . . . . n.S.S.S.S.S.S.S.S.S.S.S.S.S.S.S.S.S.S.S.S.S.S.S.S.S.S.S.S.S.S.S.S.S.S.s.h.h.g.g.g.g.g.g.g.g.g.g.g.g.g.g.T . . .                                                                                                                                                                                                                                                                                                     ",
"                                                                                                                                                                                                                                                                                                                                                                                      . . . . . . . . . . . . . . . . . . . . . . . . . . . .                                                                                                               S . . . } =.=.=.=.=.=.=.=.=.=.=.=.=.=.=.=.:.. . . . . . n.S.S.S.S.S.S.S.S.S.S.S.S.S.S.S.S.S.S.S.S.S.S.S.S.S.S.S.S.S.S.S.S.S.S.z.h.h.g.g.g.g.g.g.g.g.g.g.g.g.g.g.T . . .                                                                                                                                                                                                                                                                                                     ",
"                                                                                                                                                                                                                                                                                                                                                                                      . . . . . . . . . . . . . . . . . . . . . . . . . . . .                                                                                                               S . . . } =.=.=.=.=.=.=.=.=.=.=.=.=.=.=.=.@.. . . . . . n.S.S.S.S.S.S.S.S.S.S.S.S.S.S.S.S.S.S.S.S.S.S.S.S.S.S.S.S.S.S.S.S.S.S.h.g.g.g.g.g.g.g.g.g.g.g.g.g.g.g.g.T . . .                                                                                                                                                                                                                                                                                                     ",
"                                                                                                                                                                                                                                                                                                                                                                                                                                        o o                                                                                                                   % o & Z } } } } } | -.=.=.=.=.=.=.=.=.=.#.j j j j j j Q u.u.u.u.u.u.u.y.y.u.G.S.S.S.S.S.S.S.S.S.S.S.S.S.S.S.S.c.N.N.N.N.N.N.h.g.g.g.g.g.g.g.g.g.l.R R R R R R I o                                                                                                                                                                                                                                                                                                         ",
"                                                                                                                                                                                                                                                                                                                                                                                                                                                                                                                                                                    M . . . . . . 0.=.=.=.=.=.=.=.=.=.=.=.=.=.=.=.=.2 . . . . . . . . . . H.S.S.S.S.S.S.S.S.S.S.S.S.S.S.S.S.a.h.g.g.g.g.g.g.g.g.g.g.g.g.g.g.g.V.. . . . . .                                                                                                                                                                                                                                                                                                             ",
"                                                                                                                                                                                                                                                                                                                                                                                                                                                                                                                                                                    0 . . . . . . 0.=.=.=.=.=.=.=.=.=.=.=.=.=.=.=.=.2 . . . . . . . . . . H.S.S.S.S.S.S.S.S.S.S.S.S.S.S.S.S.p.h.g.g.g.g.g.g.g.g.g.g.g.g.g.g.g.V.. . . . . .                                                                                                                                                                                                                                                                                                             ",
"                                                                                                                                                                                                                                                                                                                                                                                                                                                                                                                                                                    0 . . . . . . r.0.0.0.0.0.0.-.=.=.=.=.=.=.=.=.=.3 . . . . . . . . . . /.Q.Q.Q.Q.Q.Q.Q.Q.Q.Q.Q.Q.Q.Q.Q.Q.V.V.V.V.V.V.V.V.V.V.V.V.V.V.V.V.V.A.. . . . . .                                                                                                                                                                                                                                                                                                             ",
"                                                                                                                                                                                                                                                                                                                                                                                                                                                                                                                                                                                  . . . . . . . <.=.=.=.=.=.=.=.=.=.-.3.3.3.3.3.3.3.3.3.t.. . . . . . . . . . . . . . . . . . . . . . . . . . . . . . . . . . .                                                                                                                                                                                                                                                                                                                         ",
"                                                                                                                                                                                                                                                                                                                                                                                                                                                                                                                                                                                  . . . . . . . >.=.=.=.=.=.=.=.=.=.=.=.=.=.=.=.=.=.=.=.0.. . . . . . . . . . . . . . . . . . . . . . . . . . . . . . . . . . .                                                                                                                                                                                                                                                                                                                         ",
"                                                                                                                                                                                                                                                                                                                                                                                                                                                                                                                                                                                  . . . . . . . >.=.=.=.=.=.=.=.=.=.=.=.=.=.=.=.=.=.=.=.4.. . . . . . . . . . . . . . . . . . . . . . . . . . . . . . . . . . .                                                                                                                                                                                                                                                                                                                         ",
"                                                                                                                                                                                                                                                                                                                                                                                                                                                                                                                                                                                  . . . . . . . ,.r.r.r.r.r.r.r.r.r.-.=.=.=.=.=.=.=.=.=.0.. . . . . . . . . . . . . . . . . . . . . . . . . . . . . . . . . .                                                                                                                                                                                                                                                                                                                           ",
"                                                                                                                                                                                                                                                                                                                                                                                                                                                                                                                                                                                                8 . . . . . . . . . >.6.6.6.=.=.=.o.L L L ^ ^ ^ ^ ^ ^ ^ ^ ^ ^ ^ ^ ^ ^ ^ ^ ^ ^ ^ ^ ' . . . . . .                                                                                                                                                                                                                                                                                                                                         ",
"                                                                                                                                                                                                                                                                                                                                                                                                                                                                                                                                                                                                & . . . . . . . . . >.6.6.6.=.=.=.o.L L L L L L L L L L L L L L L L L L L L L L ~ ` . . . . . .                                                                                                                                                                                                                                                                                                                                         ",
"                                                                                                                                                                                                                                                                                                                                                                                                                                                                                                                                                                                                & . . . . . . . . . >.7.9.9.3.3.3.*.( ( ( ( ( ( ( ( ( ( ( ( ( ( ( ( ( ( ( ( ( ( ( ' . . . . . .                                                                                                                                                                                                                                                                                                                                         ",
"                                                                                                                                                                                                                                                                                                                                                                                                                                                                                                                                                                                                                    8 . . . . . . . . . . . . . . . . . . . . . . . . . . . . . . .                                                                                                                                                                                                                                                                                                                                                     ",
"                                                                                                                                                                                                                                                                                                                                                                                                                                                                                                                                                                                                                    8 . . . . . . . . . . . . . . . . . . . . . . . . . . . . . . .                                                                                                                                                                                                                                                                                                                                                     ",
"                                                                                                                                                                                                                                                                                                                                                                                                                                                                                                                                                                                                                    8 . . . . . . . . . . . . . . . . . . . . . . . . . . . . . . .                                                                                                                                                                                                                                                                                                                                                     ",
"                                                                                                                                                                                                                                                                                                                                                                                                                                                                                                                                                                                                                    8 . . . . . . . . . . . . . . . . . . . . . . . . . . . . . . .                                                                                                                                                                                                                                                                                                                                                     ",
"                                                                                                                                                                                                                                                                                                                                                                                                                                                                                                                                                                                                                                                                                                                                                                                                                                                                                                                                                                                                                                        ",
"                                                                                                                                                                                                                                                                                                                                                                                                                                                                                                                                                                                                                                                                                                                                                                                                                                                                                                                                                                                                                                        ",
"                                                                                                                                                                                                                                                                                                                                                                                                                                                                                                                                                                                                                                                                                                                                                                                                                                                                                                                                                                                                                                        ",
"                                                                                                                                                                                                                                                                                                                                                                                                                                                                                                                                                                                                                                                                                                                                                                                                                                                                                                                                                                                                                                        ",
"                                                                                                                                                                                                                                                                                                                                                                                                                                                                                                                                                                                                                                                                                                                                                                                                                                                                                                                                                                                                                                        ",
"                                                                                                                                                                                                                                                                                                                                                                                                                                                                                                                                                                                                                                                                                                                                                                                                                                                                                                                                                                                                                                        ",
"                                                                                                                                                                                                                                                                                                                                                                                                                                                                                                                                                                                                                                                                                                                                                                                                                                                                                                                                                                                                                                        ",
"                                                                                                                                                                                                                                                                                                                                                                                                                                                                                                                                                                                                                                                                                                                                                                                                                                                                                                                                                                                                                                        ",
"                                                                                                                                                                                                                                                                                                                                                                                                                                                                                                                                                                                                                                                                                                                                                                                                                                                                                                                                                                                                                                        ",
"                                                                                                                                                                                                                                                                                                                                                                                                                                                                                                                                                                                                                                                                                                                                                                                                                                                                                                                                                                                                                                        ",
"                                                                                                                                                                                                                                                                                                                                                                                                                                                                                                                                                                                                                                                                                                                                                                                                                                                                                                                                                                                                                                        ",
"                                                                                                                                                                                                                                                                                                                                                                                                                                                                                                                                                                                                                                                                                                                                                                                                                                                                                                                                                                                                                                        ",
"                                                                                                                                                                                                                                                                                                                                                                                                                                                                                                                                                                                                                                                                                                                                                                                                                                                                                                                                                                                                                                        ",
"                                                                                                                                                                                                                                                                                                                                                                                                                                                                                                                                                                                                                                                                                                                                                                                                                                                                                                                                                                                                                                        ",
"                                                                                                                                                                                                                                                                                                                                                                                                                                                                                                                                                                                                                                                                                                                                                                                                                                                                                                                                                                                                                                        ",
"                                                                                                                                                                                                                                                                                                                                                                                                                                                                                                                                                                                                                                                                                                                                                                                                                                                                                                                                                                                                                                        ",
"                                                                                                                                                                                                                                                                                                                                                                                                                                                                                                                                                                                                                                                                                                                                                                                                                                                                                                                                                                                                                                        ",
"                                                                                                                                                                                                                                                                                                                                                                                                                                                                                                                                                                                                                                                                                                                                                                                                                                                                                                                                                                                                                                        ",
"                                                                                                                                                                                                                                                                                                                                                                                                                                                                                                                                                                                                                                                                                                                                                                                                                                                                                                                                                                                                                                        ",
"                                                                                                                                                                                                                                                                                                                                                                                                                                                                                                                                                                                                                                                                                                                                                                                                                                                                                                                                                                                                                                        ",
"                                                                                                                                                                                                                                                                                                                                                                                                                                                                                                                                                                                                                                                                                                                                                                                                                                                                                                                                                                                                                                        ",
"                                                                                                                                                                                                                                                                                                                                                                                                                                                                                                                                                                                                                                                                                                                                                                                                                                                                                                                                                                                                                                        ",
"                                                                                                                                                                                                                                                                                                                                                                                                                                                                                                                                                                                                                                                                                                                                                                                                                                                                                                                                                                                                                                        ",
"                                                                                                                                                                                                                                                                                                                                                                                                                                                                                                                                                                                                                                                                                                                                                                                                                                                                                                                                                                                                                                        ",
"                                                                                                                                                                                                                                                                                                                                                                                                                                                                                                                                                                                                                                                                                                                                                                                                                                                                                                                                                                                                                                        ",
"                                                                                                                                                                                                                                                                                                                                                                                                                                                                                                                                                                                                                                                                                                                                                                                                                                                                                                                                                                                                                                        ",
"                                                                                                                                                                                                                                                                                                                                                                                                                                                                                                                                                                                                                                                                                                                                                                                                                                                                                                                                                                                                                                        ",
"                                                                                                                                                                                                                                                                                                                                                                                                                                                                                                                                                                                                                                                                                                                                                                                                                                                                                                                                                                                                                                        ",
"                                                                                                                                                                                                                                                                                                                                                                                                                                                                                                                                                                                                                                                                                                                                                                                                                                                                                                                                                                                                                                        ",
"                                                                                                                                                                                                                                                                                                                                                                                                                                                                                                                                                                                                                                                                                                                                                                                                                                                                                                                                                                                                                                        ",
"                                                                                                                                                                                                                                                                                                                                                                                                                                                                                                                                                                                                                                                                                                                                                                                                                                                                                                                                                                                                                                        ",
"                                                                                                                                                                                                                                                                                                                                                                                                                                                                                                                                                                                                                                                                                                                                                                                                                                                                                                                                                                                                                                        ",
"                                                                                                                                                                                                                                                                                                                                                                                                                                                                                                                                                                                                                                                                                                                                                                                                                                                                                                                                                                                                                                        ",
"                                                                                                                                                                                                                                                                                                                                                                                                                                                                                                                                                                                                                                                                                                                                                                                                                                                                                                                                                                                                                                        ",
"                                                                                                                                                                                                                                                                                                                                                                                                                                                                                                                                                                                                                                                                                                                                                                                                                                                                                                                                                                                                                                        ",
"                                                                                                                                                                                                                                                                                                                                                                                                                                                                                                                                                                                                                                                                                                                                                                                                                                                                                                                                                                                                                                        ",
"                                                                                                                                                                                                                                                                                                                                                                                                                                                                                                                                                                                                                                                                                                                                                                                                                                                                                                                                                                                                                                        "
};
