/* XPM */
static char *_b93f172cfaa4cdcaeca26c45dc6a55d[] = {
/* columns rows colors chars-per-pixel */
"64 64 256 2 ",
"   c #040503",
".  c #1C0101",
"X  c #160502",
"o  c #011603",
"O  c #061112",
"+  c #230202",
"@  c #2A0704",
"#  c #330B05",
"$  c #2B1313",
"%  c #371816",
"&  c #31140E",
"*  c #112B12",
"=  c #353315",
"-  c #3A1D22",
";  c #3B2525",
":  c #32342E",
">  c #031C29",
",  c #4F110E",
"<  c #7A1D1A",
"1  c #681314",
"2  c #45261C",
"3  c #4A371A",
"4  c #53371C",
"5  c #522812",
"6  c #79251B",
"7  c #6C2F19",
"8  c #421E25",
"9  c #751C20",
"0  c #472729",
"q  c #4B3824",
"w  c #543828",
"e  c #573934",
"r  c #4E2F31",
"t  c #7B2824",
"y  c #793729",
"u  c #683A37",
"i  c #773B36",
"p  c #663529",
"a  c #384918",
"s  c #38591B",
"d  c #294D16",
"f  c #1D6D13",
"g  c #1E7516",
"h  c #196A0B",
"j  c #246D14",
"k  c #2B6C14",
"l  c #29691A",
"z  c #366A1B",
"x  c #247315",
"c  c #2A7315",
"v  c #25741A",
"b  c #2B741B",
"n  c #267A1C",
"m  c #2C7A1D",
"M  c #297A13",
"N  c #32751D",
"B  c #327B1E",
"V  c #337617",
"C  c #236D0E",
"Z  c #394923",
"A  c #3B5722",
"S  c #30522F",
"D  c #336C24",
"F  c #3B6927",
"G  c #2D7522",
"H  c #2D7B22",
"J  c #2B7A27",
"K  c #347423",
"L  c #337C23",
"P  c #3A7C25",
"I  c #337C2A",
"U  c #3A7C2B",
"Y  c #397428",
"T  c #377636",
"R  c #316A30",
"E  c #11441A",
"W  c #45471A",
"Q  c #58431D",
"!  c #4A4E17",
"~  c #764618",
"^  c #456C1C",
"/  c #464925",
"(  c #564426",
")  c #455826",
"_  c #5C5637",
"`  c #55512C",
"'  c #6A4739",
"]  c #794738",
"[  c #665639",
"{  c #6E492F",
"}  c #446829",
"|  c #44772B",
" . c #487734",
".. c #4B6A33",
"X. c #0D364A",
"o. c #703D43",
"O. c #5E3940",
"+. c #367347",
"@. c #2D4C5E",
"#. c #544B4C",
"$. c #754A46",
"%. c #765446",
"&. c #715249",
"*. c #4D774B",
"=. c #786850",
"-. c #6F5D62",
";. c #5C7863",
":. c #707275",
">. c #841D1C",
",. c #87251C",
"<. c #893618",
"1. c #841D21",
"2. c #832523",
"3. c #8C2524",
"4. c #8B2B25",
"5. c #8C2D2B",
"6. c #852927",
"7. c #932C2B",
"8. c #932827",
"9. c #88342A",
"0. c #93322D",
"q. c #96372A",
"w. c #8B3833",
"e. c #983836",
"r. c #8C2D31",
"t. c #A23B3A",
"y. c #864438",
"u. c #954238",
"i. c #944B28",
"p. c #A4453A",
"a. c #95542C",
"s. c #8C3C45",
"d. c #994A49",
"f. c #87524D",
"g. c #A74849",
"h. c #B15046",
"j. c #896857",
"k. c #946C59",
"l. c #AE6B50",
"z. c #956D63",
"x. c #987365",
"c. c #8B6F6C",
"v. c #AC756F",
"b. c #C55A4F",
"n. c #D06562",
"m. c #2D821B",
"M. c #32801D",
"N. c #2D8123",
"B. c #348225",
"V. c #34832A",
"C. c #3B832B",
"Z. c #398326",
"A. c #3B8532",
"S. c #468634",
"D. c #48842D",
"F. c #6A8D35",
"G. c #6C8A53",
"H. c #A09039",
"J. c #DAB237",
"K. c #FACB2B",
"L. c #F9CA35",
"P. c #FBD337",
"I. c #F0CC34",
"U. c #B19274",
"Y. c #B9A46E",
"T. c #D3B658",
"R. c #DA966E",
"E. c #D6B86F",
"W. c #E8BA64",
"Q. c #E8B47A",
"!. c #DFAD50",
"~. c #B5C764",
"^. c #D5C354",
"/. c #E9C849",
"(. c #F6CD46",
"). c #F8D549",
"_. c #F5CB55",
"`. c #F8D558",
"'. c #E9CF57",
"]. c #D2C970",
"[. c #E6C766",
"{. c #F7D567",
"}. c #E9C479",
"|. c #F7C976",
" X c #F3D270",
".X c #E3E464",
"XX c #356F92",
"oX c #1C78B3",
"OX c #267BB8",
"+X c #3078AA",
"@X c #2C5B87",
"#X c #5A7993",
"$X c #3586B4",
"%X c #53968D",
"&X c #6A8D98",
"*X c #4C8CB5",
"=X c #7191A9",
"-X c #6CA6AE",
";X c #298BC6",
":X c #348BC7",
">X c #2D94CC",
",X c #3594CB",
"<X c #3696D4",
"1X c #3192D2",
"2X c #4795CA",
"3X c #5494C7",
"4X c #4599D1",
"5X c #65A9CB",
"6X c #BC9A84",
"7X c #A98D8D",
"8X c #B7AFAF",
"9X c #9B9F98",
"0X c #C7A788",
"qX c #D3B68E",
"wX c #DCBC9B",
"eX c #D7B697",
"rX c #CCB091",
"tX c #E2BD9C",
"yX c #F3B691",
"uX c #DBBAA4",
"iX c #C9B3AA",
"pX c #E1BDA2",
"aX c #C89885",
"sX c #DBC399",
"dX c #D9CB8C",
"fX c #E3C39B",
"gX c #ECD898",
"hX c #F1D18B",
"jX c #D1E891",
"kX c #F5E294",
"lX c #D2C5AF",
"zX c #E4C3A3",
"xX c #E8C7A8",
"cX c #F2D4B4",
"vX c #FAE9AA",
"bX c #F8E9B4",
"nX c #D7E1AE",
"mX c #8CAFCB",
"MX c #A7DAF1",
"NX c #D3D0CE",
"BX c #F2D7CD",
"VX c #F8E8C7",
"CX c #FDF6C9",
"ZX c #FEFAD8",
"AX c #EFE8D7",
"SX c #FFFEE3",
"DX c #FEFDED",
"FX c #FAF6E9",
"GX c #E9FCFE",
"HX c #FDFDF4",
"JX c #F5FDFD",
"KX c #FDFDFC",
"LX c #FAF6F7",
"PX c #EDE9E8",
"IX c #D3E5F0",
"UX c #C2B8C0",
/* pixels */
"j H g H H U D D L Z.C.N N.N.n m.m x M.B.b b C.j m m g H I b z z k L l U m B.h b L U Z.M B.B.m H B c N.N.v G C.j N P j L J G J G ",
"v b n N.Z.K D Y B.m.c b n N.x N.x v m m H Z.B.L b b j C.k D.F.jXF.| D U L m n B.U C.c c n N.n H k b n H H V.Z.U N b j L v J V.G ",
"L C.v v B b K L M m.c N L H J H J H H n H C.x B C.Y | ^ ].^.].^.].jX^ K U j B.x b N k N H J J H L H n H J I b L P P L m x n N.B.",
"A.b j m c K U l v f l l K L I v J v n v x m C c K | F.].^.'.`.`.'. XjXz N L H P B.L N b I J V.v L v v n v m j b P L L m n m x x ",
"L j B.S.P Y R *.*.*.*.R d U Z.x m b L b c M M m b z ~..X_.(.P.P.).'.].jXU A.H J L N P b b G B c L j H b v b b L N j H H x b b N ",
"b b b L P D G.;.;.;.;.G.*.l m M B K N b P c M m K ^ ~.'.L.P.K.P.K.)..XjXY G f j b b P K j N c V B b B b L m b K K b L b b b N P ",
"U m b C.K D *.    O   : *.D D.M c k b K K N b c K ~..XI.K.P.L.P.P.(. XdXG. .Y C.S.P b G G C.B V c c V V m m b b m L b b S.C.c c ",
"K L b l D  .S           *.F | Y z z  .S.D F } z z ~..XP.K.K.)././.'.[.].nX..} | Y Y Y Y  .Y | | z z | D.k k | z l z K b b b B P ",
"P K Y D d S ;.O * :   #.;.Z ) a ) a a ) a / ..W ` H.'.P.L.(.[.hXhXE.gXCXnXG./ a d d s a a ) ) a ) d a ! a s } a } s s } K N B B ",
"k z d ) / = 9X9X9X9X9X9X=.& ( ` Q 3 ( ` ( ( { 4 Q Q [.(.P./.kXCXCXbXCXZXSXlXq ( ( W ( ( ( 3 3 ( ( ( ( 4 4 3 ( ( Q Q 3 )  .Y L N ",
"k } ` ( ' e #.:.#X:.:.:.e p ] ] y y ] ] ] y.y.y 7 ~ W.{.(.{.vXZXSXSXVXZXZXcXu y y.] y.y.y.y y y.] i w.9.y t w.9.y.] ] 3 A Y U L ",
"D.| Q 5 i p #.:.#X#X:.-.u t t 2.< 6 t 6 6 6 2.t 6 7 R.|./.'.kXCXZXCXqXsXcXBX7 t 6 6 t t 6 6 < 6.6 2.e.e.0.7.e.0.< t t 4 a  .b b ",
"P ^ Q y u.t %.8X8X8XiX8Xf.g.5.e.e.e.0.e.4.4.e.e.e.q.i.!._._. XvXvXdX}.}.E.bX9.e.e.8.8.t.q.e.0.t.,.p.b.b.b.b.b.b.q.q.0.{ ! l U b ",
"l s Q 7 e.t $.iX9X:.8XiXd.g.3.0.0.0.4.e.3.3.e.7.0.4.q.Q./.`.[.[.T.T.W.}.E.bXw.0.e.3.3.t.7.0.7.q.,.p.h.b.b.h.b.h.4.0.0.y ! z K b ",
"G F 3 7 9., %.8X9X8XiX7X, 5.1.3.>.,.,.3.>.1.4.6 < 6 t R._.(./.^.].hXhXhXvXcX6 < 6.< 3.3.3.>.< 2.2.2.7.7.,.,.0.2.< 3.3., `  .k V ",
"A.F ( i u.1 j.lXiXiX7X%.i e.e.e.5.0.t.e.e.e.e.0.4.u.w.Q.!.`./.[.kXhXhXhXbXtXd.e.e.w.s.w.s.5.5.e.e.e.e.0.0.3.0.e.e.0.t.9.W | D.P ",
"K } ( p w.1 f.iX7Xp , t r.0.r.0.2.5.8.7.7.5.r.2.< ,.4.<.W._.[.hXhXgXgXgXbXcXR.4.9.y $.v.o.t t w.9.9.w.0.4.,.7.0.5.9.w.7 ! z P Z.",
"l } ( 7 w.t 5 ] 7 9 r.e.5.t 2.5.5.4.7.8.,.e.g.g.p.h.p.i.|. XE.}.E.gXfXcXxXtXd.p.g.i c.X . $.y 9.t t 4.3.4.4.7.3.< 9.9.7 ! } z B ",
"Y s Q ] u.u.7 y u.w.e.0.e.r.0.0.e.0.e.t.,.h.n.n.b.b.n.h.|. XT.~ l.U.rXcXcX0Xl.l.v.v.r : #.X &.] w.t t.t.e.e.e.e.0.w.w.{ ) z k m ",
"N ^ 3 7 ,.4.6 6.5.6.0.7.4.< ,.0.0.6.4.,.,.q.h.g.h.h.g.i.|. XT.E.l.~ 6XBXDXBXv.l.l.p X : 7Xq X U.aX< 7.8.3.3.3.3.< r.9.5 ! z k c ",
"N ^ 3 7 9.4.3.4.7.1.3.3.3.7.7.,.< ,.4.7.,.5.4.6 1 t y yXW.{.W.W.|.hXqXAXKXKXBXBXcX0XX X   X Y.R.yXe.5.4.2.2.7.7.3.3.0.7 ! } | C ",
"D.} ( i u.e.t.e.e.3.e.d.e.p.0.p.q.i.i.9.u.w.w.y.9.d.BXVX}.T.[.T.W.E.sXAXLXLXKXFXbXfXY.Q + 5 hXQ.l.u.e.e.w.6.e.t.t.e.e.y ` } P B ",
"N ..( 5 9.4.>.3.6.< t t t t 2.R.R.Q.hXR.7 l.k.] f.iXFXHXZXvXdX}.].}.cXNXLXKXLXHXZXdXhXT.H.[.hXyX6 t 2.t t 6 6.2.t 2.6.7 = F U m ",
"K F ( p w.5.< 5.w.w.w.9.w.2.t yX!.!.|.Q.Q.yXeXVXAXLXNXKXHXZXZXbXdXdXsXAXNXPXPXHXZXvX'.`.`.{.}.~ <.6 9.9.9.w.r.r.t w.9.p W  .K H ",
"b z ( ] u.w.2.w.e.e.0.e.t.3.0.<.W.J./._.`.|.sXSXFXPXPXPXPXKXHXAXZXuXnXNXAXHXPXAXZXvX'.).(.`.}.i.9.4.e.e.e.e.e.e.r.e.u.{ / F G J ",
"U } 3 5 y t 1 t t t 6.3.8.>.3.<.W._.(.I.J.'.vXZXAXLXLXKXIXNXPXAXHXAXPXPXPXKXHXZXbXkX`.).I.`.hX7 ,.>.4.4.6.< 2.6.9 t t 5 a } Y v ",
"D.s 3 , 1 , 1 , , , 2.4.7.7.8.9.a.|.(.P.I./.kXVXSXFXHXKXLXNXPXLXHXHXHXHXPXKXDXbXT.'.).P.).{.hX9.r.5.7.0.2.1 1 1 1 , 1 , / A D G ",
"l } / ' $.f.i f.f.o.d.g.g.g.d.d.y.Q.(.K.L.`.T.dXvXCXSXDXDXPXKXKXLXHXHXKXPXDXZXgX[.).P.P.).{.a.d.d.d.d.g.d.s.s.s.s.s.f.p / ..D K ",
"Y F = % $.o.o.o.$.O.o.u u o.$.$.u ~ {.P.L.I./.J.[.W.gXCXSXBXKXLXKXKXJXHXAXZXvXE._.P.K.P.`.[.{ ' u $.u i i i o.o.$.u $.& d F K L ",
"N F Z X + + + + + + + + + . . . + + W.).L.P.L.L.L.`.[.E.VXAXKXKXLXKXJXHXDXcXE. X_.).P.). XhX. . . + . + + @ + . . . @ X d Y I L ",
"c N S o ; ; 0 ; 0 0 8 0 0 ; 0 0 0 5 Q.{.I.I.K.P.K.P.'.].Y.AXHXKXKXJXJXKXHXSXbXE.`.(.)._.Q.5 0 ; ; ; 0 0 0 0 - ; ; ; = * d D P x ",
"B.P T d * $ $ @ . . + + . . . . . + +  X/.I.P.K.K.P./.].VXDXHXHXHXKXKXKXKXDXCXdX[.{. X|., + . . X . . + + + . $ $ $ o A R l j x ",
"v L l F Z _ q u &.%.] %.' [ %.] ] { [ E. X).L.K.L.).T.gXSXHXHXHXHXHXKXKXKXHXSXCX].hXE.j.] %.' [ %.' %.$.$.$.%.e e [ Z F Y G H b ",
"f G b | ) _ w 6XxXrXwXeXeXeXwXeXeXwXsXqXE.{._.`./.T.gXZXHXHXHXHXHXHXKXKXKXKXHXSXsXsXsXqXeXpXeXwXeXeXwXwXeXuXuX6Xq [ A Y Y H L m ",
"A.I b D ) _ 3 6XwXzXfXwXfXfXfXzXfXfXsXsXdX}.[.E.].gXZXDXLXKXHXKXKXJXKXKXKXKXLXDXAXcXsXzXzXfXsXfXfXfXtXfXfXtXxX6X4 [ } Y l G P V.",
"A.l b | ) _ 4 0XzXeXwXeX0XrX0X0X0XrX0XrXqXdXgXsXZXZXDXLXKXKXKXKXJXJXJXJXKXJXKXKXHXAXeXeXrXrXqX0X0XrXrXeXfXqXtXU.4 _ } Y G L H v ",
"L b P S.) ` w 0XxXuXrXu 2 q q w w q 0 % %.rXcXVXDXDXFXKXKXLXKXKXKXKXKXKXKXKXKXKXKXBX&.& w 0 q w w 2 2 ' 0XfXxX0X4 _ } Y b b b b ",
"x b b | ) _ w 6XzXeX' + % & & r % & $ 2 . x.zXZXFXKXKXKXKXJXJXJXKXKXKXJXJXJXKXKXKX7X+ 0 & % $ r $ % % . ] eXzXU.w [ F Y b b m B ",
"B.L b | ..` 3 0XzXrX0 0 - - 8 0 8 0 0 % # f.wXVXKXJXJXJXGXJXJXJXJXJXJXJXJXJXJXPXNX-.@ 8 8 - r r ; - 0 # [ qXfX6Xq [ s Y C.B.m x ",
"L m b D A _ 4 0XxX0Xe 0 0 r 0 O.r 0 0 r & j.zXlXNXGXGXGXGXGXGXGXGXGXGXGXGXIXmX&XiXj.& r r 0 0 e 0 r r 2 { qXxXU.4 &.A z b x m P ",
"P H b | ) _ 4 Y.xXrXe 0 r 0 0 e 0 0 0 r # j.sXiX#X=XmXmXMXMXMXMXMXMXMXmX-X*X#XmXlXj.@ r 0 0 0 e 0 0 r % { qXxXY.q _ }  .b m H m ",
"b j b F ) _ 3 0XzX0X2 % & % % 0 % % % % + %.wXlXNX=X=X*X+X$X*X*X$X$X+X$X3X*X#XmXlX=.@ % % % 8 0 & % 0 + { qXzXU.w _ A l L L L H ",
"b H L z A _ 4 0XzXuXj.. % & & 2 & & & & . U.zXuXNX=X*X3X4X4X2X4X4X4X4X,X+X*X5XmXlXU.. 0 % $ 8 r % & 2 . j.wXfX6X4 &.F D I L L L ",
"I A.C.Y a _ w 6XuXeXeXk.' ' ' %.%.&.&.( U.zXwXuXlX=X*X<X<X<X4X4X<X,XOX$X,X2X3XmXlXqXU.' $.$.' $.' %.' k.wXwXwX6X4 [ A Y G L H b ",
"I L P  .) _ 4 0XzXtXtXtXsXwXwXeXeXeXeXsXxXeXtXuXNX=X3X<X<X1X<X<X<XOX$X4X2X2X3XmXlXwXpXuXuXuXwXwXeXwXeXpXwXtXxX6X4 [ s K G H H m ",
"v b L | ) _ 3 0XpXzXpXpXwXfXzXzXxXzXzXzXzXtXxXuXNX&X3X<X<X<X<X<X<X$X,X,X:X2X3XmXlXpXuXxXxXpXfXwXzXwXpXxXzXrXxX6X4 [ s D U m m m ",
"v H B z A _ w f.x.k.x.x.z.x.k.x.x.z.x.k.x.k.k.x.:.&X3X<X1X<X<X<X<X;X;X,X,X2X3XmX:.x.x.z.z.z.k.k.z.z.x.z.z.v.z.%.w [ s l C.B.m C ",
"V.H j z ) _ ' @ @ # @ # @ # # # # # @ # # # # + O &X*X<X,X,X<X1X<X;X;X<X,X2X3XmX$ # @ # + @ # @ # @ # # @ @ # # u [ s K b C.Z.m.",
"g V.b Y } ` ' ' j.$.$.j.u %.f.$.=.&.' j.' [ %.#.-.=X*X4X,X,X1X1X<XOX;X1X<X4X3XmX:.&.' %.' %.f.u f.$.' =.' $.f.' ' [ ) D b v M.m.",
"h H G F } _ ( 2 e w q e 2 q w q ( q 3 ( 3 / ( : #.&X*X4X,X>X1X<X<XOX;X1X<X4X3XmX#.q 3 Q 3 q w q w w q ` q q w 4 ( _ ..U I v h m.",
"n m N Y s ) a = / / Z / ) a a a = / W = a a Z Z @.&X*X,X>X<X1X1X<XOX;X>X,X,X2XmXS / W W ) Z Z Z = a a d Z Z a = a ) F G m N.x x ",
"B b k Y s s A } ..A }  .F  .S.} ....) s } } ..*.S %X2X,X>X>X1X1X,XOX;X>X>X,X2X5X*.A }  .F  .*...} ..F s F ......A s D I v j j c ",
"m b C N z K | Y Y D l K K K K z l Y  .| K D D T S %X*X,X>X1X1X1X1XoX;X:X:X,X3X5X+.z k P K Y Y D z K U I I U D D F K U H H m C.j ",
"L B.c Z.L b L G H C.f b L P k N U I G b k U K D +.%X$X,X>X1X1X>X>XoX;X,X:X2X3X5XT D.c b L V.b K P L b m g J G b P L v v C.L P P ",
"H J m L L j H B.m m x b h C.S.N L I G G x m b l R %X*X<X>X;X>X>X>XoX;X:X,X2X3X5X+.b k V h L D.N L L b m x m b j v C.L x b m N L ",
"v J H f b m H v m v j C.L b k b H Z.L P b x n J +.%X$X,X;X;X>X:X1XoX$X:X:X$X*X-X+.j k P L x c k b C.Z.B x v m m n N.P C.m C.b L ",
"H v b H H H b L m x H C.G C.G G v J j P m m b I +.%X$X2X:X:X:X:X$XoXoX+X+X+X+X-XT h U K L B.B b j B.k B m H x m N.x P P v L b H ",
"L b H I P b j x b H L L f V.G b N.J v H b L j R +.%X*X+XOXOXOXOX+X+X*X*X+X*X=X-XR H C.L h H L x L B.b b b L j b B.x h P L b H G ",
"C.v v b m L L B B L H L v V.v H n g m b b U G T +.&X*X3XOX$X$X$X*X@X@.XXXX@.X.X.T I j V.v J m v v v H b v P b P H C.b b j f B.v ",
"x x B.H x n B B L b L L Z.m v N.g f m G K U K T R +.X.XXXXXXXX@X@.> > O O O O o E I I J V.H v N.g g J m b Z.H L b m b C.C.H H m ",
"m n N.N.N.N.x h c m L n L v v H B.m m m L L I G  .S O > O O O O O   O o * * * E o l U b I b g H N.m n n J J H v Z.G m B.B.v j L ",
"m n H V.n v x m m L b b b H b v Z.B.x b L b I I l F o o o o * * * * * E R R l D Y U K k K K v n C.B.x n H H V.H j G H m H m L m ",
"b b j m v N.v m C.B.b H H B.b v L L x m B v N.B.m P T D Y K F F D l R R l K L b U I H b P Y L j L B x m m b B.B.P P m n H b H b ",
"U C.b b j A.H v H V.B.L m v m b Z.Z.c B L n g g M M L C.n h C k S.U v v l Z.M.M J A.B.b P k b b Z.B x M.L b v v b b V.N.n h C c "
};
