/* XPM */
static char *_587e88494854165bfd6cb5c633754e6[] = {
/* columns rows colors chars-per-pixel */
"64 64 195 2 ",
"   c #2B9501",
".  c #299503",
"X  c #2B9403",
"o  c #2A9602",
"O  c #2C9602",
"+  c #2D9703",
"@  c #2E9603",
"#  c #2A9604",
"$  c #2B9705",
"%  c #2B9706",
"&  c #2C9504",
"*  c #2E9505",
"=  c #2D9605",
"-  c #2F9704",
";  c #2F9606",
":  c #2E9706",
">  c #2E9707",
",  c #2F9903",
"<  c #2D9905",
"1  c #2E9804",
"2  c #2F9905",
"3  c #2C9806",
"4  c #2D9907",
"5  c #2F9807",
"6  c #2E9A06",
"7  c #2F9B07",
"8  c #2B9809",
"9  c #2C9908",
"0  c #2D9908",
"q  c #2F9808",
"w  c #2D9A09",
"e  c #2E9A08",
"r  c #2E9A09",
"t  c #2F9B09",
"y  c #2F9B0A",
"u  c #2F9C0B",
"i  c #309707",
"p  c #309805",
"a  c #319906",
"s  c #309A06",
"d  c #319B07",
"f  c #329A07",
"g  c #339D07",
"h  c #319808",
"j  c #309908",
"k  c #329909",
"l  c #319A09",
"z  c #339B08",
"x  c #319A0A",
"c  c #339A0A",
"v  c #329B0A",
"b  c #329B0B",
"n  c #349B0B",
"m  c #309C08",
"M  c #319D09",
"N  c #329C08",
"B  c #339D09",
"V  c #309C0A",
"C  c #309C0B",
"Z  c #319D0B",
"A  c #339C0B",
"S  c #329E0A",
"D  c #339F0B",
"F  c #349C09",
"G  c #349E08",
"H  c #359F09",
"J  c #359D0A",
"K  c #349E0A",
"L  c #359F0B",
"P  c #369E0B",
"I  c #309D0C",
"U  c #319D0C",
"Y  c #339C0C",
"T  c #319E0D",
"R  c #329E0C",
"E  c #339F0D",
"W  c #329F0E",
"Q  c #339F0E",
"!  c #359C0C",
"~  c #349D0C",
"^  c #369D0D",
"/  c #359E0D",
"(  c #379F0C",
")  c #359E0E",
"_  c #379E0E",
"`  c #369F0E",
"'  c #369F0F",
"]  c #389F0F",
"[  c #36A00A",
"{  c #37A10B",
"}  c #34A00C",
"|  c #35A10D",
" . c #36A00C",
".. c #37A10D",
"X. c #34A00E",
"o. c #34A00F",
"O. c #35A10F",
"+. c #37A00F",
"@. c #36A20E",
"#. c #37A30F",
"$. c #38A00D",
"%. c #38A20C",
"&. c #39A30D",
"*. c #3AA20D",
"=. c #39A10E",
"-. c #38A20E",
";. c #39A30F",
":. c #3BA30E",
">. c #3AA20F",
",. c #3AA40E",
"<. c #3BA50F",
"1. c #3CA40F",
"2. c #34A110",
"3. c #35A110",
"4. c #37A010",
"5. c #35A310",
"6. c #36A210",
"7. c #36A211",
"8. c #37A311",
"9. c #36A312",
"0. c #37A312",
"q. c #39A010",
"w. c #38A110",
"e. c #38A111",
"r. c #3AA111",
"t. c #39A211",
"y. c #3BA310",
"u. c #3BA212",
"i. c #3AA312",
"p. c #3AA313",
"a. c #3CA313",
"s. c #38A410",
"d. c #39A511",
"f. c #3AA410",
"g. c #3BA511",
"h. c #38A412",
"j. c #38A413",
"k. c #39A513",
"l. c #3BA413",
"z. c #3AA612",
"x. c #3BA713",
"c. c #3DA510",
"v. c #3CA411",
"b. c #3CA610",
"n. c #3DA711",
"m. c #3DA512",
"M. c #3EA412",
"N. c #3CA612",
"B. c #3DA713",
"V. c #3EA613",
"C. c #3BA414",
"Z. c #3AA614",
"A. c #3AA615",
"S. c #3BA715",
"D. c #3DA414",
"F. c #3CA514",
"G. c #3CA515",
"H. c #3EA515",
"J. c #3DA615",
"K. c #3FA714",
"L. c #3DA616",
"P. c #3FA616",
"I. c #3EA716",
"U. c #3EA717",
"Y. c #3EA812",
"T. c #3CA814",
"R. c #3DA915",
"E. c #3EA814",
"W. c #3FA915",
"Q. c #3CA816",
"!. c #3DA917",
"~. c #3FA817",
"^. c #3FAB17",
"/. c #3EAA18",
"(. c #40A717",
"). c #40A815",
"_. c #40AA14",
"`. c #41A916",
"'. c #43A917",
"]. c #40AA16",
"[. c #41AB17",
"{. c #42AA17",
"}. c #43AD17",
"|. c #41A818",
" X c #40A918",
".X c #41AA19",
"XX c #43AB18",
"oX c #41AA1A",
"OX c #42AB1A",
"+X c #42AC18",
"@X c #43AD19",
"#X c #44AC19",
"$X c #45AD1A",
"%X c #44AE1A",
"&X c #4AB21F",
/* pixels */
"P.r.r.r.k +.6.+.5 +.;.[ <.Y.N.N.r.;.A _ r.A P.+.A _ P._ R R = R _ _ (.(.k r._ A A _ +.A r._ A k.<.L +.W.N.L [ N.N.A ;.A L L ;.;.",
"r._ A +._ r.6.A +.+.L A L +.;.;.k.r._ L W.r.+.P.k _ r.q k _ k R _ _ a.].A = _ r._ k A k P.P.+.+.+.;.;.;.N.<.L d +.k.Y.L L L ;.L ",
"i _ 5 _ r.k.6.R k.} +.k.;.A k _ A +.k.A r.P._ _ X _ k.+.C.P.6.r.k L ;.].N.L k.+.;.+.k.;.k.k.k.L A ;.+.L ;.+.g L +.N.k.k.k.A [ L ",
"k P._ +.k.r.k.k.+.A k.W.;.A _ ;.L +.+X;.A r._ A k +.r.k. XP.k _ L L N.r.;.A k.k.N.+.;.A k L ;.A L +.A A L L L ;.N.L 5 +.W.k.k.+.",
"[ }.<.+.;.A +.+.r.k.P.r.k A r._ k.+.N.N.5 5 L L k.r._ _ P.P.k A ;.A ;.+.;.L ;.N.L ;.N.;.;.L ] a.+.+._ _ +.P.k.A r.r.P.k.A +.r._ ",
";.N.;.[ +.d A d r._ _ _ _ _ r.r.+.+.L ;.g g L L r.k.r.+.r.r.r.r.<.L k.;.;.N.;.;.r.P._ L &X%X;.;.+._ +.r.r.P.P.+._ _ P.r.k P.P._ ",
"N.;.;.;.;.+.k.+.P.r._ k.k._ k _ L N.+.+.+.k.k.;.+.k.N.;.L A L +.W.W.].N.A ;.N.L N.N.L L N.N.N.a._ +.r.r.+._ r.P.R R r.P.k _ +.+.",
"k.A ;.+.+.L N.k.A +.+._ r.r._ +.W.W.;.L d +.;.W.k.+.L ;.+.L L L k.+.+.%XN.N.N.L L L ;.;.;.;.].L k k.k.A _ +._ A k R k r.k q _ _ ",
";.L +.;.A d L A r.k = k _ W.P.6.[ N.;.k.A A k.W.W.].d +.k.L +.A [ d k.+.].;.;.;.N.L r.;.;.N.;._ k k +._ _ _ P.= X _ r.+._ _ r.P.",
"d A L +.k.L d ;.L _ k ;.r._ k k + L [ ;.A ;.N.k.L N.k.].N.A L A L , +.;.k.+.;.L ;.N._ ;._ d N.N._ _ r.r.P._ +._ +.+._ _ +.r.r._ ",
"d A ;.N.k.L A k._  Xr.P.r.A k k A k.L k.+.L k.5 A L L <.<.[ +.L +.;.N.W.;.+.k.+.;.L k.;.[ ;.L ;.+.r.P.P.r.k _ P.P.+._ _ r.W.r.5 ",
"L k.A d W.W.L L _ P.r.r.r.r.P.P.W.L +.L A N.k.N.k.A d L +.<.;.g ;.k.A L +.+.A 5 W.L ;.L A ;.+.L r.+.k.r.A k r.r.+._ P.P.r.k.r._ ",
"+.A _ +._ k.P._ ;.L L ;.A L +.W. Xr.r.r._ _ r._ +.L ;.<.;.k.<.;.k.N.A +.;.N.+.A k.L ;.+.L L A +.;.+.+.[ A ;.;.L d +.W.N.g d +.;.",
"6.R _ +.P.P.r.r.N.;.k.k.d A A A +.k W._ _ k.k _ d L N.W.k.<.k.N.+.+.+.;.d L +.A ;.+.;.N.N.A 5 s.L +.+.;.;.;.L ;.+.k.k.k.;.;.N.;.",
"6.A r.P._ _ r.a._ r.;.k.;.k.+.A _ _ _ k _ A +.+._ ;.;.k.k.+.L L ;.A _ _ k _ _ A k.k.q C.k.q W.6.L +.+.k.;.+.d k.+.+.5 L <.k.N.A ",
"R R _ _ A _ r.r.L ;.+ ;.].W.N.+.A _ _ _ k.k _ r._ r.L +.k.r._ k _ L r._ _ +._ P.R 5 +.k.q +./.R k.A A +.L <.L L A W.;.N.N.+.N.;.",
"R q R 6._ r.P._ N.].<.N.;.Y.%.[ L +.;.r.;.d r._ A L k +.k.R A A <.Y.Y.k.N.W.k.+.;.d _ _ X _ W.k N.L d L L L k.L _ r.k.r._ _ +.+.",
"u 6.R q A r.P._ ].N.;.N.;.<.<.;.d N.r.L ;.L r.;.+.d A k.6.q 8 R N.Y.;.G L ;.k.;.A k.r._ k.C.A _ ;.;.;.L L ;.A A _ _ = = k _ k._ ",
"R 6.q 6.k.A _ _ ;.L L ;.;.;.N.<.A N.;.L N.L L ;.k.L d _ R % q 6.;.N.;.L A L L L [ N.P.+.r.r.A +.].;.;.5 A k.A Y.A P._ +.r.r.P.+.",
"R q u 6._ A r._ L L L k N.;.<.<.k.N.;.;. Xr.L ;.+.W.d d 6.q R +.;.;.<.;.+.A d L W.A r.r.k r.C._ W.g +.A L k.A k._ P.k.+.+._ _ r.",
"A % 6.k.k L +.L ;.;.;.d +.A [ ;.;.+.<.+.N.].N._ = P.r._ k.6.R A W.r.;.r.k.+.+.k.N.d k _ R C.C.} A k _ _ _ r._ R ;.;.;.k L L d ;.",
"A A W.C.+.+.L +.L L ;.] A A +.L L d +.g L N.N.;.5 _ P._ R +.R 6.N.L = k ;.+.L ;.+.L k k A R +.+.A _ _ k A _ +.P.;.+.N.;.N.P.L ;.",
"A s.N.A L N.N.].+.A k.].+.L ;.;.+.L ;.d [ k.r.P.+._ +.k 5 k +.k.N.;.;.;.N.N.;.+._ r._ _ 5 % +.+.6.R +.6._ _ _ r.+.k.].r.;.N.a.a.",
"k.k.+.;.;.A L P.].k.k.+XL d A k.+.N.k.X [ N._ _ _ P.A _ 6.A 6.A L N.N.N.<.;.L L +.r._ r.+.A k.R +.% +.+.A P.P._ ;.W.].N.] N.N.L ",
"A +.d +.W.L N.+.[ +.;.r.L _ _ r.;.N.r.k +._ k k.C.A k r.r.r._ +._ r.W.k.k.A L _ r._ r.r.r.+.+.+.A A C.} = P.6.k.k.+.;.L d N.;.] ",
";.k.+.N.W.A +.+.X d _ k.r.r.r.P.k.L _ _ r._ k _ k R +.W.r.A _ k.N._ W.;.+.N.r.5 _ W.P.P.k.r.k.+.+.Q.+.A +.r._ r.;.L _ L d L k ;.",
"k.W.N.L L g +.L d ;.A L r.r._ P.W.N.P._ = k +.r.C.+.A _ _ +.d A r.k 6.+.r.r.A _ r.+.k.+.A r.= r.P.P.k k +.k _ A A L ;.;.L ;.d L ",
"L A [ [ L d 5 L L +.d A A _ r. Xk.A +.r.k k A A R k _ k _  X+.;._ A k A r.k.r._ _ A _ r._ _ k r.r.A _ k _ k _ _ +.;.;.A ;.N.;.L ",
";.L L d d +.A A +.5 +.k.5 A k.k.+.A +.k._ A q A 6.k.k.r.+.N.r.W.+.R 6.C.R +.P.+.A _ P.P._ N.a.P.+.+.W.L +.L L ;.r._ _ _ r.r.L ;.",
"_ N.W.L A }.<.5 +.A +.N.;.k.;.k.+.+.r.+.k k +.W.C.k.k r.L L N.W._ q W.W.q 5 k P.P.A r._ ] P.] r.+.;.W.N.+.L ;.L _ _ k.r.r._ _ _ ",
"P.r.a.;.L N.<.k.W.Y.[ +.N.N.L ;.;.+ k r.+.q R C.R A k r.k L ;.+.R A +.R A 6.k +.r._ k _ ].L L d L L L N.L +.W.+.R _ r._ _ _ r.;.",
"_ _ ;.r.A k.;.k.[ A [ N.L +.k.W.<.A k.W.R % % A 6.q +.A d ].N.;.P.A A C.+.r.r._ R r.r.k P._ L r.;.N.d _ ;.;.L L A 5 A _ _ A r.;.",
"+.L +.+.d N.a.;.L = _ +.+.L k.W.+.P.<.;.A ;.k.].[ L N._ d +.L ;.W.P.5 _ r.;.N.L ;.L ;.W.W.+.+.W.+.+.A r.k k ;.;.N.;.r._ N.k.+.[ ",
"5 k.L +.;.d _ r.;.].N.;.N.+.+.A _ A L L N.<.].}.;.A +.+.+.<.[ [ r.P._ _ N.N.;.;.L L d +.+.A [ A A 5 5 r.] ] ;.L N.;.a.L ;.k.[ , ",
"+.+.L d N.L L ;.N.r.N.].+.N.W.A r._ ;.;.].;.<.].;.k.k.L g ;.<.;.k _ A +.P.N._ L L P.;.;.;.;.k.+.P.A R +.r.r.;.;.;.k ;.r.k.;.;.;.",
"+.A ;.g L ;.;.N.N.r.N.N.+.N.A k.r.k.+.N.k.<.L N.;.L k _ ;.[ [ G r._ k P.N.L ;.d ;.N.k.A L <.[ 5 P._ C.r.r._ L _ L L N.;.L ;.k.[ ",
"A [ d +.k ;.N.;.;.N.;.;.+.+.X k.+.r.A +.;.<.L ;.k._ k k.].k.<.<.q q k P.+.5 ;.;.N.N.;.d ;.W.;.d R R P.r.r._ ;.;.r.;.N.k.+.N.N.;.",
"k.+.A ;.;.r.L L N.N.;.N.A , +.A +._ +.A ;.[ ;.;.+.r._ +.;.L ;.;.+.+.+.k A A k ;.L r.L L ;.+.k.A _ _ k.r.r.r.;.;._ _ k.k.A L [ k.",
"[ k.W.k.;.;.d ;.N.].;.;.+.5 +., _ _ k.+.[ G k.N.r._ k r.W.;.L L A 6.C.k.+X%X;.L ;.P.;.;.;.L ;.L A _ _ r.r.+.L A d ;.N.L + A d g ",
"+ ;.k.L ;.L N.L ;.N.L d N.[ <.+.r.+.+.k.g [ +.;.k _ _ A +.+.;.k.} k.6.s.W.W.].N.N.r.;.;.N.].k.L r.r.k +._ +.;.N.;.;.+.;.;.W.;.;.",
"A d L A L <.N.N.;.k d L ;.g N.;.k _ d k.Y.[ ;.;._ _ _ +.d A N.+.R +.A 5 +.L L P.L ;.;.L ;.N.k.<.N.+.+.<.;.L r.P.r. Xk P.r.k C.C.",
"N.L +.+.;.k.;.L ;.;.L A ;.L ;.k._ _ +.+.<.<.L ;.k._ r.P.N.k.+.d +.A 5 A ;.+.L L L ;.;.;._ ;.;.+.L A g A L <.P.+.r.+._ P.k k r.R ",
";.L ;.k.L L g A N.+.k.+.L L +.<._ _ +.A +.;.d L r.r.P.L _ P.k.+.k.6._ +.k.;.;.N.r.N.;._ +.+.+.N.k.d 5 L d d k.+.6.R _ r.+.r.k = ",
"L L ;.k.+.L g +.r.+.k.k.L L <.;.k r.d A k.+.+.A +.+.+.A k _ L +.R 6.;.r.P.;.L ;.;.(._ k k.;.L ].W.;.A +.A 5 +.R C.+.+.r.r.k.A k ",
"<.;.g A ;.N.A L ;.<.g L ;.+.;.;.k _ , L N.N.W.L _ _ 5 k _ _ L +.r.r._ _ ;.] k L L ;.A A k.+.g +.N.<.L k.Q.+.R q 6.u 6.Q.+._ r._ ",
"Y.k.5 d +.W.A L W.k.+ L +.+.;.g A A L +.;.N.N.A _ r.k k A _ N.N.W.k.r._ d n ;.r.;.L L +.[ [ A A +.;.;.k.Q.s.R R +.R R +._ k r.r.",
"N.k.+.k.;.W.+.k.].;.g ;.L +.;.A r.k k.;.A k.+.d P.r.+.r._ A +.k.r.+.r.r.L L ;.;.N.L ;.k.A [ +.A d ;.N.L A k.+.+.k.k.A X _ A r.P.",
";.L ;.+X;.k.L ;.L [ +.k.+.+.A k.r.A W.k.d ;.+.A /.r.r.k k r.;.L +.+.n n ;.N.;.N.;.;.k.N.+.+.+.A L 5 +.+.A +.R +.k +.C.A _ _ _ A ",
"L d +.;.k ;.+.k R r._ P.n  X_ P.P.A A } r.A r.k.+.k +.A _ (. Xi L ;.L A ;.L %XN.a.r.r.A k _ _ k.W.s.A +.;.N.A +.k L k.W.N.g L d ",
"+.;.;.L k L 5 k _ r._ _ _ P.r.r.k W.s.A P.A 5  Xr.r.k.r.P.P.] ] L L +.L ;.;.;.L r.r.P.r._ _ A _ k.+.+.k.;.+.;.].;.L L [ L , +.N.",
"N.k.[ L +.r._ N.k._ A 5 k _ P.r.A k.r._ r.r.A R r.r.+._ +._ 5 r.k.;.;.;.+.+.d + n r.P. Xr._ r.r.5 A 5 +.L A [ L ;.N.k.A A L W.N.",
"k.+.L +.r.P.+._ P.A +.r.+.5 k._ r.k k +._  Xk.k A 5 k _ k 6._ +.k.;.d ;.A L ;._ r.r.k.P.+.A k.r.A k.+.A +.;.;.L d _ k.;.+.L k.k.",
"+.;.A 5 k P.r.A _ k A 6.6.u 6.+.r.r.k A r.P.k r.r.k _ P._ r._ A k.+.d +.L k.N.N.+._ _ P.r._ 6.A 5 k.].;.;.k.+.;.d ;.].k.k.k.N.N.",
"+.N.+.d _ r._ r.A r.u q } } A +.k.P.r._ r._ = P.r.k _ k.r.r.+.P.W.A L L L k.A L A A r.P.r._ +.+.X A N.;.k.+.d L , <.].L L ;.;.A ",
"A k.k.;.+.r.q R 6.W.C.+.s.+.q A r._ r._ _ 6.+.r.r._ +._ +.A A k.W.+.Y.k.k.N.+.+.k.r.r.6.q 5 R W.k.L +.+.N.k.N.k.+.k.].;.;.;.L L ",
"d k.k.A = P.W.+.R A C.+.+.u R 6.n r.P.k +.r.k k +._ C._ 6.+.+.q A [ k.+.+.g +.L r.R _ R R R R C.W.+.L [ ;.k.+XL ;.N.Y.A [ k.;.L ",
";.;.;.L k +.+.} +.q u R 6.+.A +.r.P.r.k r.P.r._ = k.r.= 6.R k.k.;.g +.L 5 5 +.[ R q A A k k.A = N.+.N.+.L A ].L d L <.L L A ;.+.",
"A L ;.+._ +.R R } 6.R R +.q 5 +.A ] _ k _ +.k._ _ r.r._ W.6.k.C.;.k.+.N.+.k.+.+.C.R +.A  X_ r.k [ d 5 d d g N.N.k.;.k.k.;.+.;.+.",
"A ;.;.L r.P._ k r.P.+.+.R 5 R 6.P.k.r.r.P.P.P.A r.r._ _ r.r._ r.;.N.k.L ;.L A +.C.C.r._ k.k _ _ A +.+.k.;.k.;.L +.k.].N.d +.N.L ",
";.N.;.A r.P._ k _ _ R 6.R R 6.R _ k k k k.P.r._ P.k.r._ A k._ _ L N.N.A L , 5 +.Q.s._ R _ r.+.r.k.Y.k.+.A L k.L 5 k.;.;.+.+.L N.",
"N.+.A L r._ k _ _ A r.k.r.k.r.k _ A _ 5 r.k._ P.r.r.6.+.A P._ A L r.;.k.+.;.L ;.P.A k _ _ k _ r.+.L ;.+.[ 5 +.+.5 A g L L ;.L ;.",
"k.+.L A L A _  Xr.r.k.R _ r.A _ _ +.r.k r.+.= _ _ _ +.P.r.r.k k ;.L A L ;.N.[ d k.C.k P._ r.P.r.;.A ;.L A + k.+.A +.[ [ L ;.;.L ",
"<.;.+.A k L ;.W.r.P._ = k _ n +._ k.6.R k.+.A k r.6.+.P.P._ k _ N.L L = ;.+.[ 5 k k.= r._ (.P._ +.[ ;.L L d +.A k.W.;.<.%Xr.k N.",
"k.[ ;.;.+._ k A _ k._ _ r.r.P.+._ C.6.R _ 5 r.+.+._ q _ r.k _ r.;.].r.;.+.;.+.<.5 r.P._ n = _ r.[ +.[ ].].;.+.k.k.5 ;.k.N.r.N.d "
};
