/* XPM */
static char *_a69e350ccd2414cbcc130f8c33d7440[] = {
/* columns rows colors chars-per-pixel */
"493 626 256 2 ",
"   c None",
".  c #000001",
"X  c #02040A",
"o  c #0B0607",
"O  c #170503",
"+  c #030817",
"@  c #171418",
"#  c #0E1116",
"$  c #270702",
"%  c #380600",
"&  c #391806",
"*  c #381A15",
"=  c #291610",
"-  c #382616",
";  c #000926",
":  c #041728",
">  c #191C28",
",  c #000C33",
"<  c #021937",
"1  c #171F31",
"2  c #241D28",
"3  c #08233A",
"4  c #18232F",
"5  c #262736",
"6  c #332B2E",
"7  c #1E201F",
"8  c #450900",
"9  c #471901",
"0  c #551A01",
"q  c #4D130B",
"w  c #6B1609",
"e  c #4A2503",
"r  c #572902",
"t  c #593404",
"y  c #522E16",
"u  c #652A01",
"i  c #683705",
"p  c #753A03",
"a  c #673917",
"s  c #713115",
"d  c #48362A",
"f  c #493835",
"g  c #573937",
"h  c #502F29",
"j  c #673A2B",
"k  c #461F21",
"l  c #784706",
"z  c #744811",
"x  c #58453A",
"c  c #544430",
"v  c #704A30",
"b  c #6A5023",
"n  c #001B44",
"m  c #052847",
"M  c #073558",
"N  c #163A57",
"B  c #0B2F4F",
"V  c #353645",
"C  c #063A66",
"Z  c #4E3C47",
"A  c #154A70",
"S  c #265576",
"D  c #27475A",
"F  c #5A4845",
"G  c #524C53",
"H  c #664946",
"J  c #68554B",
"K  c #775957",
"L  c #70544E",
"P  c #756455",
"I  c #6C5A66",
"U  c #756C6D",
"Y  c #595865",
"T  c #B72D1A",
"R  c #B33324",
"E  c #942B1D",
"W  c #C2301F",
"Q  c #885506",
"!  c #885817",
"~  c #8D530A",
"^  c #976618",
"/  c #96680E",
"(  c #AA7413",
")  c #865631",
"_  c #956A2D",
"`  c #A97627",
"'  c #AE7729",
"]  c #AA4A21",
"[  c #865A4D",
"{  c #8E6C53",
"}  c #876866",
"|  c #967877",
" . c #8F756D",
".. c #A57B71",
"X. c #A3764F",
"o. c #C17E79",
"O. c #B7872F",
"+. c #B98617",
"@. c #C89737",
"#. c #CB9430",
"$. c #D8A63A",
"%. c #D6A62E",
"&. c #EAB337",
"*. c #D29A16",
"=. c #FCCB1D",
"-. c #F9C71C",
";. c #FDD11E",
":. c #FBC623",
">. c #FDCC24",
",. c #FDCD2B",
"<. c #F8C729",
"1. c #FED224",
"2. c #FED22C",
"3. c #FFD82C",
"4. c #FDCD33",
"5. c #FDCD3B",
"6. c #F9C637",
"7. c #FED333",
"8. c #FFD933",
"9. c #FED33B",
"0. c #FED83A",
"q. c #EEC138",
"w. c #B38A53",
"e. c #958576",
"r. c #AE8D75",
"t. c #AC915F",
"y. c #CD9A46",
"u. c #D9A745",
"i. c #D9AE4D",
"p. c #E8B748",
"a. c #EDB74C",
"s. c #D3AE73",
"d. c #D4A369",
"f. c #FDCD44",
"g. c #FDCC4B",
"h. c #F7C548",
"j. c #FED343",
"k. c #FED34B",
"l. c #FFD945",
"z. c #F9C954",
"x. c #FED354",
"c. c #EDC24F",
"v. c #F2CE7A",
"b. c #175888",
"n. c #255B86",
"m. c #295C91",
"M. c #286896",
"N. c #306B92",
"B. c #387AA8",
"V. c #2B78AE",
"C. c #1B679B",
"Z. c #797487",
"A. c #437CA8",
"S. c #437498",
"D. c #8C7B88",
"F. c #A17E81",
"G. c #3585B9",
"H. c #2F83B7",
"J. c #1F80BF",
"K. c #478AB7",
"L. c #4A8AB3",
"P. c #7B8384",
"I. c #2689C6",
"U. c #2B8BC6",
"Y. c #268BCA",
"T. c #2B8DCB",
"R. c #2686C6",
"E. c #338CC4",
"W. c #328ECB",
"Q. c #398CC6",
"!. c #2D91CD",
"~. c #2892CB",
"^. c #3293CD",
"/. c #3B94CC",
"(. c #3D99CE",
"). c #3793C7",
"_. c #2B8ED1",
"`. c #268DD1",
"'. c #2D92D2",
"]. c #2B94D6",
"[. c #3395D2",
"{. c #3A96D2",
"}. c #3599D4",
"|. c #3C9AD4",
" X c #359AD9",
".X c #3C9CDA",
"XX c #3496D9",
"oX c #328ED0",
"OX c #3DA0DA",
"+X c #258BCB",
"@X c #429ACE",
"#X c #4696CA",
"$X c #429CD4",
"%X c #4A9DD4",
"&X c #429DDA",
"*X c #4599D5",
"=X c #519ACE",
"-X c #44A1D5",
";X c #4BA2D5",
":X c #44A1DB",
">X c #4AA3DA",
",X c #4DA9DB",
"<X c #55A4D8",
"1X c #4FA1CE",
"2X c #4AA4E1",
"3X c #65A4D4",
"4X c #948A8F",
"5X c #A68787",
"6X c #B79897",
"7X c #AC948F",
"8X c #B5A697",
"9X c #9991A6",
"0X c #AE9BA9",
"qX c #B9A7A6",
"wX c #B4ACB2",
"eX c #9CA3A1",
"rX c #C69A94",
"tX c #CDAE94",
"yX c #C7A8A8",
"uX c #C9B7B7",
"iX c #D7B7B8",
"pX c #CBB1AD",
"aX c #E4BBB8",
"sX c #DEB38D",
"dX c #ECCB88",
"fX c #F2CE87",
"gX c #F4D384",
"hX c #F5D48B",
"jX c #F9D58B",
"kX c #FAD98C",
"lX c #F8D787",
"zX c #F7D693",
"xX c #EDCF91",
"cX c #D2C6B8",
"vX c #EBCAB9",
"bX c #DDC28D",
"nX c #B8AFC5",
"mX c #AA9EC0",
"MX c #CFBAC9",
"NX c #E4BFC6",
"BX c #D8C7C6",
"VX c #D5CDD0",
"CX c #E7C7C8",
"ZX c #EED4D2",
"AX c #F6E7DA",
"SX c #EDE5D8",
"DX c #EAE9E6",
"FX c #F8EAE6",
"GX c #FCF7EB",
"HX c #FDFCF5",
"JX c #F6FCFB",
"KX c #FEFFFD",
"LX c #F8F6F5",
"PX c #F4EDF4",
"IX c #E3D7E5",
"UX c #BBC3BF",
/* pixels */
"                                                                                                                                                                                                                                                                                                                                                                                                                                                                                                                                                                                                                                                                                                                                                                                                                                                                                                                                                                                                                          ",
"                                                                                                                                                                                                                                                                                                                                                                                                                                                                                                                                                                                                                                                                                                                                                                                                                                                                                                                                                                                                                          ",
"                                                                                                                                                                                                                                                                                                                                                                                                                                                                                                                                                                                                                                                                                                                                                                                                                                                                                                                                                                                                                          ",
"                                                                                                                                                                                                                                                                                                                                                                                                                                                                                                                                                                                                                                                                                                                                                                                                                                                                                                                                                                                                                          ",
"                                                                                                                                                                                                                                                                                                                                                                                                                                                                                                                                                                                                                                                                                                                                                                                                                                                                                                                                                                                                                          ",
"                                                                                                                                                                                                                                                                                                                                                                                                                                                                                                                                                                                                                                                                                                                                                                                                                                                                                                                                                                                                                          ",
"                                                                                                                                                                                                                                                                                                                                                                                                                                                                                                                                                                                                                                                                                                                                                                                                                                                                                                                                                                                                                          ",
"                                                                                                                                                                                                                                                                                                                                                                                                                                                                                                                                                                                                                                                                                                                                                                                                                                                                                                                                                                                                                          ",
"                                                                                                                                                                                                                                                                                                                                                                                                                                                MXMXnXwXnXVX                                                                                                                                                                                                                                                                                                                                                                                                                                                                                                                                                              ",
"                                                                                                                                                                                                                                                                                                                                                                                                                                        IXwXD.I F g f f Z H I } 9XMX                                                                                                                                                                                                                                                                                                                                                                                                                                                                                                                                                      ",
"                                                                                                                                                                                                                                                                                                                                                                                                                                    MX4XI g g v L [ { [ [ [ [ v j H K F.uX                                                                                                                                                                                                                                                                                                                                                                                                                                                                                                                                                ",
"                                                                                                                                                                                                                                                                                                                                                                                                                                VXD.H g H } 6XiXvXvXZXZXvXvXvXtXr.} L g H | uX                                                                                                                                                                                                                                                                                                                                                                                                                                                                                                                                            ",
"                                                                                                                                                                                                                                                                                                                                                                                                                              0XI g H ..iXZXFX                  AXZXaXr.[ j H 7X                                                                                                                                                                                                                                                                                                                                                                                                                                                                                                                                          ",
"                                                                                                                                                                                                                                                                                                                                                                                                                            4XF g | iXAX                              AXvX5XL g  .VX                                                                                                                                                                                                                                                                                                                                                                                                                                                                                                                                      ",
"                                                                                                                                                                                                                                                                                                                                                                                                                        VXU f H 6XAX                                      FXiX} g K MX                                                                                                                                                                                                                                                                                                                                                                                                                                                                                                                                    ",
"                                                                                                                                                                                                                                                                                                                                                                                                                    PXwXI 6 - 5XFXKX                                          CX..g K MX                                                                                                                                                                                                                                                                                                                                                                                                                                                                                                                                  ",
"                                                                                                                                                                                                                                                                                                                                                                                                            IXMXwX9XD.Z = = = H 0XMXPX                                          AX7Xg }                                                                                                                                                                                                                                                                                                                                                                                                                                                                                                                                   ",
"                                                                                                                                                                                                                                                                                                                                                                                                      VXqXF.I Z f 6 * * h g k k k H D.uX                                          AXr.g F.                                                                                                                                                                                                                                                                                                                                                                                                                                                                                                                                ",
"                                                                                                                                                                                                                                                                                                                                                                                                  MXD.L g h v L h = k  .yXyXrXr.} H h H 5X                                        PXZX} H qX                                                                                                                                                                                                                                                                                                                                                                                                                                                                                                                              ",
"                                                                                                                                                                                                                                                                                                                                                                                              wXI Z h x  .rXaXCX} * { ZXFX    AXZXaX7XH g D.IX                                    LXPXiXg I VX                                                                                                                                                                                                                                                                                                                                                                                                                                                                                                                            ",
"                                                                                                                                                                                                                                                                                                                                                                                            4Xg j [ 5XaXZXAXLXFXK g iX              FXiX[ h D.PX                  IXIXVXVXVXMXMXVXMXMXMXF 6 9XPX                                                                                                                                                                                                                                                                                                                                                                                                                                                                                                                          ",
"                                                                                                                                                                                                                                                                                                                                                                                        uX} g H rXvXAX      LXuXg  .FX                FXNXH 6 4XIXMXMXwX9X4XD.| } K H g g g g g g g g h $ $ g 5XwXIX                                                                                                                                                                                                                                                                                                                                                                                                                                                                                                                      ",
"                                                                                                                                                                                                                                                                                                                                                                                      0XH g } pXAX          FX .x iX                  PXZXU @ 6 G Z h k q 9 9 r 0 0 0 0 0 0 r 0 0 w 0 0 0 0 8 q h H } 4XMX                                                                                                                                                                                                                                                                                                                                                                                                                                                                                                                ",
"                                                                                                                                                                                                                                                                                                                                                                                    6XH H 5XZX              CXH  .AX              IXMX5XL * O O $ % e i z z ^ ' ' #.#.#.#.$.$.$.u.u.u.u.y.#.' ! z a y k g } qX                                                                                                                                                                                                                                                                                                                                                                                                                                                                                                            ",
"                                                                                                                                                                                                                                                                                                                                                                                  wXH H yXAX                5Xg yXGX          MX4XI h & % % e l ~ ( %.p.p.p.h.f.j.j.f.f.j.j.j.f.f.k.k.g.k.f.f.f.p.$.#.^ i 0 h K 0X                                                                                                                                                                                                                                                                                                                                                                                                                                                                                                        ",
"                                                                                                                                                                                                                                                                                                                                                                                CXK g 6XFX                ZXL L ZXLX    IXuXD.g * & & t Q ' $.a.h.g.j.0.9.9.9.7.7.2.2.2.,.,.2.2.9.9.9.7.2.2.2.7.9.j.g.h.u.' z e h K wX                                                                                                                                                                                                                                                                                                                                                                                                                                                                                                    ",
"                                                                                                                                                                                                                                                                                                                                                                                | g r.AX                  uXf  .KXKXIXqX} g & 9 i / #.&.h.f.f.5.5.5.9.4.9.7.7.,.7.7.7.7.7.7.7.7.7.2.2.2.2.2.2.7.4.9.5.9.k.h.u.' i 9 h U MX                                                                                                                                                                                                                                                                                                                                                                                                                                                                                                ",
"                                                                                                                                                                                                                                                                                                                                                                              uXF } ZX                    5X6 7XIX0XK k & e Q O.p.&.9.9.<.7.2.<.,.4.,.:.2.7.7.2.2.2.2.2.7.7.2.2.2.2.2.2.8.7.7.2.<.7.2.2.7.9.j.x.y.! r e H 0X                                                                                                                                                                                                                                                                                                                                                                                                                                                                                              ",
"                                                                                                                                                                                                                                                                                                                                                                               .H yX                    PXU 2 Z Z & % r ~ #.p.5.j.5.4.4.7.,.2.2.2.2.1.1.1.2.7.2.2.2.1.1.2.2.2.2.2.2.2.2.2.2.7.7.2.2.7.7.7.9.9.5.g.h.#.l e h 5X                                                                                                                                                                                                                                                                                                                                                                                                                                                                                            ",
"                                                                                                                                                                                                                                                                                                                                                                            uXH } AX                    MXZ O O $ r ^ @.a.j.9.<.,.2.7.7.7.7.2.2.1.1.1.1.1.2.2.2.2.2.2.1.1.2.2.2.2.2.2.2.2.2.2.2.2.2.2.7.7.7.2.2.9.j.j.a.` t y  .VX                                                                                                                                                                                                                                                                                                                                                                                                                                                                                        ",
"                                                                                                                                                                                                                                                                                                                                                                            | x pX                    MXI = $ r / #.h.f.5.9.2.,.,.2.2.2.9.7.2.1.1.1.1.1.1.1.2.2.3.3.2.2.2.2.2.2.2.2.2.2.2.2.2.2.2.7.2.,.,.7.2.7.9.9.9.j.h.#.l y } VX                                                                                                                                                                                                                                                                                                                                                                                                                                                                                      ",
"                                                                                                                                                                                                                                                                                                                                                                          NXH } AX                VXD.f = $ i @.f.9.7.7.2.2.2.2.2.2.,.,.7.7.2.2.1.1.1.1.>.>.,.2.3.3.2.2.2.2.2.2.2.2.2.2.2.2.2.2.2.2.7.2.,.,.7.7.4.7.7.7.9.g.u.! y } VX                                                                                                                                                                                                                                                                                                                                                                                                                                                                                    ",
"                                                                                                                                                                                                                                                                                                                                                                          6Xx yX                0XH * & % % ` x.5.9.9.7.7.7.7.7.7.2.2.2.,.2.7.2.2.2.3.2.>.>.,.2.2.2.2.1.>.1.2.2.2.2.2.2.2.2.2.2.2.2.2.2.2.2.9.9.0.7.2.7.9.9.k.u.! t  .                                                                                                                                                                                                                                                                                                                                                                                                                                                                                    ",
"                                                                                                                                                                                                                                                                                                                                                                          } K CX            IXD.h & r _ _ 9 ( k.4.7.9.4.7.7.2.2.7.2.1.>.2.2.2.2.2.2.2.2.1.2.2.2.2.1.1.1.1.1.1.2.2.2.2.2.2.2.7.8.2.2.2.2.2.2.9.9.7.7.7.7.0.7.0.k.u.! y  .                                                                                                                                                                                                                                                                                                                                                                                                                                                                                  ",
"                                                                                                                                                                                                                                                                                                                                                                        NXH |             MXK * 9 ~ $.z.u.u / f.4.2.2.2.2.2.2.2.7.7.,.>.2.2.2.2.1.1.1.2.1.2.2.2.2.2.1.2.3.1.1.=.2.2.2.2.7.2.7.7.2.2.7.7.2.,.2.9.7.7.7.2.2.0.9.9.x.u.z a 5X                                                                                                                                                                                                                                                                                                                                                                                                                                                                                ",
"                                                                                                                                                                                                                                                                                                                                                                        6XH 6X          0XH & r ` a.k.k.a.p Q h.4.,.2.2.2.2.1.1.2.2.,.>.2.2.2.1.1.1.-.>.1.1.2.2.2.2.2.2.1.1.1.=.2.2.1.1.7.2.2.2.2.2.7.2.1.>.2.7.7.2.2.2.2.7.7.4.5.g.@.p j yX                                                                                                                                                                                                                                                                                                                                                                                                                                                                              ",
"                                                                                                                                                                                                                                                                                                                                                                        | H iX      DX4Xh & l @.z.g.5.f.a.p p p.5.,.,.,.7.2.1.1.2.2.1.1.2.2.1.2.1.1.1.1.1.1.1.1.2.1.1.1.1.1.1.1.2.2.1.>.1.2.2.2.1.2.2.2.1.2.7.7.7.7.2.2.7.7.7.9.9.5.g.' r H MX                                                                                                                                                                                                                                                                                                                                                                                                                                                                            ",
"                                                                                                                                                                                                                                                                                                                                                                        } L ZXLXKXIX| k 9 ! u.k.f.9.4.5.f.~ i a.9.,.,.,.2.2.1.1.2.2.1.>.1.1.1.2.2.2.1.1.1.1.1.1.1.1.1.1.>.1.1.2.1.2.2.1.1.1.1.1.1.1.1.1.2.2.7.9.7.2.2.7.7.7.7.7.7.9.j.a.^ r  .                                                                                                                                                                                                                                                                                                                                                                                                                                                                            ",
"                                                                                                                                                                                                                                                                                                                                                                        K K FXKXIX} * 9 ^ a.j.9.9.7.,.4.f.( 0 $.9.2.,.,.,.,.>.2.2.>.>.=.1.;.1.1.2.2.2.2.2.2.1.1.1.1.1.1.>.1.2.2.2.8.2.1.2.2.1.1.1.1.1.1.1.2.7.7.2.2.2.7.2.2.2.2.7.9.0.k.p.~ y 6X                                                                                                                                                                                                                                                                                                                                                                                                                                                                          ",
"                                                                                                                                                                                                                                                                                                                                                                      NXH } PXIXK & e ` z.f.4.7.7.,.<.<.6.*.0 ' f.2.,.,.,.>.1.1.>.>.=.=.1.1.2.2.2.2.2.2.2.2.2.1.1.1.1.1.1.2.2.2.7.8.2.2.3.2.2.1.1.1.1.1.>.>.,.,.2.2.2.,.2.2.2.2.7.9.0.9.x.@.i L CX                                                                                                                                                                                                                                                                                                                                                                                                                                                                        ",
"                                                                                                                                                                                                                                                                                                                                                                      uXf } VXU & 9 ' z.f.4.4.4.,.,.,.,.,.%.u Q 5.2.1.>.>.>.1.1.1.1.2.1.1.1.1.2.1.1.1.1.3.2.3.3.1.1.2.2.1.1.1.1.2.2.3.2.3.3.3.1.1.1.1.2.1.2.2.2.2.2.2.2.7.7.7.7.9.9.7.7.9.z.` t 5X                                                                                                                                                                                                                                                                                                                                                                                                                                                                        ",
"                                                                                                                                                                                                                                                                                                                                                                      pXd F I $ 8 ` z.9.4.2.,.,.,.,.,.,.2.&.Q p q.2.>.1.>.>.1.1.1.:.>.1.1.1.2.1.>.1.=.;.2.2.3.2.1.1.1.2.1.1.1.1.1.2.2.3.1.1.1.1.1.1.1.2.1.2.2.2.2.2.7.2.7.7.7.7.7.7.2.2.7.k.u.z v uX                                                                                                                                                                                                                                                                                                                                                                                                                                                                      ",
"                                                                                                                                                                                                                                                                                                                                                                      pX6 O O % / h.j.9.7.7.2.2.,.,.>.>.2.4.( p *.2.1.>.>.>.1.1.1.>.1.1.2.2.1.1.1.1.1.1.1.1.2.2.1.>.2.2.1.1.1.1.1.1.2.2.>.1.2.2.1.1.2.2.1.2.2.2.2.2.2.2.2.7.7.7.2.2.7.7.0.5.g.` r |                                                                                                                                                                                                                                                                                                                                                                                                                                                                       ",
"                                                                                                                                                                                                                                                                                                                                                                      uXd O $ l p.5.9.7.4.7.2.2.,.,.1.1.>.,.&.+.-.2.2.1.>.>.1.1.>.2.2.2.2.2.1.;.-.>.>.>.1.1.1.1.2.2.2.2.1.1.1.2.1.1.1.1.1.2.2.2.1.1.1.1.1.2.2.2.2.2.2.2.2.2.7.7.2.2.2.7.9.4.5.$.i v uX                                                                                                                                                                                                                                                                                                                                                                                                                                                                    ",
"                                                                                                                                                                                                                                                                                                                                                                      uX6 $ t $.f.9.7.7.9.7.7.2.2.2.2.2.2.,.4.4.<.,.2.2.1.1.1.1.=.>.2.2.2.2.1.1.1.>.:.>.2.1.1.1.1.1.2.2.1.1.2.2.2.2.1.1.1.1.2.>.1.1.1.1.1.1.1.2.2.2.2.>.2.2.2.2.2.2.2.4.9.9.9.h._ y 5X                                                                                                                                                                                                                                                                                                                                                                                                                                                                    ",
"                                                                                                                                                                                                                                                                                                                                                                      5X= & O.x.9.7.7.7.7.7.7.2.2.2.2.2.1.1.,.2.>.>.2.2.1.1.1.1.=.1.1.2.1.2.1.1.2.2.2.2.1.1.1.1.1.1.2.2.1.1.2.,.2.2.2.1.1.1.2.1.1.1.1.2.1.1.1.1.1.2.2.2.2.2.2.2.7.7.7.2.9.9.9.f.u.u K                                                                                                                                                                                                                                                                                                                                                                                                                                                                     ",
"                                                                                                                                                                                                                                                                                                                                                                    uXg $ z c.4.7.2.2.2.2.2.,.2.2.2.7.7.2.1.>.>.1.1.1.2.1.1.1.1.1.;.;.1.1.1.1.1.1.1.1.1.1.;.1.1.1.1.2.2.1.1.2.1.2.2.1.1.1.1.2.1.2.1.;.1.2.2.1.1.1.1.2.2.2.2.2.2.7.7.7.2.2.7.9.j.z.! y qX                                                                                                                                                                                                                                                                                                                                                                                                                                                                  ",
"                                                                                                                                                                                                                                                                                                                                                                    D.* $ ! h.8.2.,.<.,.2.2.2.2.2.2.2.7.2.1.>.1.1.1.1.1.1.1.1.1.;.1.1.>.1.1.1.1.1.1.=.1.=.=.;.1.1.1.2.1.1.2.3.3.3.1.1.1.1.1.2.1.1.;.=.=.1.2.1.1.1.2.2.2.2.2.2.2.2.7.2.,.2.7.7.5.g.@.a |                                                                                                                                                                                                                                                                                                                                                                                                                                                                   ",
"                                                                                                                                                                                                                                                                                                                                                                  MXx = $ z c.0.4.2.2.2.2.,.>.2.2.2.:.:.2.1.1.>.2.2.2.1.1.1.1.1.1.1.;.1.:.:.>.=.;.;.1.1.1.=.1.1.>.>.1.1.1.1.1.2.1.1.1.1.1.1.1.1.2.2.1.1.1.1.1.1.2.2.2.,.7.7.7.7.2.7.8.7.7.7.7.9.j.a.z v CX                                                                                                                                                                                                                                                                                                                                                                                                                                                                ",
"                                                                                                                                                                                                                                                                                                                                                                  5Xk y 9 r p.l.7.7.2.2.2.>.>.2.2.2.>.>.1.1.1.1.2.2.2.1.1.1.1.1.1.1.1.1.>.-.-.>.;.;.1.2.1.1.1.1.1.1.2.1.1.1.1.1.1.1.1.1.1.1.1.1.2.2.2.1.2.1.1.>.1.2.2.2.7.7.7.7.7.7.7.7.8.0.0.0.9.x.' a 6X                                                                                                                                                                                                                                                                                                                                                                                                                                                                ",
"                                                                                                                                                                                                                                                                                                                                                                CXH e w.) 9 #.j.4.,.2.2.,.,.,.,.,.2.,.2.2.2.2.2.2.2.2.1.1.1.1.>.1.1.1.1.1.-.-.1.1.1.>.>.1.1.;.1.1.2.2.1.;.;.;.1.1.1.1.1.1.1.1.1.1.2.2.1.2.2.1.>.1.2.2.2.7.7.7.7.7.7.7.7.7.7.9.9.9.k.i.i }                                                                                                                                                                                                                                                                                                                                                                                                                                                                 ",
"                                                                                                                                                                                                                                                                                                                                                                7Xy z v.y.8 ( g.6.<.<.>.,.,.,.,.>.2.>.2.>.1.1.1.2.2.2.1.2.1.1.>.1.1.1.2.3.1.>.1.3.1.1.1.1.1.1.=.>.2.2.1.;.;.;.>.1.1.1.1.1.1.1.1.1.1.1.1.2.2.1.1.2.2.2.2.7.7.7.2.7.7.8.7.7.7.7.7.0.k.z.! c MX                                                                                                                                                                                                                                                                                                                                                                                                                                                              ",
"                                                                                                                                                                                                                                                                                                                                                                K e O.x.i.u l h.5.,.,.,.2.2.2.2.,.>.>.1.>.1.>.>.1.1.1.2.2.>.2.2.2.1.1.2.1.1.1.1.1.1.2.2.1.1.1.1.1.1.2.3.1.1.>.>.>.>.>.>.1.1.1.1.>.>.1.1.2.2.2.2.2.2.2.2.7.7.7.2.7.7.7.7.7.7.7.7.7.j.x.O.y 5X                                                                                                                                                                                                                                                                                                                                                                                                                                                              ",
"                                                                                                                                                                                                                                                                                                                                                              iXj t $.x.z.Q i p.5.2.2.,.2.2.2.2.2.,.>.1.1.2.2.>.1.>.1.2.1.>.2.2.1.1.1.2.2.1.1.1.1.1.1.1.2.2.2.1.1.1.2.2.1.1.1.>.=.>.1.2.1.1.1.>.>.1.1.1.2.2.2.2.2.2.2.7.7.7.7.7.7.2.2.2.7.7.7.7.7.9.k.u.i L                                                                                                                                                                                                                                                                                                                                                                                                                                                               ",
"                                                                                                                                                                                                                                                                                                                                                              F.e ! c.6.f.( u ' 5.,.,.,.7.2.2.2.2.2.2.2.2.2.3.>.1.>.>.2.=.1.2.1.-.1.1.2.8.8.2.1.;.;.1.>.2.2.2.2.2.2.1.1.2.1.1.1.1.1.1.1.2.1.1.>.1.1.1.2.1.1.1.1.2.2.2.7.7.7.7.7.2.2.2.2.7.7.7.7.7.9.j.z.! a pX                                                                                                                                                                                                                                                                                                                                                                                                                                                            ",
"                                                                                                                                                                                                                                                                                                                                                            ZXL 9 O.x.4.5.&.Q ( 4.,.2.,.7.2.2.2.2.2.2.2.1.1.3.1.=.1.1.1.;.;.1.>.-.1.1.1.2.3.3.1.;.1.1.1.1.2.1.1.2.1.1.1.1.1.1.1.1.1.1.1.1.1.1.1.1.1.1.2.2.1.1.1.1.2.2.2.2.,.7.2.1.2.2.2.2.7.7.7.7.9.9.g.' r |                                                                                                                                                                                                                                                                                                                                                                                                                                                             ",
"                                                                                                                                                                                                                                                                                                                                                            pXh i i.x.5.4.5.&.%.,.>.,.,.7.2.2.2.1.2.2.2.1.1.3.1.>.>.>.1.;.;.=.1.1.1.1.;.1.1.1.;.1.3.1.1.1.1.>.>.1.1.1.1.1.;.;.;.1.1.1.1.1.>.1.3.1.1.1.2.2.3.3.1.1.2.7.2.7.2.2.7.7.7.7.7.2.7.7.7.2.7.9.k.u.p v CX                                                                                                                                                                                                                                                                                                                                                                                                                                                          ",
"                                                                                                                                                                                                                                                                                                                                                            7Xe Q z.k.7.4.9.4.-.,.,.2.2.2.,.>.1.1.2.2.2.2.1.1.1.>.1.1.=.=.;.;.1.1.;.1.;.=.=.;.=.1.1.1.1.1.1.>.>.2.2.2.2.1.;.;.;.1.1.1.1.2.1.2.2.1.1.1.2.1.1.2.3.>.2.2.,.2.2.2.7.7.9.7.2.2.2.7.7.2.2.9.j.a.^ j 6X                                                                                                                                                                                                                                                                                                                                                                                                                                                          ",
"                                                                                                                                                                                                                                                                                                                                                            } e ` x.5.4.9.7.4.,.,.2.2.2.,.:.>.1.2.2.1.2.2.1.1.>.1.1.;.=.=.1.1.1.1.;.;.;.=.;.1.=.;.;.=.=.1.1.1.1.2.2.2.2.1.1.;.1.2.1.1.1.2.2.>.>.1.1.1.1.2.2.2.2.>.1.2.,.2.1.1.2.2.7.2.2.2.,.,.7.2.2.9.9.f.#.t |                                                                                                                                                                                                                                                                                                                                                                                                                                                           ",
"                                                                                                                                                                                                                                                                                                                                                          CXL e @.j.6.9.7.,.,.,.2.2.2.2.,.>.,.2.2.>.>.>.>.>.>.-.=.;.;.;.1.1.1.1.1.=.;.1.1.1.1.1.=.;.-.=.1.2.1.1.1.1.1.1.2.1.1.1.1.2.1.2.2.2.>.>.1.1.2.1.1.2.2.>.1.2.2.2.>.>.>.2.2.2.2.2.7.,.,.7.2.2.9.9.j.u.a L                                                                                                                                                                                                                                                                                                                                                                                                                                                           ",
"                                                                                                                                                                                                                                                                                                                                                          iXh i p.9.0.4.,.2.7.3.2.2.2.2.>.>.>.>.2.1.1.1.=.>.>.>.>.=.1.1.1.;.>.>.>.>.1.1.;.;.1.1.1.;.;.;.1.1.1.>.>.1.1.1.3.1.1.1.1.1.1.1.1.>.1.1.1.2.2.1.1.1.2.2.2.2.2.2.>.>.>.>.2.7.2.,.7.<.<.7.7.7.9.9.9.z.! j pX                                                                                                                                                                                                                                                                                                                                                                                                                                                        ",
"                                                                                                                                                                                                                                                                                                                                                          6Xe ! x.9.9.4.,.2.2.2.2.2.2.2.>.,.,.,.2.2.1.1.1.1.2.2.>.>.1.1.1.1.1.>.>.>.2.2.1.;.1.=.1.1.1.1.1.1.1.1.1.;.1.1.3.1.1.;.1.;.;.;.;.=.1.1.1.2.2.2.1.1.2.2.2.2.2.2.>.>.1.2.2.2.2.7.7.,.,.2.7.9.9.9.9.g.' r e.                                                                                                                                                                                                                                                                                                                                                                                                                                                        ",
"                                                                                                                                                                                                                                                                                                                                                          | e ` x.0.9.7.4.,.,.2.2.2.2.2.2.2.2.2.2.2.2.1.1.1.1.2.>.>.1.1.1.1.1.1.1.1.1.1.1.1.1.>.1.1.1.1.1.1.1.;.1.1.1.1.1.1.;.;.;.;.;.;.=.=.2.1.1.1.2.2.1.1.1.2.2.1.2.2.1.1.1.2.2.2.7.7.7.7.2.7.7.7.9.9.9.k.i.i L                                                                                                                                                                                                                                                                                                                                                                                                                                                         ",
"                                                                                                                                                                                                                                                                                                                                                          K r O.k.7.7.4.4.,.,.,.,.2.2.2.2.2.2.2.2.2.1.1.1.1.1.1.>.>.1.1.1.1.1.2.1.1.1.1.1.1.1.1.1.1.1.>.=.;.;.;.;.1.1.1.1.1.;.;.1.;.;.;.;.1.3.2.=.=.1.2.2.2.2.2.2.2.2.2.2.2.2.2.1.1.2.7.7.7.7.7.7.9.9.9.9.j.a.~ j uX                                                                                                                                                                                                                                                                                                                                                                                                                                                      ",
"                                                                                                                                                                                                                                                                                                                                                        CXv t $.f.4.4.4.4.,.,.<.4.7.2.2.2.2.2.2.1.1.1.1.1.1.1.1.1.1.1.1.1.1.1.1.1.1.1.1.1.1.1.1.1.1.1.1.1.1.1.1.1.;.1.1.1.1.;.;.;.1.1.1.1.1.1.1.1.1.1.2.1.2.2.2.7.2.2.2.7.7.7.2.1.1.2.2.7.2.7.7.9.9.9.9.7.j.x.` r 5X                                                                                                                                                                                                                                                                                                                                                                                                                                                      ",
"                                                                                                                                                                                                                                                                                                                                                        yXy i p.k.9.7.9.7.,.,.,.4.4.2.2.2.2.2.2.2.1.1.1.1.1.1.1.1.1.1.1.1.1.1.1.1.1.1.1.1.1.1.1.1.1.1.1.;.;.1.1.1.1.1.1.1.;.;.;.1.1.2.3.2.2.1.=.1.1.1.1.1.2.,.,.2.2.2.2.7.7.7.2.2.2.2.2.2.2.7.7.9.9.9.9.9.9.g.#.r [ IX                                                                                                                                                                                                                                                                                                                                                                                                                                                    ",
"                                                                                                                                                                                                                                                                                                                                                        qXe l c.k.0.9.9.7.2.,.,.,.4.7.2.2.2.2.2.2.2.1.1.1.1.1.1.>.1.1.1.1.1.2.2.1.1.1.1.1.1.1.1.=.=.1.1.;.;.;.1.;.;.1.1.1.;.;.;.1.1.2.2.2.2.1.>.1.2.2.2.2.2.2.,.,.2.2.2.2.7.7.2.2.2.2.2.2.7.7.7.7.9.9.9.9.4.5.$.u j yX                                                                                                                                                                                                                                                                                                                                                                                                                                                    ",
"                                                                                                                                                                                                                                                                                                                                                        6Xe l c.k.0.9.7.7.7.2.,.,.,.,.2.2.2.2.2.1.1.1.1.1.1.1.1.,.>.1.1.1.1.2.2.1.1.1.1.1.1.1.1.=.1.1.1.;.;.;.;.=.;.1.;.;.;.;.1.1.2.1.:.:.>.1.1.1.2.2.2.2.2.7.7.2.2.2.2.2.2.2.2.2.1.2.2.2.7.7.7.7.7.9.9.9.9.0.p.~ 0 v 0X                                                                                                                                                                                                                                                                                                                                                                                                                                                  ",
"                                                                                                                                                                                                                                                                                                                                                        F.9 Q c.j.9.9.7.7.7.2.2.2.7.2.1.>.1.2.>.2.1.1.1.1.>.>.>.2.>.>.1.1.1.2.1.1.1.1.>.>.1.2.1.2.2.1.1.1.;.;.;.1.;.=.=.1.1.1.1.1.2.1.>.>.>.2.2.2.2.2.2.2.,.2.2.2.2.1.1.1.>.2.2.2.2.2.2.2.2.7.,.7.2.7.4.9.9.9.j.%.~ 0 g 0X                                                                                                                                                                                                                                                                                                                                                                                                                                                ",
"                                                                                                                                                                                                                                                                                                                                                        | 9 / z.j.9.9.7.7.7.7.7.7.2.1.>.>.1.2.,.2.1.1.1.1.>.1.2.2.>.>.2.1.1.2.1.;.;.1.1.1.2.2.2.2.2.1.1.1.;.;.1.;.;.;.;.1.1.1.2.1.2.1.>.>.:.1.2.2.1.2.2.>.>.2.2.2.2.1.1.1.1.2.2.2.2.7.7.2.2.7.,.7.2.2.7.9.9.7.9.f.a.` t g qX                                                                                                                                                                                                                                                                                                                                                                                                                                              ",
"                                                                                                                                                                                                                                                                                                                                                        | e / x.9.7.9.4.7.7.7.7.7.2.>.>.>.2.2.2.2.2.1.1.1.1.2.2.2.,.2.2.1.1.1.1.;.=.;.1.1.2.2.2.2.2.1.1.;.;.1.1.>.>.1.>.>.>.1.1.1.1.1.1.1.>.-.1.1.>.>.,.1.>.1.2.,.,.2.2.2.2.2.>.7.7.7.7.7.7.7.2.7.2.2.2.9.7.9.9.4.j.h.' r K BX                                                                                                                                                                                                                                                                                                                                                                                                                                            ",
"                                                                                                                                                                                                                                                                                                                                                        | e ^ k.9.9.4.4.9.7.7.7.7.2.>.>.1.2.2.2.2.2.2.2.1.1.2.2.>.,.2.1.;.;.1.1.;.;.;.=.1.1.2.1.2.2.2.1.;.;.1.>.>.,.>.-.>.>.>.1.1.2.1.1.1.1.=.1.1.1.>.>.1.1.2.2.,.,.2.2.2.7.2.2.7.7.7.7.7.7.7.7.7.2.2.2.9.9.9.9.7.0.k.c.^ y 5X                                                                                                                                                                                                                                                                                                                                                                                                                                            ",
"                                                                                                                                                                                                                                                                                                                                                        | e ( g.9.7.9.9.7.9.7.2.2.2.1.>.1.>.1.2.1.2.2.2.1.1.2.2.>.>.2.2.;.;.1.1.1.1.1.1.1.1.1.1.1.2.2.2.1.1.1.1.1.>.>.=.-.1.1.1.>.1.1.>.1.1.;.;.1.2.2.1.2.2.2.2.7.2.2.2.2.2.2.2.7.7.7.2.7.,.,.7.7.7.7.7.7.7.0.9.9.9.0.z.u.s L CX                                                                                                                                                                                                                                                                                                                                                                                                                                          ",
"                                                                                                                                                                                                                                                                                                                                                        | e ( k.9.7.7.7.7.4.,.,.2.2.1.1.2.1.1.2.1.2.2.2.1.1.1.>.1.1.2.1.1.;.;.1.1.1.2.2.2.1.1.2.1.2.2.2.1.1.1.1.1.1.1.=.1.1.>.>.1.2.1.2.1.1.;.;.1.2.1.1.>.>.>.>.,.,.2.2.>.2.7.7.7.7.7.2.,.,.,.,.4.4.2.2.2.9.9.5.5.9.9.k.a.! j qX                                                                                                                                                                                                                                                                                                                                                                                                                                          ",
"                                                                                                                                                                                                                                                                                                                                                        | e ^ x.9.9.7.2.2.,.,.,.,.2.2.1.2.2.1.1.2.2.2.1.>.>.1.1.>.2.2.1.1.1.1.1.2.2.2.3.2.1.2.2.1.1.1.1.1.1.1.1.2.1.1.1.1.1.>.>.2.2.2.2.1.1.;.;.1.2.1.1.>.>.>.>.2.7.2.2.>.2.7.9.0.7.8.7.7.2.2.2.7.7.7.7.,.7.9.4.5.5.9.f.z.` y qX                                                                                                                                                                                                                                                                                                                                                                                                                                          ",
"                                                                                                                                                                                                                                                                                                                                                        | 9 ^ x.j.7.2.,.2.2.,.,.<.2.2.2.2.2.2.>.,.2.2.>.>.>.>.>.>.1.2.1.2.1.1.2.7.7.2.2.1.1.1.1.1.1.1.1.>.>.1.1.2.2.2.1.1.;.>.1.2.2.2.>.2.1.1.1.1.2.2.2.>.>.1.2.2.7.2.,.2.7.7.7.7.2.2.7.7.7.2.7.7.9.7.7.4.7.9.4.5.5.9.j.z.` y 6X                                                                                                                                                                                                                                                                                                                                                                                                                                          ",
"                                                                                                                                                                                                                                                                                                                                                        5Xe / x.j.9.7.7.7.7.7.7.2.>.>.>.2.1.>.1.2.2.1.1.1.1.>.>.-.>.2.2.2.>.1.>.2.>.>.2.>.1.1.>.2.1.2.2.2.2.1.1.2.2.2.1.1.1.1.1.>.2.2.>.2.2.>.:.>.2.,.,.2.2.2.2.2.,.>.,.7.7.7.7.7.2.7.7.7.2.7.7.7.7.7.9.9.9.9.9.j.j.j.g.x._ y qX                                                                                                                                                                                                                                                                                                                                                                                                                                          ",
"                                                                                                                                                                                                                                                                                                                                                        5X9 Q z.j.9.9.9.7.7.7.7.7.2.2.2.2.1.1.1.2.2.1.1.1.1.1.1.=.1.1.2.2.>.>.2.1.1.1.1.1.1.1.1.2.1.2.2.2.2.1.1.2.2.1.1.1.1.1.1.2.2.2.,.,.2.2.>.,.,.<.,.7.7.2.2.,.,.,.2.2.7.7.2.2.7.7.7.7.4.9.9.j.j.k.k.h.c.p.p.p.p.c.v.d.z j MX                                                                                                                                                                                                                                                                                                                                                                                                                                          ",
"                                                                                                                                                                                                                                                                                                                                                        7Xe l a.j.7.9.4.4.7.2.2.7.7.2.2.2.2.2.1.1.1.1.1.2.1.1.1.1.1.1.1.1.1.2.2.1.1.1.1.1.1.2.2.2.2.1.2.2.1.1.2.2.2.1.1.2.2.2.2.2.2.2.,.,.,.,.2.,.,.:.,.8.7.2.2.2.2.2.2.7.7.9.7.2.7.7.7.4.0.j.g.c.u.O.^ l l i i t i l ! z % H VX                                                                                                                                                                                                                                                                                                                                                                                                                                          ",
"                                                                                                                                                                                                                                                                                                                                                        6Xe r i.j.7.7.4.4.,.2.2.,.7.2.2.2.2.,.1.1.1.2.2.2.1.1.1.3.1.1.1.1.2.8.2.1.1.2.1.1.1.2.2.2.2.2.2.1.>.1.2.2.2.>.1.2.2.2.2.4.6.4.6.5.9.9.4.9.,.<.7.7.7.2.2.,.2.7.7.7.7.9.7.2.9.9.j.k.h.p.+.l r 9 e t a b b b b y e & % k | VX                                                                                                                                                                                                                                                                                                                                                                                                                                        ",
"                                                                                                                                                                                                                                                                                                                                                        pXy 9 @.k.9.9.4.,.,.,.,.:.<.,.2.7.7.2.2.2.1.2.2.1.1.1.1.1.1.1.3.1.1.2.7.1.2.2.2.2.>.1.2.2.2.2.2.2.2.2.2.,.2.,.:.2.7.0.9.k.f.h.h.h.h.g.k.j.5.,.,.,.2.7.7.2.7.7.<.7.7.7.7.7.7.j.x.a./ r e t ) r.pXvXSXAXAXSXSXvXcX7X{ h h L 7X                                                                                                                                                                                                                                                                                                                                                                                                                                      ",
"                                                                                                                                                                                                                                                                                                                                                        iXa 9 O.g.5.9.9.,.,.,.>.:.>.>.1.2.2.2.2.1.1.1.1.1.1.1.2.1.1.1.1.1.1.2.2.2.2.2.2.2.2.1.2.2.7.2.2.2.2.2.,.2.4.9.9.j.q.&.#.( / Q Q Q Q / ( +.%.&.f.5.0.9.9.2.2.9.4.,.,.2.7.9.k.p.O.u % b r.vXAXGXHXHXHXHXHXHXHXHXGXGXGXcXr.x g } MX                                                                                                                                                                                                                                                                                                                                                                                                                                  ",
"                                                                                                                                                                                                                                                                                                                                                        CXv 9 ' g.9.9.7.7.2.2.2.>.>.1.2.2.2.2.2.2.1.;.;.;.>.>.2.1.1.1.1.1.1.>.2.1.2.2.2.2.2.2.2.7.7.2.2.2.2.2.2.9.j.h.p.' Q i r e t t t t i t e r r l ( #.h.k.j.9.,.4.9.<.,.7.9.k.p.Q 9 t r.AXHXHXKXHXHXKXHXKXKXHXHXHXHXHXHXHXGXvX .g H qX                                                                                                                                                                                                                                                                                                                                                                                                                                ",
"                                                                                                                                                                                                                                                                                                                                                        ZXL & _ z.9.9.7.7.2.2.2.,.>.2.2.2.2.2.2.2.1.1.;.>.2.3.2.1.1.2.2.>.>.>.>.1.2.2.2.2.7.7.2.2.7.2.2.8.7.9.j.q.%./ t e i ) t.tXbXvXvXvXvXvXbX8XX.v t i Q #.h.k.5.6.4.,.9.j.x.$.l 9 v vXGXHXHXKXKXHXKXKXKXKXKXKXKXKXKXKXKXKXHXHXGX8Xx F 0X                                                                                                                                                                                                                                                                                                                                                                                                                              ",
"                                                                                                                                                                                                                                                                                                                                                           .9 z c.j.9.7.7.7.2.2.7.2.2.2.7.7.7.7.3.2.1.1.1.1.1.1.1.2.2.2.2.1.1.,.2.2.2.2.2.2.2.2.2.2.2.7.9.9.g.%.Q r r v r.vXFXHXHXHXGXGXHXHXHXHXHXGXAXcXw.i e Q $.x.k.0.0.0.k.$.i e t.AXHXHXHXKXKXKXKXKXKXKXKXKXKXKXKXKXKXKXKXKXHXKXHXcXJ x qX                                                                                                                                                                                                                                                                                                                                                                                                                            ",
"                                                                                                                                                                                                                                                                                                                                                          7Xk i p.l.7.7.7.7.7.2.2.2.2.,.7.7.7.2.2.1.1.1.1.1.1.1.1.2.2.2.2.2.2.2.2.2.2.2.2.2.2.2.>.1.2.7.j.h.+.i 9 ) tXAXGXHXHXHXKXKXKXKXKXKXKXKXHXLXHXGXGXvXX.t r ( z.k.5.k.p.l e rXGXHXHXKXKXKXKXKXKXKXKXKXKXKXKXKXKXKXKXKXKXKXKXKXKXHXcXL J yX                                                                                                                                                                                                                                                                                                                                                                                                                          ",
"                                                                                                                                                                                                                                                                                                                                                          pXh e $.l.7.,.2.7.7.2.2.2.>.>.,.7.7.2.>.>.1.1.1.2.1.1.2.2.2.2.7.2.2.7.2.2.2.2.2.2.2.2.>.2.,.j.z.( r i tXAXHXHXHXHXHXKXKXKXKXKXKXKXKXKXHXHXHXHXHXHXGXtXz e ^ c.x.p.Q e 7XGXHXHXKXKXKXKXKXKXKXKXKXKXKXKXKXKXKXKXKXKXKXKXKXKXHXHXHXuXx P VX                                                                                                                                                                                                                                                                                                                                                                                                                        ",
"                                                                                                                                                                                                                                                                                                                                                          CXH 9 +.f.4.,.7.7.7.7.2.2.>.>.,.7.2.1.1.1.1.1.1.2.2.1.2.2.2.2.7.2.7.7.2.2.2.2.2.2.2.2.1.7.j.p.Q e ) vXHXHXHXKXKXKXKXKXKXKXKXKXKXKXKXKXKXKXHXHXKXHXHXGXvX{ 9 ! i.^ & r.GXHXHXKXKXKXKXKXKXKXKXKXKXKXKXKXKXKXKXKXKXKXKXKXKXKXKXHXHXHX8Xx 4X                                                                                                                                                                                                                                                                                                                                                                                                                        ",
"                                                                                                                                                                                                                                                                                                                                                            | 9 / c.9.7.8.7.9.,.7.2.,.,.2.2.1.>.2.1.1.1.1.2.1.1.1.1.1.2.2.2.2.2.2.2.,.7.2.2.2.2.7.9.a.Q 9 X.AXHXHXKXKXKXKXKXKXKXKXKXKXKXKXKXKXKXKXKXKXKXKXKXKXHXHXAX{ e a & v AXHXKXKXKXKXKXKXKXKXKXKXKXKXKXKXKXKXKXKXKXKXKXKXKXKXKXKXKXKXKXFX} H pX                                                                                                                                                                                                                                                                                                                                                                                                                      ",
"                                                                                                                                                                                                                                                                                                                                                            6Xy i p.k.9.7.7.9.,.,.,.,.2.2.2.>.>.>.>.1.1.1.2.1.1.1.>.1.2.2.2.2.2.2.2.2.7.7.7.2.7.9.k.( e { AXHXKXKXKXKXKXKXKXKXKXKXKXKXKXKXKXKXKXKXKXKXKXKXKXKXKXHXHXAX{ $ - cXHXKXKXKXKXKXKXKXKXKXKXKXKXKXKXKXKXKXKXKXKXKXKXKXKXKXKXKXKXKXHXHXcXx  .                                                                                                                                                                                                                                                                                                                                                                                                                      ",
"                                                                                                                                                                                                                                                                                                                                                            CXv e O.j.2.7.7.7.2.2.,.,.7.2.2.>.>.,.2.1.1.2.2.1.1.1.1.1.2.2.2.2.2.2.1.2.7.2.2.2.9.k.+.e ) AXHXHXKXKXKXKXKXKXKXKXKXKXKXKXKXKXKXKXKXKXKXKXKXKXKXKXKXKXKXHXZXv y BXKXKXKXKXKXKXKXKXKXKXKXKXKXKXKXKXKXKXKXKXKXKXKXKXKXKXKXKXKXKXKXHXGXe.H MX                                                                                                                                                                                                                                                                                                                                                                                                                    ",
"                                                                                                                                                                                                                                                                                                                                                              [ 9 ^ g.8.2.2.2.2.,.,.2.7.2.2.>.,.,.,.1.1.2.2.1.1.1.1.1.1.2.1.1.1.1.2.2.8.2.7.9.j.i.t b ZXHXHXKXHXKXKXKXKXKXKXKXKXKXKXKXKXKXKXKXKXKXKXKXKXKXKXKXKXKXHXHXHXcXg P LXKXKXKXKXKXKXKXKXKXKXKXKXKXKXKXKXKXKXKXKXKXKXKXKXKXKXKXKXHXKXKXKXcXx 4X                                                                                                                                                                                                                                                                                                                                                                                                                    ",
"                                                                                                                                                                                                                                                                                                                                                              ..q i p.l.9.7.2.,.,.2.7.8.2.2.2.2.2.2.2.2.2.2.2.2.1.1.1.3.2.1.1.1.2.7.7.7.2.7.j.h.l t cXGXHXHXKXKXKXKXKXKXKXKXKXKXKXKXKXKXKXKXKXKXKXKXKXKXKXKXKXKXKXKXKXHXGX7X- qXHXKXKXKXKXKXKXKXKXKXKXKXKXKXKXKXKXKXKXKXKXKXKXKXKXKXKXKXKXKXKXKXFXP P                                                                                                                                                                                                                                                                                                                                                                                                                     ",
"                                                                                                                                                                                                                                                                                                                                                              yXh r #.j.9.7.2.2.2.2.7.7.2.2.2.1.2.2.2.2.2.2.1.2.2.1.1.2.2.2.1.2.2.7.7.7.7.9.x.O.e r.GXKXKXKXKXKXKXKXKXKXKXKXKXKXKXKXKXKXKXKXKXKXKXKXKXKXKXKXKXKXKXKXKXHXHXAXJ J DXKXHXKXKXKXKXKXKXKXKXKXKXKXKXKXKXKXKXKXKXKXKXKXKXKXKXKXKXKXKXKXHX7XH iX                                                                                                                                                                                                                                                                                                                                                                                                                  ",
"                                                                                                                                                                                                                                                                                                                                                              CXL 9 ^ h.9.7.7.,.7.2.2.2.2.2.2.1.2.2.2.2.2.2.1.1.2.2.2.2.2.3.3.3.2.2.7.7.8.l.a.l z SXHXKXKXKXKXKXKXKXKXKXKXKXKXKXKXKXKXKXKXKXKXKXKXKXKXKXKXKXKXKXKXKXKXHXKXHXpXd eXKXKXKXKXKXKXKXKXKXKXKXKXKXKXKXKXKXKXKXKXKXKXKXKXKXKXKXKXKXKXKXHXBXH 6X                                                                                                                                                                                                                                                                                                                                                                                                                  ",
"                                                                                                                                                                                                                                                                                                                                                                | 9 l c.j.7.7.,.7.2.2.2.7.2.2.1.2.2.2.2.2.2.>.1.2.2.2.1.2.2.2.2.2.2.2.7.8.j.O.t r.GXHXKXKXKXKXKXKXKXKXKXKXKXKXKXKXKXKXKXKXKXKXKXKXKXKXKXKXKXKXKXKXKXHXKXKXKXAXP J DXKXKXKXKXKXKXKXKXKXKXKXKXKXKXKXKXKXKXKXKXKXKXKXKXKXKXKXKXKXKXKXSXL 5X                                                                                                                                                                                                                                                                                                                                                                                                                  ",
"                                                                                                                                                                                                                                                                                                                                                                rXy 9 @.j.7.2.2.2.2.2.2.7.7.2.2.1.1.2.2.2.2.2.2.2.,.1.1.1.2.2.2.3.8.8.7.7.q.Q z SXHXKXKXKXKXKXKXKXKXKXKXKXKXKXKXKXKXKXKXKXKXKXKXKXKXKXKXKXKXKXKXKXKXKXKXKXKXHX8Xd wXKXKXKXKXKXKXKXKXKXKXKXKXKXKXKXKXKXKXKXKXKXKXKXKXKXKXKXKXKXKXKXGX}  .                                                                                                                                                                                                                                                                                                                                                                                                                  ",
"                                                                                                                                                                                                                                                                                                                                                                CXv 9 ` g.2.7.2.2.2.7.7.7.7.7.2.1.1.2.2.2.2.2.2.2.>.1.1.8.2.2.1.2.7.7.4.0.%.r e.HXKXKXKXKXKXKXKXKXKXKXKXKXKXKXKXKXKXKXKXKXKXKXKXKXKXKXKXKXKXKXKXKXKXKXKXKXKXHXSXx  .HXHXKXKXKXKXKXKXKXKXKXKXKXKXKXKXKXKXKXKXKXKXKXKXKXKXKXKXKXKXKXHX .}                                                                                                                                                                                                                                                                                                                                                                                                                   ",
"                                                                                                                                                                                                                                                                                                                                                                  ..9 z p.9.7.7.2.2.7.7.7.7.7.2.2.1.2.2.2.1.1.2.1.1.2.2.7.2.2.2.:.,.7.7.j.+.e pXHXKXKXKXKXKXKXKXKXKXKXKXKXKXKXKXKXKXKXKXKXKXKXKXKXKXKXKXKXKXKXKXKXKXKXKXKXKXKXHX| J DXKXKXKXKXKXKXKXKXKXKXKXKXKXKXKXKXKXKXKXKXKXKXKXKXKXKXKXKXKXKXHX| }                                                                                                                                                                                                                                                                                                                                                                                                                   ",
"                                                                                                                                                                                                                                                                                                                                                                  6Xy r $.k.9.7.2.2.7.7.7.7.7.2.2.2.2.2.2.1.>.2.2.2.2.2.2.2.2.,.:.,.7.9.f.Q z SXKXKXKXKXKXKXKXKXKXKXKXKXKXKXKXKXKXKXKXKXKXKXKXKXKXKXKXKXKXKXKXKXKXKXKXKXKXKXKXHX8Xd BXKXKXKXKXKXKXKXKXKXKXKXKXKXKXKXKXKXKXKXKXKXKXKXKXKXKXKXKXKXKXHX| }                                                                                                                                                                                                                                                                                                                                                                                                                   ",
"                                                                                                                                                                                                                                                                                                                                                                  vXH 9 ^ z.j.,.2.2.7.7.9.9.7.2.2.2.,.2.2.>.>.2.2.2.2.2.2.2.2.2.,.2.7.j.a.l v GXKXKXKXKXKXKXKXKXKXKXKXKXKXKXKXKXKXKXKXKXKXKXKXKXKXKXKXKXKXKXKXKXKXKXKXKXKXKXKXKXcXf qXKXKXKXKXKXKXKXKXKXKXKXKXKXKXKXKXKXKXKXKXKXKXKXKXKXKXKXKXKXKXLX} }                                                                                                                                                                                                                                                                                                                                                                                                                   ",
"                                                                                                                                                                                                                                                                                                                                                                     .9 i i.j.7.7.7.7.7.7.7.7.2.7.7.2.7.2.2.2.2.2.,.1.2.2.2.2.,.2.2.2.j.p.i  .HXKXKXKXKXKXKXKXKXKXKXKXKXKXKXKXKXKXKXKXKXKXKXKXKXKXKXKXKXKXKXKXKXKXKXKXKXKXKXKXKXSXH 4XKXKXKXKXKXKXKXKXKXKXKXKXKXKXKXKXKXKXKXKXKXKXKXKXKXKXKXKXKXHXGX} }                                                                                                                                                                                                                                                                                                                                                                                                                   ",
"                                                                                                                                                                                                                                                                                                                                                                    rXy 9 O.k.7.7.7.7.7.7.7.2.2.7.7.2.2.2.7.2.2.2.2.2.2.2.2.2.,.7.2.2.j.u.u r.HXKXKXKXKXKXKXKXKXKXKXKXKXKXKXKXKXKXKXKXKXKXKXKXKXKXKXKXKXKXKXKXKXKXKXKXKXKXKXKXHXFXJ  .HXKXKXKXKXKXKXKXKXKXKXKXKXKXKXKXKXKXKXKXKXKXKXKXKXKXKXKXKXKXSXL |                                                                                                                                                                                                                                                                                                                                                                                                                   ",
"                                                                                                                                                                                                                                                                                                                                                                    ZX[ & ! h.4.,.,.,.,.2.2.,.,.2.2.2.1.2.2.2.2.2.7.2.2.7.7.2.2.2.2.2.j.$.r 8XHXKXKXKXKXKXKXKXKXKXKXKXKXKXKXKXKXKXKXKXKXKXKXKXKXKXKXKXKXKXKXKXKXKXKXKXKXKXKXKXHXGXP P LXKXKXKXKXKXKXKXKXKXKXKXKXKXKXKXKXKXKXKXKXKXKXKXKXKXKXKXKXKXBXH 5X                                                                                                                                                                                                                                                                                                                                                                                                                  ",
"                                                                                                                                                                                                                                                                                                                                                                      5Xy i $.5.4.7.2.2.2.2.2.2.2.2.>.1.2.2.2.>.2.7.7.7.7.2.2.2.2.2.8.j.#.r tXHXKXKXKXKXKXKXHXKXKXKXKXKXKXKXKXKXKXKXKXKXKXKXKXKXKXKXKXKXKXKXKXKXKXKXKXKXKXKXHXHXHX .J LXKXKXKXKXKXKXHXKXKXHXKXKXKXKXKXKXKXKXKXKXKXKXKXKXKXKXKXKXKXqXH yX                                                                                                                                                                                                                                                                                                                                                                                                                  ",
"                                                                                                                                                                                                                                                                                                                                                                      iXv 9 O.g.9.7.,.2.2.2.2.2.2.2.1.1.1.2.1.2.2.2.2.,.,.,.2.2.2.7.7.j.#.r 8XHXKXKXKXKXKXKXKXKXHXHXKXKXKXKXKXKXKXKXKXKXKXKXKXKXKXKXKXKXKXKXKXKXKXKXKXKXKXKXKXKXHXU J LXKXKXKXKXKXKXKXDX4XI 4XIXKXKXKXKXKXKXKXKXKXKXKXKXKXKXKXKXHX .L BX                                                                                                                                                                                                                                                                                                                                                                                                                  ",
"                                                                                                                                                                                                                                                                                                                                                                         .9 / z.j.7.2.2.2.7.7.2.2.2.1.>.1.,.,.2.2.2.>.>.,.,.>.2.7.7.8.j.#.r 8XHXKXKXKXKXHXKXKXKXKXKXKXKXKXKXKXKXKXKXKXKXKXKXKXKXKXKXKXKXKXKXKXKXKXKXKXKXKXKXKXKXHXP P HXKXKXKXKXKXKXLX .@ . @ U DXKXKXKXKXKXKXKXKXKXKXKXKXKXKXKXVXH  .                                                                                                                                                                                                                                                                                                                                                                                                                    ",
"                                                                                                                                                                                                                                                                                                                                                                        rXy l i.6.7.2.2.2.7.7.2.,.2.2.2.2.,.>.>.2.2.1.>.>.>.>.>.7.7.8.j.$.r r.HXKXKXKXKXKXKXPXVXIXKXKXKXKXKXKXKXKXKXKXKXKXKXKXKXKXKXKXKXKXKXKXKXKXKXKXKXKXKXKXHXGXK U KXKXKXKXKXHXKXBXd O O o 6 VXKXJXKXKXKXKXKXKXKXKXKXKXKXKXKX7XH yX                                                                                                                                                                                                                                                                                                                                                                                                                    ",
"                                                                                                                                                                                                                                                                                                                                                                        CXL r O.k.9.7.7.7.7.2.2.2.2.8.8.3.2.2.2.,.1.1.1.2.>.>.2.7.8.8.j.p.i r.HXKXKXKXHXHXuXF 6 f 4XDXHXKXKXKXKXKXKXKXKXKXKXKXKXKXKXKXKXKXKXKXKXKXKXKXKXKXKXKXHXAXx 4XKXKXKXKXHXKXKXiX- O o . 6 VXJXJXKXKXKXKXKXKXKXKXKXKXHXKXIXJ }                                                                                                                                                                                                                                                                                                                                                                                                                       ",
"                                                                                                                                                                                                                                                                                                                                                                          ..e z z.9.7.7.7.7.2.2.2.2.8.8.3.2.2.2.2.1.>.1.1.>.2.2.2.2.2.5.a.l P HXKXKXKXHXSXc O o O = eXKXKXKXKXKXKXKXKXKXKXKXKXKXKXKXKXKXKXKXKXKXKXKXKXKXKXKXKXHXcXd qXKXKXKXKXKXHXHXAXL O . o U LXHXLXPXSXSXVXVXSXPXLXHXKXHXKX4XH qX                                                                                                                                                                                                                                                                                                                                                                                                                      ",
"                                                                                                                                                                                                                                                                                                                                                                          yXj i $.j.9.7.2.2.2.2.2.2.2.7.7.2.2.2.2.1.1.1.1.1.2.2.,.2.2.4.6./ a SXKXKXKXHXuX- O O o o U LXKXKXKXKXKXKXKXKXKXKXKXKXKXKXKXKXKXKXKXKXKXKXKXKXKXKXKXKX7X6 BXKXKXKXKXKXKXKXHX8X= o O F e. .P v j a y y h x  .wXDXKXuXx }                                                                                                                                                                                                                                                                                                                                                                                                                         ",
"                                                                                                                                                                                                                                                                                                                                                                            { e ` h.4.7.2.2.7.7.2.2.2.2.7.2.2.2.2.2.1.1.1.1.2.2.2.7.7.4.6.+.t yXHXKXKXKXuX- O O O O U GXKXKXKXKXKXKXKXKXKXKXKXKXKXKXKXKXKXKXKXKXKXKXKXKXKXKXKXHXP =  .wXpXpXqXqX6Xe.P c $ $ $ $ & e t i l l ! z z t e - P 7XF H iX                                                                                                                                                                                                                                                                                                                                                                                                                        ",
"                                                                                                                                                                                                                                                                                                                                                                            6Xe l p.5.7.7.,.7.8.7.2.2.,.7.2.,.2.2.2.1.1.2.2.2.2.2.2.2.,.9.$.r ..KXKXJXKXZXH $ $ $ - qXHXHXKXKXKXKXKXKXKXKXKXKXKXKXKXKXKXKXKXKXKXKXKXKXKXKXHXKXSXx $ & 9 9 e e 9 9 0 e r l ^ ( O.O.@.$.p.a.h.c.a.a.p.O.l % $ * 5X                                                                                                                                                                                                                                                                                                                                                                                                                          ",
"                                                                                                                                                                                                                                                                                                                                                                            iXj r y.k.9.9.5.h.k.4.4.7.,.7.2.2.2.2.2.1.1.7.7.2.2.2.2.2.2.9.g.l z SXKXKXHXGXiX{ g v 7XGXHXKXKXKXKXKXKXKXKXKXKXKXKXKXKXKXKXKXKXKXKXKXKXKXKXKXKXKX8Xe z _ _ ^ ^ ` ' ' #.$.u.a.x.g.g.g.f.k.j.j.j.0.j.k.k.x.a.` 9 k qX                                                                                                                                                                                                                                                                                                                                                                                                                          ",
"                                                                                                                                                                                                                                                                                                                                                                              ..e ^ h.9.j.&.Q Q %.j.9.7.2.2.2.,.2.1.1.1.2.2.2.2.2.7.7.7.7.k.O.r r.KXKXKXHXHXFXZXSXGXKXHXHXHXKXKXKXKXKXKXKXKXKXKXKXKXKXKXKXKXKXKXKXKXKXKXKXKXFXv l p.x.z.g.g.x.x.x.k.k.k.j.k.k.k.j.5.9.9.0.0.l.l.j.j.k.x.a.^ y 5X                                                                                                                                                                                                                                                                                                                                                                                                                          ",
"                                                                                                                                                                                                                                                                                                                                                                              pXh i $.j.k.+.8 % Q h.j.7.2.2.2.,.2.2.2.2.2.2.2.2.7.7.7.7.7.j.a.l b ZXKXHXKXHXHXHXHXKXKXHXHXKXKXKXKXKXKXKXKXKXKXKXKXKXKXKXKXKXKXKXKXKXKXKXKXKX8Xe O.x.j.9.0.0.j.0.0.9.7.7.9.9.0.0.9.9.4.0.j.j.0.9.5.0.j.f.x.y.a [ ZX                                                                                                                                                                                                                                                                                                                                                                                                                        ",
"                                                                                                                                                                                                                                                                                                                                                                                { 9 ` x.x./ 9 8 0 ( f.9.7.7.2.,.2.2.2.2.2.>.2.7.7.7.7.2.8.9.f.#.r e.HXLXHXKXKXKXKXKXKXKXKXKXKXKXKXKXKXKXKXKXKXKXKXKXKXKXKXKXKXKXKXKXKXJXKXZXb l z.j.9.9.9.9.9.0.4.4.9.9.7.9.7.4.7.9.7.9.0.9.9.0.j.0.0.j.k.z._ j pX                                                                                                                                                                                                                                                                                                                                                                                                                        ",
"                                                                                                                                                                                                                                                                                                                                                                                6Xy l a.z.Q 9 _ i r #.j.9.7.7.,.2.2.2.2.>.:.,.2.7.2.2.2.7.9.4.g.Q t uXHXHXHXKXKXKXKXKXKXKXKXKXKXKXKXKXKXKXKXKXKXKXKXKXKXKXKXKXKXKXKXKXKXLX .t u.x.9.9.9.9.7.7.9.9.9.9.7.7.7.7.9.9.9.9.9.9.9.9.9.9.9.9.9.j.x.' y 7X                                                                                                                                                                                                                                                                                                                                                                                                                        ",
"                                                                                                                                                                                                                                                                                                                                                                                ZXL e w.v.Q t d.@.u l a.j.7.2.2.2.2.2.2.>.:.,.2.2.2.2.7.0.7.4.j.$.i v SXLXHXKXKXKXKXKXKXKXKXKXKXKXKXKXKXKXKXKXKXKXKXKXKXKXKXKXKXKXKXKXHX6Xr ` x.j.0.0.9.9.7.7.7.9.9.7.7.9.7.9.9.9.9.9.9.9.9.9.9.9.9.9.9.9.x.O.u 5X                                                                                                                                                                                                                                                                                                                                                                                                                        ",
"                                                                                                                                                                                                                                                                                                                                                                    uX            r.e ) d.l i a.z.( 0 ( f.4.2.2.2.2.2.2.2.>.2.2.2.7.7.8.7.9.9.0.f.+.r { GXHXKXKXKXKXKXKXKXKXKXKXKXKXKXKXKXKXKXKXKXKXKXKXKXKXKXKXHXKXHXpXt ! c.j.0.9.9.7.9.7.7.7.0.0.7.7.0.9.9.9.9.9.9.7.9.7.7.9.9.9.9.9.j.x.O.i r.                                                                                                                                                                                                                                                                                                                                                                                                                        ",
"                                                                                                                                                                                                                                                                                                                                                                  } K pX          iXj r w.l l a.k.&.~ u #.j.4.>.2.2.2.2.7.7.2.2.2.7.7.7.7.7.7.7.9.h.^ r e.FXKXKXKXKXKXKXKXKXKXKXKXKXKXKXKXKXKXKXKXKXKXKXKXKXKXHXKXKXiXa l $.f.9.9.9.9.9.7.7.9.7.7.7.7.7.9.9.9.9.7.7.7.7.7.7.7.0.l.j.0.j.j.x.' a 5X                                                                                                                                                                                                                                                                                                                                                                                                                        ",
"                                                                                                                                                                                                                                                                                                                                                                BXH d I BX          } 9 v t i p.9.f.$.p l &.9.>.2.2.2.2.,.2.2.2.2.2.2.2.2.2.7.7.7.9.a.( r { AXKXKXKXKXKXKXHXKXKXKXKXKXKXKXKXKXKXKXKXKXKXKXKXKXKXLXyXa l @.g.5.7.9.9.7.9.9.9.9.9.7.7.7.7.9.9.9.9.7.7.7.7.2.2.7.9.9.0.j.j.k.x.` y 6X                                                                                                                                                                                                                                                                                                                                                                                                                        ",
"                                                                                                                                                                                                                                                                                                                                                                iXg * k F.          7Xy e & i p.j.4.5.+.r Q q.2.2.2.2.2.,.,.2.2.2.2.2.2.2.2.2.2.2.9.l.h.( r v CXKXKXHXKXKXKXKXKXKXKXKXKXKXKXKXKXKXKXHXKXKXKXKXFXr.y l $.j.9.7.7.0.7.7.9.7.7.7.7.7.7.7.7.7.7.7.7.7.2.7.7.2.9.7.9.9.9.j.j.k.p.z v iX                                                                                                                                                                                                                                                                                                                                                                                                                        ",
"                                                                                                                                                                                                                                                                                                                                                                iXg k h g yX        vXH & $ i p.5.9.9.&.Q u *.9.4.2.2.2.2.,.>.>.2.2.2.2.2.2.2.2.3.2.0.j.h.O.r y 8XFXKXKXKXKXKXKXKXKXKXKXKXKXKXKXKXKXKXKXKXLXCXP e ! p.k.9.7.7.9.9.7.7.9.7.7.7.7.7.7.7.7.7.7.7.7.2.2.7.7.9.9.0.9.4.9.j.k.c.` r  .                                                                                                                                                                                                                                                                                                                                                                                                                          ",
"                                                                                                                                                                                                                                                                                                                                                                aXg K 5Xg K BX        | * $ l a.j.7.7.5.*.p l &.9.>.1.2.:.,.1.>.1.2.2.2.2.2.2.7.8.7.7.7.9.g.#.l r L tXFXKXKXKXKXKXKXJXJXKXKXKXKXKXKXKXGXiX{ t i O.h.k.9.9.9.7.9.7.7.7.7.7.7.7.7.8.8.7.7.7.7.7.8.2.7.7.9.7.9.0.j.0.j.f.z.O.t v pX                                                                                                                                                                                                                                                                                                                                                                                                                          ",
"                                                                                                                                                                                                                                                                                                                                                                aXH | CX..g |         pXg % l h.j.7.2.,.6.+.u / f.7.2.2.2.2.2.1.2.2.2.2.2.2.2.7.7.7.7.7.7.9.j.p.O.l r v 7XcXFXGXHXHXKXKXHXKXKXHXFXZXtX{ r i ^ u.g.9.4.9.,.4.7.7.7.7.7.7.7.7.7.7.7.7.7.7.7.7.7.7.2.7.7.9.7.9.0.j.j.k.z.@.i j 7X                                                                                                                                                                                                                                                                                                                                                                                                                            ",
"                                                                                                                                                                                                                                                                                                                                                                CXK 5XFXCX} H yX      AX} & l c.j.7.2.2.7.6.~ p *.9.9.2.2.2.2.2.2.2.7.8.2.2.2.2.7.7.2.2.,.9.9.5.k.$.( l r i v ..r.8XpXiXiXyX7Xe.v z t l ( $.g.j.9.4.<.9.4.2.7.7.7.7.7.2.2.2.2.7.7.7.7.7.7.2.2.2.7.9.9.9.9.7.9.j.x.z.O.p a 5X                                                                                                                                                                                                                                                                                                                                                                                                                              ",
"                                                                                                                                                                                                                                                                                                                                                                  } 5XFX  yXH }         6Xe l a.j.7.2.2.8.9.$.p Q &.9.2.2.>.,.2.2.2.3.8.2.2.2.2.7.8.7.2.7.9.7.4.9.l.k.p.@.^ l i r r r t t r t i l / #.a.g.j.9.,.9.9.7.4.7.7.7.7.7.7.7.7.7.7.7.7.7.2.7.7.2.2.2.2.7.9.9.9.4.9.k.x.p.` i j r.                                                                                                                                                                                                                                                                                                                                                                                                                                ",
"                                                                                                                                                                                                                                                                                                                                                                  } 5X    AX5XH 5X      CXv r y.x.7.2.2.2.4.f.( u ' f.,.2.>.>.2.2.2.2.2.2.7.2.2.2.8.8.2.2.7.7.7.9.9.9.j.x.g.q.&.%.#.+.+.+.#.%.$.p.h.k.j.4.4.9.9.9.9.9.7.7.2.7.7.8.7.8.9.9.0.7.7.9.7.7.8.2.2.2.2.2.7.9.9.k.g.a.O.i 9 j 5X                                                                                                                                                                                                                                                                                                                                                                                                                                  ",
"                                                                                                                                                                                                                                                                                                                                                                  } 5X      CX} H uX    AX{ 9 _ g.9.2.,.2.7.9.&.l p %.9.,.1.1.2.2.2.2.2.7.7.2.2.2.8.8.2.7.7.2.2.7.7.7.7.9.9.7.7.9.5.9.j.j.5.5.j.9.9.7.,.2.2.9.9.9.9.9.9.4.,.7.4.9.9.0.j.j.j.j.9.9.9.9.0.j.j.j.j.j.f.h.p.#.( p % $ & | ZX                                                                                                                                                                                                                                                                                                                                                                                                                                  ",
"                                                                                                                                                                                                                                                                                                                                                                  } 5X        yXH } ZX  FX| & z p.l.7.2.2.7.7.j.( u / &.2.1.>.,.2.2.2.2.2.7.2.2.2.2.7.7.2.2.2.2.7.7.8.7.7.7.7.7.9.4.4.9.9.9.9.9.7.2.2.,.7.7.2.7.7.7.7.9.9.5.j.f.k.k.k.g.h.g.x.g.g.g.h.z.a.u.u.$.@.' ^ p r 8 % e & & F.IX                                                                                                                                                                                                                                                                                                                                                                                                                                  ",
"                                                                                                                                                                                                                                                                                                                                                                   .5X          ..H 6XPXFX| * e @.k.9.7.2.7.8.0.k.( u ( 4.1.>.2.2.2.2.1.2.7.2.2.3.3.2.7.2.2.7.7.2.2.2.2.7.7.2.2.8.4.7.0.7.7.7.7.2.2.2.2.7.9.9.j.k.h.&.%.+.+.+.( ( ( / / / / / / / Q Q l p r r r 0 8 8 0 r ) w.d.{ 9 g 0X                                                                                                                                                                                                                                                                                                                                                                                                                                  ",
"                                                                                                                                                                                                                                                                                                                                                                  | |           CX[ L iXFX .= $ / g.0.2.2.2.2.8.0.%.Q p %.7.,.1.7.3.2.1.1.2.3.2.2.1.2.2.2.8.3.2.2.2.2.7.2.2.2.2.2.7.7.7.7.7.8.8.2.,.2.7.9.j.a.#.` ~ u 0 9 9 8 % 8 8 8 9 9 9 9 0 9 9 9 0 0 r i i l Q ` w.s.dXzXxXs._ 9 H yX                                                                                                                                                                                                                                                                                                                                                                                                                                ",
"                                                                                                                                                                                                                                                                                                                                                                  | |             yXH } BXI O O i p.9.7.7.7.2.8.3.j.#.p ( ,.2.1.2.2.2.1.1.2.2.3.2.1.2.2.8.3.2.2.2.2.2.2.2.2.2.2.2.7.7.7.2.7.7.7.4.4.f.h.%.( l 0 8 8 r i z z ) ) _ _ _ X.X.X.X.X.X.w.w.w.d.d.d.s.s.v.v.lXlXjXjXhXfXsX[ y K MX                                                                                                                                                                                                                                                                                                                                                                                                                              ",
"                                                                                                                                                                                                                                                                                                                                                                  5X .              r.j J 6 O O & O.k.7.7.7.2.8.7.9.6.+.*.<.1.1.1.1.1.1.1.2.2.2.1.1.2.3.3.2.2.1.2.2.2.2.2.2.3.3.2.7.7.7.2.7.2.2.6.h.@.~ t % 9 i ! O.d.s.v.v.fXhXhXxXhXkXgXjXzXkXhXjXlXlXkXjXzXzXjXlXgXgXhXjXhXhXhXxXs.v y |                                                                                                                                                                                                                                                                                                                                                                                                                               ",
"                                                                                                                                                                                                                                                                                                                                                                  5X}               CX[ - = f L % z c.l.9.9.2.2.2.7.7.,.,.>.1.;.1.1.1.1.3.3.2.2.1.1.2.3.2.2.1.2.2.2.2.2.1.1.2.2.3.3.2.7.2.9.5.g.#.Q 0 % 9 z w.s.fXkXlXlXlXkXlXkXkXlXgXgXv.gXkXlXgXgXv.lXgXhXzXhXhXhXgXkXgXgXfXfXhXhXzXd.a h 7X                                                                                                                                                                                                                                                                                                                                                                                                                            ",
"                                                                                                                                                                                                                                                                                                                                                                  7X}                 pXH k } rXy e @.x.j.9.0.7.7.2.7.7.2.>.1.1.1.2.2.1.2.2.2.1.1.2.2.2.1.1.1.2.2.2.2.2.1.1.2.2.8.8.2.7.9.f.$.^ 0 % r ! y.v.fXhXlXhXgXkXlXkXkXkXhXhXgXgXgXgXgXv.gXgXgXgXlXhXhXkXhXhXgXgXgXv.gXgXhXzXzXxXw.y H MX                                                                                                                                                                                                                                                                                                                                                                                                                          ",
"                                                                                                                                                                                                                                                                                                                                                                  6XK CX                7X[ rXZX{ & l $.%.%.%.h.k.j.9.0.7.2.1.2.2.3.3.2.2.2.1.1.1.2.1.1.1.1.1.2.2.2.2.2.2.2.2.2.2.7.4.&.&.( u % r _ d.v.gXv.v.gXlXlXgXlXkXkXkXkXkXjXlXgXgXgXgXgXgXkXkXkXkXhXhXkXhXhXhXhXv.v.gXlXzXzXzXxXsX) y | ZX                                                                                                                                                                                                                                                                                                                                                                                                                        ",
"                                                                                                                                                                                                                                                                                                                                                                  yXK pX                  CXFXFX..% % r r u p Q ( $.5.9.2.1.2.2.1.3.3.2.2.2.1.1.1.1.1.1.1.1.1.2.2.2.2.2.2.2.7.7.2.9.h.#.Q 8 0 ! d.fXhXgXv.v.v.v.gXlXgXgXkXkXkXkXjXhXgXgXlXkXkXhXgXhXkXzXkXkXhXhXhXhXhXhXgXv.gXfXkXhXzXzXzXd.a h 6X                                                                                                                                                                                                                                                                                                                                                                                                                        ",
"                                                                                                                                                                                                                                                                                                                                                                  iXL qX                    PXpXj 9 u l ~ Q Q p u p *.9.2.>.1.2.2.2.2.2.2.1.1.1.1.1.1.1.1.1.2.2.2.2.2.2.2.2.2.4.9.&.+.u 8 i w.v.fXjXgXgXv.v.v.v.gXgXgXgXlXkXlXkXjXhXgXgXkXkXkXkXgXhXhXkXzXhXhXhXhXhXhXhXhXkXhXhXkXhXhXjXkXdXX.y H uX                                                                                                                                                                                                                                                                                                                                                                                                                      ",
"                                                                                                                                                                                                                                                                                                                                                                  CX} 7X                    yXv u ( %.q.f.5.&.%.( Q ( 4.2.1.2.2.3.3.3.8.3.2.1.2.2.2.2.1.1.2.2.3.8.2.2.8.2.2.8.j.a.^ 0 9 ^ s.v.v.gXgXgXgXgXgXgXgXgXgXlXlXjXhXgXgXhXkXlXgXkXjXlXlXkXkXkXkXhXhXhXhXhXhXhXhXhXzXzXhXhXhXhXkXkXzXbXv k  .                                                                                                                                                                                                                                                                                                                                                                                                                      ",
"                                                                                                                                                                                                                                                                                                                                                                    } e.                  iXv z @.h.0.2.2.2.7.9.f.6.<.7.2.2.1.2.2.2.2.2.1.1.2.2.2.2.2.1.2.2.2.2.2.2.2.2.3.7.5.&.~ 9 r X.v.kXv.gXgXgXgXgXgXgXgXgXgXgXgXgXlXgXgXgXgXhXlXgXjXjXjXjXkXzXkXkXkXgXhXhXhXhXhXhXhXzXzXjXhXhXhXhXhXzXhXt.y g pX                                                                                                                                                                                                                                                                                                                                                                                                                    ",
"                                                                                                                                                                                                                                                                                                                                                                    ..r.                  [ z @.g.9.7.7.7.8.7.7.9.0.2.>.2.2.2.2.2.2.2.1.1.1.1.2.2.2.2.1.2.2.1.1.2.2.2.2.2.j.u.Q 8 u y.fXfXgXlXgXgXgXhXhXzXkXgXgXgXgXgXgXgXgXgXv.v.gXlXlXlXlXjXjXlXkXkXkXkXlXlXkXhXhXhXhXhXjXzXhXfXzXzXhXhXzXzXxX{ e  .                                                                                                                                                                                                                                                                                                                                                                                                                    ",
"                                                                                                                                                                                                                                                                                                                                                                                        r.z @.x.j.4.j.k.h.k.k.j.4.7.2.>.2.2.2.3.2.8.2.1.1.1.1.2.2.2.2.1.2.2.2.2.2.2.2.7.5.&.l % l d.gXgXhXgXgXgXgXhXhXhXzXzXlXgXkXkXlXlXlXgXgXv.v.gXgXhXlXlXlXlXlXkXkXkXlXkXlXlXjXjXhXhXgXhXhXfXhXkXkXhXzXzXhXzXd.a g qX                                                                                                                                                                                                                                                                                                                                                                                                                  ",
"                                                                                                                                                                                                                                                                                                                                                                                      CXv _ c.j.f.g.a.O.! ^ ` $.f.9.,.2.2.2.2.2.7.8.2.1.1.1.2.2.2.1.1.1.1.>.>.2.2.7.7.5.p.l 8 l d.gXgXgXhXhXv.gXlXhXhXhXzXkXjXgXlXlXgXlXkXlXlXjXgXgXgXgXkXkXhXhXhXhXhXhXhXgXgXfXgXjXhXfXhXhXhXzXzXzXzXzXzXzXzXxXxXX.y }                                                                                                                                                                                                                                                                                                                                                                                                                   ",
"                                                                                                                                                                                                                                                                                                                                                                                      rXz y.x.9.g.#.l 8 % % % i +.f.7.2.2.2.2.2.2.7.2.1.2.1.2.2.1.1.1.1.1.1.1.2.7.9.5.&.Q 8 z s.gXlXv.gXv.gXlXgXgXgXhXgXfXhXlXlXgXgXv.lXkXlXjXgXjXjXhXhXhXzXhXhXkXkXzXzXhXgXgXgXgXgXfXfXhXhXhXhXhXhXhXzXzXzXzXzXzXs.v x uX                                                                                                                                                                                                                                                                                                                                                                                                                ",
"                                                                                                                                                                                                                                                                                                                                                                                      ..! a.k.j.u.p 8 e % % u u u #.0.2.2.2.2.2.2.2.2.2.1.2.2.2.1.1.2.2.2.2.2.,.,.9.a.Q % z d.jXlXv.v.lXgXfXgXgXgXgXlXkXhXhXgXgXv.gXgXgXlXlXlXgXjXjXkXkXkXkXhXhXkXkXkXzXkXjXgXgXhXjXjXhXzXhXzXzXhXhXdXfXzXzXzXzXhXxXX.y |                                                                                                                                                                                                                                                                                                                                                                                                                 ",
"                                                                                                                                                                                                                                                                                                                                                                                      { ^ c.j.f.( 0 ^ _ % a i.#.u Q q.2.2.2.2.2.2.2.2.2.1.1.1.1.3.3.2.2.2.2.2.,.4.h.( 8 i d.gXgXv.gXlXkXgXgXgXgXgXgXhXgXgXhXgXgXgXgXgXgXgXlXlXlXjXjXhXkXzXkXhXkXkXhXkXhXhXhXgXgXhXjXjXjXfXhXzXzXzXhXhXhXzXzXfXhXhXzXd.a H BX                                                                                                                                                                                                                                                                                                                                                                                                              ",
"                                                                                                                                                                                                                                                                                                                                                                                      [ ^ z.j.5.~ p y./ 0 w.g.6.~ Q *.2.2.8.2.2.2.2.2.2.2.2.1.1.1.1.1.1.1.2.2.4.f.#.0 r d.kXgXgXgXgXgXlXhXhXhXhXgXlXlXgXgXhXlXlXgXgXgXgXlXlXlXlXhXhXhXkXzXkXhXhXhXkXkXhXgXgXgXhXhXhXhXhXjXhXzXzXzXzXjXjXzXhXfXhXdXzXdX) h 7X                                                                                                                                                                                                                                                                                                                                                                                                              ",
"                                                                                                                                                                                                                                                                                                                                                                                    CX) ` x.j.5.+.( a./ 0 O.g.f.%.+.<.9.7.8.2.2.2.2.2.2.2.2.1.1.1.1.1.1.1.2.2.5.$.l 9 X.jXgXv.lXlXlXhXhXhXhXhXhXlXlXlXgXgXgXgXlXgXgXgXgXgXlXlXlXjXzXhXhXzXkXkXhXhXkXzXzXkXjXhXhXhXkXkXhXjXjXhXzXhXhXfXfXzXhXhXhXfXhXzXt.y }                                                                                                                                                                                                                                                                                                                                                                                                               ",
"                                                                                                                                                                                                                                                                                                                                                                                    CX[ ^ z.j.4.6.5.f.+.0 p #.p.f.5.7.2.7.7.1.2.2.2.2.2.2.2.1.1.1.1.2.2.2.2.9.a.^ 9 ! v.lXv.v.gXlXlXhXhXhXhXhXhXlXgXgXv.lXlXgXgXhXgXgXgXgXgXhXhXkXzXhXhXkXkXkXjXhXhXzXzXkXjXhXhXhXkXhXgXhXkXzXhXzXhXhXhXhXhXzXzXfXhXdXsXv g uX                                                                                                                                                                                                                                                                                                                                                                                                            ",
"                                                                                                                                                                                                                                                                                                                                                                                      { l a.k.0.7.7.9.&./ u u / 6.7.7.2.7.7.1.3.2.1.2.2.7.2.1.1.1.2.2.1.2.2.j.#.0 u s.kXv.v.lXgXv.gXhXgXhXhXhXhXlXlXgXv.jXlXgXgXhXgXgXgXhXgXhXhXhXhXhXhXkXkXjXjXhXkXzXzXjXgXhXhXhXhXhXhXhXhXjXzXzXhXxXhXhXhXzXzXhXhXzXxX{ y 5X                                                                                                                                                                                                                                                                                                                                                                                                            ",
"                                                                                                                                                                                                                                                                                                                                                                                      r.z @.x.5.9.7.9.f.h.*./ +.4.9.7.7.4.9.1.>.2.2.2.2.8.8.2.1.1.2.2.2.1.0.p.p 9 w.jXgXgXgXlXlXgXgXgXgXgXgXgXhXhXgXgXgXjXjXlXlXgXgXgXhXhXhXjXhXgXhXhXgXhXzXzXjXkXkXzXxXhXhXhXhXhXhXkXjXzXkXhXhXzXhXhXzXzXzXzXhXhXhXhXzXd.y }                                                                                                                                                                                                                                                                                                                                                                                                             ",
"                                                                                                                                                                                                                                                                                                                                                                                      vX) ^ a.f.9.7.9.9.j.j.5.9.9.4.j.%.+.<.,.1.2.2.2.7.7.7.2.2.1.2.2.2.7.5./ 9 ! dXjXgXgXlXjXlXlXlXjXgXlXlXhXhXhXgXgXgXlXjXlXgXlXlXgXhXzXzXjXhXgXjXgXgXhXhXkXkXkXhXhXhXhXhXhXhXjXfXjXgXhXhXhXhXhXhXhXzXhXhXhXhXhXhXhXzXsXa x MX                                                                                                                                                                                                                                                                                                                                                                                                          ",
"                                                                                                                                                                                                                                                                                                                                                                                        r.s ' z.j.9.7.7.4.9.9.0.0.j.h.Q u %.7.1.2.2.7.7.7.2.2.2.2.2.7.9.f.*.0 u s.jXgXlXlXlXlXlXlXjXjXjXkXkXhXgXgXgXlXlXjXjXgXgXlXjXhXhXkXhXhXlXlXlXgXhXhXhXjXhXlXhXhXhXhXhXhXjXgXv.gXfXfXgXhXgXhXhXzXhXzXjXhXzXhXhXhXzXsXv y qX                                                                                                                                                                                                                                                                                                                                                                                                          ",
"                                                                                                                                                                                                                                                                                                                                                                                        CX{ i O.x.j.9.9.4.7.9.7.9.x.#.0 ~ &.7.1.3.2.7.7.7.2.2.2.2.2.7.9.a.Q 9 w.fXv.v.lXlXjXlXlXhXhXhXhXlXgXgXgXgXgXgXlXgXgXgXgXgXgXgXhXhXhXhXkXlXkXgXlXjXjXhXgXgXhXhXhXhXkXhXhXfXv.fXgXfXfXhXhXhXkXzXhXjXjXhXzXhXhXfXzXxXX.y |                                                                                                                                                                                                                                                                                                                                                                                                           ",
"                                                                                                                                                                                                                                                                                                                                                                                          aX) i O.a.g.j.9.9.9.0.k.&.l u *.7.1.2.2.2.7.2.2.2.1.2.2.2.2.j.#.0 l v.fXv.v.lXkXkXlXv.gXgXgXv.v.v.gXgXgXlXlXgXlXlXgXgXv.gXgXhXgXhXhXjXlXgXhXhXhXhXhXhXhXhXhXhXhXkXhXgXgXjXjXjXfXfXhXzXzXkXkXkXhXhXzXhXhXzXfXhXzXt.y H BX                                                                                                                                                                                                                                                                                                                                                                                                        ",
"                                                                                                                                                                                                                                                                                                                                                                                            pX[ i ~ O.u.c.g.z.c.$.Q 0 ( 6.2.2.2.2.2.2.2.2.7.3.2.2.7.2.q.~ 0 w.gXlXgXgXlXjXjXlXlXgXlXgXv.gXgXgXgXgXgXgXv.gXlXlXlXgXlXgXgXgXhXhXjXhXgXgXhXhXhXhXhXhXhXhXkXkXkXhXhXjXjXjXjXjXhXhXzXhXhXkXkXjXhXzXhXfXzXhXhXzXs.v h 7X                                                                                                                                                                                                                                                                                                                                                                                                        ",
"                                                                                                                                                                                                                                                                                                                                                                                              aX..) s p l ^ ! z r r / 6.0.2.2.2.7.7.2.2.1.2.2.2.2.7.9.%.r i s.v.lXgXv.v.lXlXlXlXgXlXgXv.gXgXgXlXgXv.v.v.gXlXlXlXlXlXlXgXgXhXhXjXgXgXgXgXhXhXhXhXhXhXhXkXkXhXhXhXhXjXjXjXjXjXhXzXhXhXhXkXgXhXzXhXfXzXzXzXzXxXw.y K                                                                                                                                                                                                                                                                                                                                                                                                         ",
"                                                                                                                                                                                                                                                                                                                                                                                                  pXr.[ ) a 0 % r ( q.7.8.2.2.2.7.7.2.2.2.2.2.2.2.9.f./ 9 X.fXv.gXlXlXlXlXlXlXgXgXlXgXv.gXgXgXgXgXv.v.v.v.gXlXgXgXgXgXgXgXhXhXjXgXgXgXgXgXhXhXzXhXhXhXkXkXhXhXhXhXhXjXjXjXjXzXhXhXhXhXkXgXhXzXhXxXzXzXzXzXzXs.b g qX                                                                                      IXMXuXuXuXwXwXwXuXMXVX                                                                                                                                                                                                                                                                                          ",
"                                                                                                                                                                                                                                                                                                                                                                                                      ZXvXrX[ 8 ` z.9.2.8.2.2.7.7.8.8.2.2.2.2.2.2.9.u.u u s.gXgXgXlXlXlXlXlXlXlXgXgXgXgXlXhXgXhXgXgXv.v.v.gXfXgXlXgXgXhXhXhXhXhXgXgXgXgXgXfXhXhXhXhXhXhXhXhXhXhXjXjXjXjXkXjXjXhXhXhXhXhXhXhXhXhXfXfXjXzXzXxXxX{ y 5X                                                                                  qXD.I F f f 6 6 6 6 6 Z G U D.9XwXMX                                                                                                                                                                                                                                                                                ",
"                                                                                                                                                                                                                                                                                                                                                                                                          AX5X9 ( k.9.3.8.7.7.7.7.7.7.2.2.2.7.7.2.f.( 9 _ v.hXkXhXlXlXlXkXlXkXkXhXgXgXgXlXlXkXhXhXgXgXgXlXlXgXhXgXgXhXhXhXhXhXhXgXgXhXlXhXgXhXhXhXhXhXhXhXjXkXjXjXjXjXjXjXjXhXfXhXhXhXhXhXxXhXhXfXfXfXzXfXdXxXt.y |                                                                                 | f - @ @ o o o o o o o @ @ 2 2 6 6 F I D.0XVX                                                                                                                                                                                                                                                                        ",
"                                                                                                                                                                                                                                                                                                                                                                                                            6Xr ( g.9.2.2.8.8.8.2.2.2.7.2.7.8.7.9.h.p 0 y.lXv.gXlXlXlXlXkXlXkXhXgXgXgXgXgXlXkXkXhXhXgXgXfXgXgXhXgXgXhXhXhXhXgXgXgXgXgXlXjXhXhXgXgXjXhXhXhXhXhXjXjXjXjXjXjXhXhXhXhXhXhXhXhXhXhXhXhXhXhXjXxXxXzXt.y  .                                                                              yXg = @ o o . . . . . o o o o o o o # # @ 7 6 G U wX                                                                                                                                                                                                                                                                    ",
"                                                                                                                                                                                                                                                                                                                                                                                                            yXr ^ h.7.2.2.7.8.7.2.1.2.7.7.7.8.7.9.%.r z s.gXv.gXlXlXlXlXlXhXgXgXgXgXgXgXgXgXhXlXhXhXgXgXgXv.hXgXfXhXhXhXjXhXgXgXgXgXgXgXhXgXgXgXgXjXhXhXdXdXfXgXgXgXhXhXjXjXjXjXhXhXhXhXhXhXhXhXjXjXjXjXfXzXzXr.j }                                                                               iXg $ o . . . . . . . . . . . . . . X o o o # # 7 f I 9XVX                                                                                                                                                                                                                                                              ",
"                                                                                                                                                                                                                                                                                                                                                                                                            pXr / g.4.2.2.7.7.7.2.2.2.2.7.7.7.9.6.( 9 _ fXhXjXlXgXlXlXlXkXhXhXhXlXgXlXhXgXhXhXhXhXgXgXfXgXgXgXgXgXgXhXkXhXhXhXhXgXgXgXfXhXdXfXhXkXhXhXjXjXhXfXgXv.gXv.gXjXjXjXhXhXhXdXhXhXhXhXfXhXfXxXzXhXxXzXr.j }                                                                               CXH $ * O . . . . . . . . . . . . . . . . . . o o # 7 6 Y 0X                                                                                                                                                                                                                                                            ",
"                                                                                                                                                                                                                                                                                                                                                                                                            pXa Q g.9.2.2.2.7.7.7.7.2.2.2.7.7.9.h.Q 9 t.hXhXjXgXgXv.gXlXlXhXhXhXgXgXhXgXdXhXhXhXhXhXgXgXgXgXhXgXfXgXhXhXhXhXhXzXhXhXhXhXhXgXgXlXkXkXjXkXjXgXgXgXgXlXgXgXjXjXhXhXhXhXfXhXhXhXhXhXjXhXxXzXzXxXxXr.h |                                                                               CXg = F f o . . . . . . . . . . . . . . . . . . X X o # 2 6 U MX                                                                                                                                                                                                                                                        ",
"                                                                                                                                                                                                                                                                                                                                                                                                            iXa Q h.9.2.2.7.7.7.7.7.7.2.2.2.2.5.p.u e d.kXgXjXgXgXv.lXjXjXjXhXgXgXv.gXfXfXhXhXhXhXgXgXhXhXhXhXgXgXgXhXhXhXgXhXhXhXhXkXhXgXgXgXgXgXgXgXhXhXhXgXgXgXjXgXhXjXhXhXhXhXhXfXhXhXhXhXhXjXfXfXzXzXzXxX{ y 5X                                                                              pXh = L K d O . . . . . . . . . . . . . . . . . . . . o o @ 2 G 9X                                                                                                                                                                                                                                                      ",
"                                                                                                                                                                                                                                                                                                                                                                                                            iXa Q z.j.9.7.7.7.7.7.2.2.2.2.2.2.f.#.0 t s.kXgXgXgXgXlXkXlXhXkXkXhXgXfXgXdXdXhXhXdXhXgXhXkXzXzXhXhXhXhXhXgXkXhXhXhXhXhXhXgXv.gXgXgXlXgXhXkXhXkXlXgXfXgXfXfXhXhXhXfXhXhXhXfXfXhXhXhXhXfXfXxXzXxXd.a x pX                                                                              6X* * L K K k . . . . . . . . . . . . . . . . . . X X X X X # @ 6 Z.VX                                                                                                                                                                                                                                                  ",
"                                                                                                                                                                                                                                                                                                                                                                                                            aXb l a.k.9.7.7.7.7.2.2.7.7.7.2.1.5.' % z dXhXgXgXlXv.lXhXgXhXhXhXzXzXzXxXxXxXxXdXhXhXzXhXhXhXfXhXhXhXhXhXhXkXhXhXhXhXhXhXgXgXgXgXfXv.hXhXhXhXzXhXgXv.v.fXfXhXhXhXdXfXfXfXfXhXhXhXhXhXhXzXxXxXsX) h 5X                                                                              NXL = g [ [ } H O . . . . . . . . . . . . . . . . . . . . . . X # # 2 G eX                                                                                                                                                                                                                                                ",
"                                                                                                                                                                                                                                                                                                                                                                                                            vXv i p.k.7.7.9.7.7.2.2.2.2.7.2.1.5.^ 8 _ dXgXgXgXlXgXlXkXhXfXzXzXbXt.{ ) { t.sXdXhXxXxXxXzXzXhXhXzXhXxXhXhXhXhXxXxXhXhXhXgXgXhXhXgXfXhXzXhXhXhXhXgXgXv.fXgXhXhXhXhXfXxXfXhXhXhXhXgXxXxXxXxXtX[ y } CX                                                                              rXh * H { [ { L O . . o . . . . . . . . . . . . . . . . . . . . . X o @ V 4X                                                                                                                                                                                                                                              ",
"                                                                                                                                                                                                                                                                                                                                                                                                            ZXv i p.k.8.7.9.7.7.7.2.2.2.7.2.2.6.~ 8 O.fXfXv.gXlXlXlXkXhXzXbXt.a & $ $ $ & b w.s.xXxXzXzXzXhXdXdXzXxXhXhXhXfXxXfXdXfXgXjXgXhXhXfXfXhXhXhXhXhXgXfXfXfXfXgXhXhXhXhXfXxXfXhXzXfXfXdXhXxXsXr.v y [ iX                                                                                yXh * F [ { } L = . . o . . . . . . . . . . . . . . . . . . . . X . X o @ 6 U VX                                                                                                                                                                                                                                          ",
"                                                                                                                                                                                                                                                                                                                                                                                                            ZX) l p.j.7.7.7.7.2.2.2.2.2.7.2.7.&.l 9 w.gXv.v.gXjXjXkXzXzXbXP $ & L r.8Xe.v - & y { s.bXxXxXxXdXxXzXhXxXhXhXhXhXxXgXfXgXhXdXhXdXdXfXfXhXhXhXhXgXfXfXfXfXhXhXhXhXfXhXxXdXdXxXxXxXdXsXr.) a j } iX                                                                                  CXK * g [ [ [ K = . o . . . . . . . . . . . . . . . . . . . . . . . . . o @ 6 U VX                                                                                                                                                                                                                                        ",
"                                                                                                                                                                                                                                                                                                                                                                                                            CX) l a.j.2.2.7.7.2.2.7.8.8.2.,.8.&.u t s.lXgXv.v.gXhXzXzXtXv O - qXFXHXKXHXAXqXP - $ e v t.s.bXxXxXxXzXxXxXzXzXzXxXhXhXdXdXhXzXfXxXhXhXxXzXzXhXfXfXfXgXgXdXhXfXhXxXzXdXxXxXxXbXs.t.{ a y v 5XCX                                                                                      ..* k K [ [ L = . . . . . . . . . . . . . . . . . . . . . . . . . . . . o @ 6 U IX                                                                                                                                                                                                                                      ",
"                                                                                                                                                                                                                                                                                                                                                                                                            CXv l p.j.7.7.7.7.2.7.7.2.2.2.,.7.%.r a v.gXgXfXfXfXzXzXsXv $ O x FXHXKXLXHXKXKXFXcX .y $ & y b { t.d.s.bXxXxXzXzXxXxXxXdXxXzXzXxXxXxXxXxXzXzXzXxXfXfXdXdXdXxXxXxXdXdXdXsXs.t._ a y y v ..iX                                                                                          pXf = H K [ H O . . . . . . . . . . . . . . . . . . . . . . . . . . . . . o @ 5 U                                                                                                                                                                                                                                       ",
"                                                                                                                                                                                                                                                                                                                                                                                                            CXv l a.k.0.7.8.8.2.7.7.2.2.2.7.4.*.r z v.kXgXgXgXgXzXxX[ % $ % & 7XLXKXJXHXKXLXHXHXHXcXe.P c - & & e t v { t.r.s.sXxXbXxXxXxXxXxXxXxXxXxXxXxXxXxXdXxXdXbXsXs.s.r.t.{ ) b y & $ 9 L 5XiX                                                                                              CXH = g K K g O . . . . . . . . . . . . . . . . . . . . . . . . . . . . . . # @ 6 D.                                                                                                                                                                                                                                    ",
"                                                                                                                                                                                                                                                                                                                                                                                                            CXv l a.f.4.7.7.2.2.7.2.2.2.2.7.4.*.0 z v.gXgXjXgXgXzXr.9 $ w s 8 k 8XPXKXHXKXKXKXKXDX8XwXFXZXpXr.{ v y y & & - y b J { { { X.{ { { { { { X.t.t.X.{ _ v v a y e & & & - k d h k K iX                                                                                                  ZXL = g K L = . . . . . . . . . . . . . . . . . . . . . . . . . . . . . . . . o @ 6 D.                                                                                                                                                                                                                                  ",
"                                                                                                                                                                                                                                                                                                                                                                                                            CXv l p.j.7.7.2.2.2.7.7.7.2.2.7.0.*.0 a dXgXv.lXgXhXdXv % 0 E E E 8 * U wXIXPXPXIXqXF = U HXKXKXHXGXFXZXcX7X .J d - & - & e & & & & & & & & & & & & & e e y c x x U 7XwXVXBX .H yX                                                                                                    BXx = H I 6 o . . . . . . . . . . . . . . . . . . . . . . . . . . . . . . . . X o @ 6 9X                                                                                                                                                                                                                                ",
"                                                                                                                                                                                                                                                                                                                                                                                                            vXb l a.k.7.7.2.2.2.7.7.2.2.2.7.7.*.0 a v.lXv.gXjXzXd.9 % s R R R E 8 % & g J L h % % $ h iXKXKXJXHXHXHXHXGXGXGXqX7XpXtXtX8X7X7Xr.r.7Xr.e. . . .e.r.8XyXiXcXSXBX4XBXGXGXSX4XP 6X                                                                                                      pXd O f 6 o . . . . . . . . . . . . . . . . . . . . . . . . . . . . . . . . . . . o @ Z wX                                                                                                                                                                                                                              ",
"                                                                                                                                                                                                                                                                                                                                                                                                            aXa l a.k.9.8.2.2.2.7.2.2.2.2.2.7.%.r a s.lXlXgXgXhX{ $ 0 E R T T T E w 0 8 8 8 8 w s s 8 j yXPXKXKXHXHXHXKXKXBXG 4XKXHXHXHXHXHXHXHXHXHXBXqXDXKXHXHXHXKXKXHXKX8Xg L 5X| K } yX                                                                                                      FX5X7 o o o . . . . . . . . . . . . . . . . . . . . . . . . . . . . . . . . . . . . . o > Y VX                                                                                                                                                                                                                            ",
"                                                                                                                                                                                                                                                                                                                                                                                                            aXa l a.k.7.8.2.2.2.2.2.2.2.2.2.7.&.u a s.gXv.v.fXdXv $ w ] R T W W T R R E E E E R R R E 0 q } uXDXGXHXLXIX0Xf O f cXHXKXKXKXKXHXKXKXBXG F wXHXKXKXKXKXKXGXqXP | 6X5X5X6XCX                                                                                                        MXF o o . . . . . . . . . . . . . . . . . . . . . . . . . . . . . . . . . . . . . . . X # 2 D.                                                                                                                                                                                                                            ",
"                                                                                                                                                                                                                                                                                                                                                                                                            aXa l p.j.8.7.7.7.7.2.2.2.2.7.2.7.&.p i s.gXgXgXlXdXv % w R R W W W W W T T R R T R T R R E w 8 q H } } K g % % q % d 7XVXGXLXKXHXDXqXH L P L | uXVXZXVXyX .P qXFX                                                                                                        MXuXuXBXMXU 7 o . . . . . . . . . . . . . . @ @ o . . . . . . . . . . . . . . . . . . . . . . . . o # 6 0X                                                                                                                                                                                                                          ",
"                                                                                                                                                                                                                                                                                                                                                                                                            iXa l z.j.7.7.9.7.7.8.2.2.2.7.2.,.&.l u s.fXlXgXv.v.v % w R R W W W W W W W W W T W W W T T R E w 8 8 % 8 8 w E E s $ O d J U 4X4XI H | cXZXqX| K P P P P | iX                                                                                                        6X} F f f F Z = o . . . . . . . . . . . . . . . o o o o . . . . . . . . . . . . . . . . . . . . . . . . o @ G VX                                                                                                                                                                                                                        ",
"                                                                                                                                                                                                                                                                                                                                                                                                            iXy Q z.l.9.9.9.7.7.7.7.7.2.7.2.7.5.Q r d.hXgXv.v.v.v % w R R W T T T T T T R R T T T T T T T T E E E E E E R R R s % - v b j & = J qXFX        iXyXrXyXBX                                                                                                          7Xg 2 @ o o # o o o . . . . . . . . . . . . . . . . . . . . . . . . . . . . . . . . . . . . . . . . . . . X # 2 4X                                                                                                                                                                                                                        ",
"                                                                                                                                                                                                                                                                                                                                                                                                            pXa Q c.l.8.8.7.9.7.2.7.8.7.7.7.7.f.^ r w.hXgXv.v.fXX.% 0 E R R R R R R R R E E E E R T T T W W W T R T T R T R R w $ v sXsXs.v k 6XFX                                                                                                                            iXH = # o X X o o X . . . . . . . . . . . . . . . . @ @ O O O o . . o . . . . . . . . . . . . . . . . . . . . o # G VXLX                                                                                                                                                                                                                    ",
"                                                                                                                                                                                                                                                                                                                                                                                                            rXt / x.l.9.7.7.7.7.7.7.7.7.,.,.,.f.( 0 w.hXgXv.gXjXy.9 % w w w w w w w w 0 8 8 8 w w E E R W W W T W T T W W R R w % X.xXxXbX[ h uX                                                                                                                              5Xk O o X . . . . . . . . . . . . . . . . . . . . o D.qX5XK k $ O o . . . . . . . . . . . . . . . . . . . . . . o @ U uXqX6X5X5X6XyXCX                                                                                                                                                                                                      ",
"                                                                                                                                                                                                                                                                                                                                                                                                            6Xr / g.l.0.7.7.7.9.7.7.7.2.2.2.2.5.#.0 _ dXgXgXgXhXs.a $ % % 8 8 8 8 % % $ $ $ % % 8 8 w E R W T T T T W W T R E 0 8 r.xXxXdX{ y qX                                                                                                                            CXK = = o . . . . . . . . . . . . . . . . . . . . . o D.PXPXZXiX..H = O o . . . X X . . . . . . . . . . . . . . . X o @ 6 k y y a z v L ..CX                                                                                                                                                                                                  ",
"                                                                                                                                                                                                                                                                                                                                                                                                            r.t ( g.0.7.7.9.7.7.7.2.2.2.2.2.7.5.&.u t s.gXgXgXjXfXw.& $ y ..r.r.X.) y % $ k } } j q 8 w E R W W W W W T W R E 0 9 r.zXdXdXw.y | FX                                                                                                                          iXg = = O . . . . . . . . . . . . . . . . . . . . . X 2 wXPXKXLXFXZX6Xg $ O . . . . . . . . . . . . . . . . . . . . . . O b ` O.@.@.O.! z [ yX                                                                                                                                                                                                ",
"                                                                                                                                                                                                                                                                                                                                                                                                            r.t ^ h.9.7.7.9.7.7.7.,.,.2.2.2.7.9.h.Q 9 w.gXlXhXjXzXdXv $ y tXZXZXZXvXrX{ q % j { rX  j 8 w E R W W W W T W R R w % t.xXdXfXs.a g 6X                                                                                                                          rXh = - = O . . . . . . . . . . . . . . . . . . . . X X 6 wXPXLXLXPXFXiX} = O . o o . . . . . . . . . . . . . . . . . . O w.v.g.x.x.x.a.@.z v pX                                                                                                                                                                                              ",
"                                                                                                                                                                                                                                                                                                                                                                                                            | r ( &.4.7.7.9.7.9.9.7.2.2.2.2.7.9.5.+.9 _ dXfXgXjXkXzXs.a % [ aXZXZXZXZXaXrX[ 0 0 ..vXsXs 8 w R T W W W W W R R w % v sXxXzXdXw.y g e.BX                                                                                                                      yXh $ * * = O . . . . . . . . . . . . . . . . . . . . . X 5 9XIXPXLXPXPXAXF.* O o o . . . . . . . . . . . . . . . . . . o v z.x.k.k.k.g.z.y.z {                                                                                                                                                                                               ",
"                                                                                                                                                                                                                                                                                                                                                                                                            } t @.f.7.7.7.9.7.7.7.7.7.2.2.2.7.7.9.%.u i s.fXfXfXhXzXjXw.r % [ aXZXZXZXZXCXaXsXr.sXZXZX..8 0 E T W W W W W T R E 8 e r.xXxXxXsXX.y k L 6X                                                                                                                    aXj $ = * * = O . . . . . . . . . . . . . . . . . . . . . X # Y wXIXPXLXLXFX| = . X . . . . . . . . . . . . . . . . X . . e i.k.l.j.f.5.k.z.' j qX                                                                                                                                                                                            ",
"                                                                                                                                                                                                                                                                                                                                                                                                            { t $.k.9.7.9.9.7.7.7.7.7.2.2.2.7.7.7.6.~ 0 w.dXhXhXhXhXzXfXd.s % j rXaXZXZXZXCXZXZXZXZXZXrXq 8 E T W W W W T T R E 0 $ P tXsXtXtXs.t.v h g 5X                                                                                                                  aXg $ * * * * = o . . . . . . . . . . . . . . . . . . X . . X X 2 Y 0XMXPXPXMXf . . . . . . . . . . . . . . . . . . . . . O O.x.j.9.9.j.j.x.y.a |                                                                                                                                                                                             ",
"                                                                                                                                                                                                                                                                                                                                                                                                            [ t $.j.0.9.9.7.7.2.7.7.7.2.2.2.2.2.7.f.#.0 b s.zXhXhXdXfXzXfXd.v 8 8 [ rXaXZXZXAXAXZXZXZX..8 0 E R R R T R R R E E s $ $ c v a y t _ s.X.j x qX                                                                                                                aXh O = * & * = O . . . . . . . . . . . . . . . . . . . . . . . . . @ 6 Y U I 7 . . . . . . . . . . . . . . . . . . . . . o z z.f.5.j.x.x.v.d.a } FX                                                                                                                                                                                          ",
"                                                                                                                                                                                                                                                                                                                                                                                                          ZXv t $.j.9.9.7.7.2.2.2.7.7.7.7.2.2.2.2.j.&.p r t.dXhXhXhXhXjXzXfXs.X.r % 0 v ..rXaXZXZXZXyXj % w E R R R E E E E E w q $ O $ % & e e _ s.bXt.j }                                                                                                                 aXg O @ * * k * O . . . . . . . . . . . . . . . . . . . . . . . . . . . . . . . . . . . . . . . . . . . . . . . . . . . . . t p.g.f.g.a.u.' ) 9 g 0XVX                                                                                                                                                                                        ",
"                                                                                                                                                                                                                                                                                                                                                                                                          iXj i p.l.0.9.9.7.7.2.2.7.7.7.7.2.2.2.2.9.6.( 9 b dXzXjXjXhXfXhXhXfXfXs._ a 9 % q a [ ..} k $ $ q s w w w w w 0 8 8 % % & y v X.t.d.t.s.dXxXsXv H iX                                                                                                            AX6Xk o O = * * * = o . . . . . . . . . . . . . . . . . . . . . . . . . . . . . . . . . . . . . . . . . . . . . . . . . . . . e i.z.p.' Q r 0 8 9 9 y L  .yX                                                                                                                                                                                    ",
"                                                                                                                                                                                                                                                                                                                                                                                                          yXy z c.j.9.9.9.9.7.7.7.7.7.2.2.2.2.2.2.<.4.&.p 0 t.xXhXjXjXfXgXgXhXhXhXdXs.w.) r 0 % % $ $ $ O $ % % % % % % % 8 0 i ) w.s.dXdXdXxXzXhXdXxXbXv j pX                                                                                                          ZX5Xg $ O o $ * * * = O . . . . . . . . . . . . . . . . . . . . . . . . . . . . . . . . . . . . . . . . . . . . . . . . . . . . & X.' p 8 u p ~ ( ` ( ~ z a v ..                                                                                                                                                                                  ",
"                                                                                                                                                                                                                                                                                                                                                                                                          6Xy ! z.9.9.7.9.9.7.7.7.7.7.2.2.2.2.2.2.,.,.6.  0 z sXhXhXzXzXhXgXgXhXjXjXzXfXs.d.w.X.) b a y y y y y y a b ) _ X.t.s.fXfXhXdXdXdXxXxXxXhXxXbXv x pX                                                                                                        iX} y r y 9 $ O = - * = = O o . . . . . . . . . . . . . . . . . . . . . . . . . . . . . . . . . . . . . . . . . . . . . . . . . . O & 9 0 ~   $.a.x.z.h.a.i.O.! a |                                                                                                                                                                                 ",
"                                                                                                                                                                                                                                                                                                                                                                                                          5Xe _ x.9.7.7.9.9.0.0.7.7.2.2.2.2.2.2.2.2.2.9.&.~ 9 X.dXhXdXkXzXjXhXhXjXjXfXfXfXfXfXfXv.s.s.s.d.d.s.d.s.s.s.dXdXdXxXhXhXfXhXhXdXhXxXxXxXxXxXs.j L CX                                                                                                      iXL r z O.u.' e $ $ * * * * * = $ O O . . . . . . . . . . . . . . . . . . . . . . . . . . . . . . . . . . . . . . . O $ $ $ O . . o O & l +.&.a.k.k.k.k.j.k.g.x.u.! j |                                                                                                                                                                               ",
"                                                                                                                                                                                                                                                                                                                                                                                                          } e O.x.9.7.7.9.7.8.0.7.2.7.7.2.2.2.2.2.2.2.7.5.#.u e t.dXdXhXhXjXzXjXjXjXfXfXfXfXgXgXfXgXfXfXfXfXfXfXgXfXv.gXdXhXhXhXhXhXhXhXhXxXxXxXxXxXbX{ y |                                                                                                       ZX} y ^ u.z.g.a.^ & $ & * * * k * & = = O o . . . . . . . . . . . . . . . . . . . . . . . . . . . . . . . . . . o o $ t z ! z e $ O O & _ p.f.f.5.9.j.9.9.9.9.j.f.g.a.) j 6X                                                                                                                                                                            ",
"                                                                                                                                                                                                                                                                                                                                                                                                        CXL r y.x.9.2.2.7.7.7.7.8.7.7.8.7.2.2.2.7.7.7.2.8.f.' 0 i s.xXfXgXgXjXjXjXjXgXfXfXfXgXgXgXhXfXdXhXfXfXgXfXfXdXhXfXhXfXfXhXzXzXhXzXdXxXzXbXtXX.y v yX                                                                                                      6Xj ! p.x.f.f.f.$.p % $ * * * & & & = * = o . . . . . . . . . . . . . . . . . . . . . . . . . . . . . . . . . . O e ` $.&.h.p.#.~ 9 $ ! c.k.9.j.9.5.9.9.9.9.9.f.f.g.z.y.z [                                                                                                                                                                             ",
"                                                                                                                                                                                                                                                                                                                                                                                                  CXMXuX5Xy t i.k.4.7.7.7.7.2.2.8.7.7.8.8.2.,.2.7.7.7.2.8.9.a./ 9 b s.zXfXgXgXhXgXgXjXjXjXjXjXjXhXhXv.fXkXhXfXhXfXfXdXhXhXhXfXdXhXzXzXxXdXxXsXt.{ v y v 6X                                                                                                        { i y.h.5.5.j.4.g.@.u $ & * - k 9 * * * = O . . . . . . . . . . . . . . . . . . . . . . . . . . . . . . . . . o e O.h.0.7.7.5.5.p.^ 8 Q c.f.9.9.0.9.j.9.9.9.5.j.k.j.x.z.^ j yX                                                                                                                                                                          ",
"                                                                                                                                                                                                                                                                                                                                                                                            yXe. .K H x - & l p.j.7.7.7.7.7.7.7.7.7.7.7.7.2.7.8.7.7.7.2.<.,.4.&.l 9 ) s.dXgXhXfXgXgXgXgXjXhXhXkXv.fXgXv.jXgXgXgXfXfXhXhXhXdXfXhXdXxXzXzXxXs.v 9 & k L 6X                                                                                                        iXv z i.g.5.5.5.4.f.a.' 9 $ $ = 9 q q * & * = o . . . . . . . . . . . . . . . . . . . . . . . . . . . . . X . O & ` c.5.,.,.,.4.,.6.&.Q 0 @.f.4.9.9.9.9.9.9.9.9.j.j.j.g.z.O.a 5X                                                                                                                                                                          ",
"                                                                                                                                                                                                                                                                                                                                                                                        iX .J x x L  . .f $ l h.9.7.9.9.9.7.7.7.7.7.7.7.7.7.7.7.7.7.7.2.,.,.4.6.#.p 9 _ s.zXhXfXjXlXlXlXjXhXhXjXfXgXv.v.lXgXv.gXfXhXjXjXhXfXdXfXhXhXzXzXzXd.e & L 5XiX                                                                                                          rXa ^ c.f.5.5.5.4.5.f.p.^ 8 $ $ * 9 q & & * = O . . . . . . . . . . . . . . . . . . . . . . . . . . . . . . . O z p.j.4.4.,.,.,.,.9.f.*.0 Q p.4.4.5.9.9.9.9.9.9.j.j.j.g.z.' y 5X                                                                                                                                                                          ",
"                                                                                                                                                                                                                                                                                                                                                                                      CXK c P qXZXAXGXHX .$ / h.9.7.9.0.7.7.9.7.7.7.7.7.7.7.7.7.7.7.7.2.7.7.,.5.f.#.p 0 _ s.zXgXgXgXgXgXjXgXhXjXjXgXfXfXlXgXv.v.fXhXhXjXhXfXfXfXhXfXhXzXdX{ k K iXZX                                                                                                            rXa ^ z.f.5.5.9.7.7.0.f.p.Q % $ $ * * & * * = $ o . . . . . . . . . . . . . . . . . . . . . . . . . . . . . . & O.h.j.4.9.9.9.7.,.4.9.&.Q u %.f.9.9.4.5.9.9.9.9.5.5.5.g.a.! j yX                                                                                                                                                                          ",
"                                                                                                                                                                                                                                                                                                                                                                                      | h e.DXKXHXKXHXHX} % +.f.5.9.9.0.9.9.9.7.7.7.7.7.7.7.7.7.7.7.7.2.7.7.7.4.4.f.$.Q 9 ! s.zXfXfXfXfXjXhXhXjXkXhXfXfXgXgXv.gXv.fXfXhXzXjXjXhXdXxXxXxXt.y H yX                                                                                                                rXs ^ z.f.5.9.7.7.9.0.9.f.$.p $ $ = * * k & = = O o . . . . . . . . . . . . . . . . . . . . . . . . . . . o O t p.j.5.0.9.9.7.7.7.4.4.f.' 0 +.g.9.9.9.5.5.5.5.5.f.k.g.a.` u }                                                                                                                                                                             ",
"                                                                                                                                                                                                                                                                                                                                                                                    qXg = U FXKXLXHXKXFXx e #.f.9.9.9.9.9.9.9.7.7.7.7.7.7.7.8.7.2.2.7.7.,.,.,.2.,.9.6.&.Q 0 z w.dXzXhXgXkXgXdXdXhXhXhXhXgXgXgXfXdXfXzXzXzXzXzXhXxXxXxXr.a h 7X                                                                                                                  yXa ! a.k.9.4.9.9.9.9.9.5.f.#.p $ O & - k & & & & = O O o . . . . . . . . . . . . . . . . . . . . . . . . . O _ z.4.,.7.9.9.7.2.7.9.9.g.$.u / z.j.9.5.5.5.f.j.5.k.z.i._ a [ pX                                                                                                                                                                            ",
"                                                                                                                                                                                                                                                                                                                                                                                    } k - = U SXKXKXKXBXh r $.j.9.9.9.9.9.9.9.9.7.7.7.7.7.7.8.7.2.2.7.7.7.7.2.7.7.7.2.4.&./ r r _ s.xXhXdXdXfXhXhXhXhXhXfXgXgXgXhXhXzXzXhXhXzXzXxXxXs.b k | ZX                                                                                                                  aXv z u.k.9.9.9.9.4.9.9.9.j.6.#.r $ O = * * & & & & = $ O O O . . . . . . . . . . . . . . . . . . . . . . . & O.k.,.2.7.9.9.2.2.7.9.9.f.p.p p p.f.9.9.5.5.j.f.k.z.O.Q i [ pX                                                                                                                                                                              ",
"                                                                                                                                                                                                                                                                                                                                                                                  yXx P 8XL = J cXLXKXqX& z c.j.9.9.9.9.0.9.9.9.7.8.8.8.7.8.8.7.7.7.7.7.7.7.7.7.7.7.2.9.j.&.+.p 9 z X.s.s.dXfXhXhXhXhXhXgXv.dXhXhXhXhXhXfXdXfXxXxXs.b & } iX                                                                                                                      ..r ` c.j.9.7.9.9.7.9.9.9.4.6.#.u $ O $ * * & 9 * * & = * = O O . . . . . . . . . . . . . . . . . . . . . & y.j.2.2.7.7.2.2.,.7.7.7.5.a.~ u $.f.9.9.9.4.5.g.p.` i j ..NX                                                                                                                                                                                ",
"                                                                                                                                                                                                                                                                                                                                                                                  | x qXHXSXe.- f 4XcX} $ ! z.j.9.9.9.9.9.9.9.9.9.7.7.7.7.8.8.7.7.7.7.7.7.7.7.7.2.2.7.2.7.5.f.%.^ u 9 z _ d.v.dXxXzXzXhXhXhXhXdXxXxXxXxXxXxXxXsXt.a % H pX                                                                                                                        yXj i y.h.5.7.7.9.9.9.9.9.,.4.f.#.p % O $ & & k k 9 & & & & = O O . . . . . . . . . . . . . . . . . . . o r i.j.7.7.7.2.2.,.,.7.2.4.5.g.( u @.g.9.9.9.f.h.@.~ a [ 6X                                                                                                                                                                                    ",
"                                                                                                                                                                                                                                                                                                                                                                                ZXK J SXHXKXGXyXJ k d & % _ z.k.9.4.9.0.j.9.4.0.0.9.7.7.7.7.7.7.8.7.7.7.7.7.7.8.2.2.7.7.7.9.9.5.h.#.Q u 0 r ) w.d.sXxXxXxXzXxXdXzXzXzXxXbXs.t.b & $ = | SX                                                                                                                          ..r ! i.x.9.j.9.9.9.0.0.9.9.5.f.$.~ 8 $ $ $ * * 9 & & & & & * $ O . . . . . . o . . . . . . . . . . . O l p.9.7.7.7.7.7.7.2.7.9.7.9.f.+.0 O.k.5.5.x.a.O.z a ..aX                                                                                                                                                                                      ",
"                                                                                                                                                                                                                                                                                                                                                                                iXH  .LXHXLXKXHXZX6XJ * % z O.p.g.f.j.j.j.9.9.9.0.9.7.9.7.7.7.7.7.7.7.7.7.7.7.7.7.7.7.9.7.7.2.,.9.6.&.#.` l e e t z ) _ w.t.d.d.t.t.w._ z r 9 9 i y *  .ZX                                                                                                                          iX) r ^ a.g.j.9.9.j.j.0.9.9.4.4.f.a.^ r $ O & * k 9 & * * & 9 & = O o . . . . . . . . . . . . . . . . O Q h.9.7.7.7.7.7.7.2.7.7.7.9.k.*.u ' x.j.x.a.' i v 5X                                                                                                                                                                                          ",
"                                                                                                                                                                                                                                                                                                                                                                                6Xg qXKXHXKXKXHXHXHXSXqXJ & e l O.u.h.k.j.9.9.9.9.0.9.9.0.8.2.2.7.7.7.7.7.7.7.7.7.7.7.7.7.7.7.7.7.4.4.4.f.&.+./ l u 0 0 9 e r r r e 0 9 0 u Q O.i._ & g 5XpXCX                                                                                                                        rXj r ^ a.x.j.j.9.9.9.9.2.2.4.9.6.z.#.p % O $ = * * * & & q & * $ & & = = = $ O O . . . . . . . . . O ( f.9.9.7.7.7.2.2.2.2.2.2.9.j.*.u ` g.f.a.` u [ yX                                                                                                                                                                                            ",
"                                                                                                                                                                              iXNX                                                                                                                                                                                               .x BXKXHXKXKXKXKXHXKXGXSXpX[ t r i / #.c.x.k.j.j.9.9.9.0.8.3.2.8.7.9.7.7.9.9.9.7.9.7.2.7.7.9.9.,.,.,.2.,.4.f.h.p.$.O.' ^ Q Q l Q ~ ^ ` #.u.p.z.x.O.& $ - F K | 7XpXVX                                                                                                                  rXv r ^ a.x.f.5.9.9.7.2.7.7.,.<.5.f.$.Q 9 $ O $ & & & & * * q & 9 9 9 * & & = = O o . . . . . o . & #.j.9.9.9.7.7.2.2.2.2.2.7.9.6.%.u ^ z.h.` i [ iX                                                                                                                                                                                              ",
"                                                                                                                                                                        MX5X} x H L } 5XiX                                                                                                                                                                                    CXL P FXKXKXKXKXKXKXKXKXKXKXHXAXcXe.b e r l O.$.p.k.j.4.7.7.8.7.<.7.9.7.9.9.7.7.7.9.9.7.7.7.7.9.9.7.2.,.,.,.7.9.j.j.f.f.f.6.q.&.&.&.p.h.g.g.g.f.5.g.O.9 h P J x h h x L } 5XqXNX                                                                                                            rXv r ` c.k.j.9.9.7.7.2.,.,.4.7.4.6.&.( p % $ $ O $ * - & 9 & 9 9 & & & & & * = O O O O O $ $ O t $.l.9.9.7.7.7.2.2.2.2.7.7.9.5.%.u ^ a.O.u [ iX                                                                                                                                                                                                ",
"                                                                                                                                                                      qXx y t z z i y y v ..iX                                                                                                                                                                                yXx e.KXKXKXKXKXKXKXKXKXKXKXKXKXHXGXZX8X[ r 9 r Q +.$.h.j.5.5.9.4.9.9.9.9.9.9.7.7.9.7.7.7.7.7.7.9.7.9.4.4.,.2.7.7.9.9.2.2.9.7.7.7.9.9.0.9.9.9.9.4.k.+.e e.SXSXcX8Xe.P H f d g K 7X                                                                                                            rXv t O.z.j.0.9.7.7.7.,.,.,.7.7.7.4.f.$.' u 9 $ O O $ % & & * & & & & & & & * * = = * - * $ $ ! c.9.9.7.7.7.7.2.2.2.2.7.7.4.5.#.r _ w.z v yX                                                                                                                                                                                                  ",
"                                                                                                                                                                    qXj i _ @.a.a.@.' ^ i r j  .pX                                                                                                                                                                            5Xx cXKXKXKXKXKXKXKXKXKXKXKXKXKXKXKXKXHXAXcXr.b e 9 i ^ @.p.h.f.j.4.9.9.9.9.9.9.9.7.7.7.9.9.7.7.7.7.9.7.2.7.2.9.9.9.9.7.7.9.7.9.7.9.9.9.4.9.9.9.5.f.O.e 7XHXKXHXHXHXFXVXuX4XF d g |                                                                                                             rXj l $.j.j.9.9.9.7.2.2.,.,.,.2.4.5.f.h.p.O.Q r % O O O O = = * * * k k k * * k - - * = O 9 O.f.4.7.7.7.7.7.7.7.7.9.9.9.4.f.#.r y a j 6X                                                                                                                                                                                                    ",
"                                                                                                                                                                  CXH a y.z.x.k.f.f.z.a.y.^ r e v  .iX                                                                                                                                                                        P P AXHXKXKXKXKXKXKXKXKXKXKXKXKXKXKXKXKXKXHXHXSXtX{ a e e l ` #.&.g.k.k.j.9.9.9.9.7.7.7.9.7.7.7.7.7.7.9.7.7.7.7.7.9.9.7.7.9.7.7.,.9.9.7.4.9.9.9.5.j.#.t r.HXKXHXHXKXKXHXHXwXU | J x 6X                                                                                                          ZX{ u +.h.5.5.9.7.7.7.7.2.2.,.2.7.7.7.4.9.f.&.#.! i & O O o o O O $ $ $ $ & & & % $ $ $ $ / h.5.2.2.2.2.2.7.7.7.7.9.9.9.6.f.#.0 % h e.                                                                                                                                                                                                      ",
"                                                                                                                                                  pX6X|  . .5XyXIX5Xy ` x.k.f.5.6.6.f.g.h.z.u.` i e v 6X                                                                                                                                                                    CXH 4XHXKXKXKXKXKXKXKXKXKXKXKXKXKXKXKXKXKXKXKXKXKXHXGXcXe.b e 9 r l ` @.c.k.j.0.0.4.9.9.0.9.4.7.7.9.7.7.7.7.7.7.7.4.7.7.2.2.7.7.2.2.7.7.7.7.9.9.9.4.j.$.t  .GXKXHXHXKXHXHXBXx F VXuXH K BX                                                                                                          rXa / c.j.9.9.9.9.7.7.7.2.2.2.2.7.7.9.9.9.j.k.&.%.+.! e O o . o O O O O $ $ $ $ $ % 9 l &.9.7.,.7.7.7.7.7.7.2.2.9.9.9.f.g.( 9 q } CX                                                                                                                                                                                                      ",
"                                                                                                                                              qXK j y e y y y y H h e d.z.f.j.5.6.6.5.6.6.5.g.z.u.^ r y | NX                                                                                                                                                                6Xg qXKXKXKXKXKXKXKXKXKXKXKXKXKXKXKXKXKXKXKXKXKXKXKXKXHXGXSXtX{ b e 9 r l ( #.&.h.k.k.j.j.9.9.9.9.9.7.9.9.9.9.9.7.7.7.7.2.7.4.9.2.2.7.9.7.7.7.7.9.9.j.p.t P GXKXHXJXKXKXAXP - 7XGXGX7Xg 7X                                                                                                          aXv l p.j.9.9.9.9.9.7.7.7.7.2.2.7.7.7.7.7.7.7.9.5.h.i._ % O O $ & e 9 9 9 9 r u l ^ O.&.j.0.7.2.7.7.7.7.7.7.7.2.9.9.9.f.z.^ 9 H pX                                                                                                                                                                                                        ",
"                                                                                                                                            7Xj t l ` O.@.O.` z 9 % & _ c.g.5.9.5.5.5.5.4.5.f.g.x.c.#.l r L rX                                                                                                                                                              | J SXKXKXKXKXKXKXKXKXKXKXKXKXKXKXKXKXKXKXKXKXKXKXKXKXHXHXHXHXGXZX8X{ b e & r l ^ @.i.a.g.k.j.j.9.9.9.7.9.9.7.9.9.7.9.9.7.9.7.7.7.7.9.9.7.7.9.9.9.9.l.p.l L FXKXHXKXKXKX8X- e.GXHXKXCXH P                                                                                                           ZX[ i u.k.9.9.9.9.9.7.7.7.7.2.2.8.7.7.7.7.7.7.4.j.a.' u % r l / O.#.#.#.#.#.%.&.&.6.5.9.9.0.8.2.2.7.7.7.7.7.7.7.9.9.9.g.a.l a 7X                                                                                                                                                                                                          ",
"                                                                                                                                          6Xj a w.i.z.x.g.g.z.a.w.l % 9 ^ p.f.6.6.5.5.6.6.6.5.f.f.f.h.u.^ u j ..CX                                                                                                                                                        CXL  .GXKXKXKXKXKXKXKXKXKXKXKXKXKXKXKXKXKXKXKXKXKXKXKXKXHXKXHXKXHXHXHXGXZXtX{ a e 9 e i Q ( #.p.c.x.f.j.j.j.j.5.9.9.7.9.7.7.7.9.9.7.9.9.9.9.7.0.9.0.9.j.z.! v SXKXHXKXKXSXx J SXKXHXKXGX .J iX                                                                                                          X.i y.g.9.9.9.9.9.9.7.7.7.7.2.8.8.7.2.7.7.9.f.&.( u 0 / @.p.f.5.9.9.9.5.5.4.4.,.,.2.7.7.7.7.2.7.7.7.7.0.7.7.7.9.9.9.g.O.i { ZX                                                                                                                                                                                                          ",
"                                                                                                                                        CXL i y.z.h.h.5.6.6.f.g.g.p.( r 8 ~ p.f.5.6.j.f.j.5.5.6.5.5.f.g.a.#.p t [ pX                                                                                                                                                      pXx 8XHXKXKXKXKXKXKXKXKXKXKXKXKXKXKXKXKXKXKXKXKXKXKXKXKXKXKXKXKXKXKXKXHXHXHXHXZX7X{ b e & 9 r i ! ` O.@.p.h.g.k.k.0.9.7.7.,.0.9.9.9.9.0.9.9.9.9.9.9.9.9.x.^ a BXKXKXKXHXqXd 7XHXHXKXKXHXqXg 7X                                                                                                          r.i ' z.9.0.4.9.9.9.9.2.7.7.7.7.7.3.8.2.9.f.%.Q r l *.f.j.j.9.7.7.7.2.7.,.<.<.,.2.2.7.2.2.7.7.7.7.7.9.9.7.7.7.7.9.9.z.! v iX                                                                                                                                                                                                            ",
"                                                                                                                                        6Xy _ z.x.f.6.q.6.6.5.6.5.f.z.#.u 8 Q $.g.f.5.5.f.5.5.5.4.5.9.9.f.g.u.! r v 6X                                                                                                                                                    5Xx cXKXKXKXKXKXKXKXKXKXKXKXKXKXKXKXKXKXKXKXKXKXKXKXKXKXKXKXKXKXKXKXKXKXKXKXKXKXHXAXvXtXe.L a 9 & & 9 r l Q ( O.$.h.j.9.7.2.7.9.9.9.9.9.9.9.9.9.9.9.9.9.k.` t pXHXKXKXHX .x ZXKXKXKXKXKXVXH }                                                                                                           tXa ! x.j.0.9.9.9.9.7.2.2.7.7.7.7.3.7.7.5.*.p u / &.9.,.2.7.7.2.2.2.2.2.2.2.,.2.2.7.7.2.2.2.7.7.7.9.9.9.9.7.7.7.9.k.@.i  .                                                                                                                                                                                                              ",
"                                                                                                                                        7Xy ' z.h.f.5.5.5.5.f.5.5.5.6.h.%.p 8 l i.x.6.4.9.9.5.4.4.4.5.9.6.6.x.a.` i j | ZX                                                    iX6X5X..5X6XiX                                                                              P K AXKXKXKXKXKXKXKXKXKXKXKXKXKXKXKXKXKXKXKXKXKXKXKXKXKXKXKXKXKXKXKXKXKXKXKXKXKXKXHXHXHXGXSXCXtXr.P b e & % & 9 t ! O.h.9.7.7.7.7.9.7.9.9.9.7.9.9.9.9.9.k.@.r r.HXHXKXSXF  .KXKXKXKXKXKXLX .J MX                                                                                                        aXv z p.k.9.7.9.7.7.7.2.2.2.7.7.7.7.7.9.%.p u +.&.5.7.2.2.7.2.2.2.2.2.2.2.7.2.3.8.7.7.7.2.2.2.7.7.9.9.9.9.7.7.4.5.a.^ j yX                                                                                                                                                                                                              ",
"                                                                                                                                        6Xy ` z.f.5.5.j.5.f.5.5.4.5.4.5.f.$.l % l u.f.5.9.5.4.4.4.4.5.9.7.9.j.k.z.@.z y { iX                                              yX .j y t t t a v { rXCX                                                                      iXH e.GXKXKXKXKXKXKXKXKXKXKXKXKXKXKXKXKXKXKXKXKXKXKXKXKXKXKXKXKXKXKXKXKXKXKXKXKXKXKXKXKXKXHXKXHXHXGXAXZXpX7X{ c & $ $ r ( h.j.7.4.9.9.9.9.9.9.7.9.9.9.9.0.k.u.t  .HXHXKXqXd qXKXKXKXKXKXKXKX6Xg 6X                                                                                                        ZX{ i @.x.5.7.9.7.7.7.2.2.2.2.7.7.7.9.5.( l *.5.9.4.7.2.7.7.2.2.2.2.2.2.7.7.7.8.8.7.7.7.7.2.2.7.7.7.9.9.9.9.7.7.k.#.p {                                                                                                                                                                                                                 ",
"                                                                                                                                        pXy ! i.h.6.5.5.5.5.5.4.<.4.4.5.6.f.$.Q 8 p $.f.5.6.9.9.,.,.,.,.7.9.9.f.f.g.u.! r v 7X                                        NX| j r i Q ( ` ' ^ l i a { pX                                                                    7Xx qXHXKXKXKXKXKXKXKXKXKXKXKXKXKXKXKXKXKXKXKXKXKXKXKXKXKXKXKXKXKXKXKXKXKXKXKXKXKXKXKXKXKXKXKXKXKXKXHXHXHXHXAXBX7XP c & t @.g.9.5.9.9.7.9.9.7.7.9.7.4.9.0.k.u.i P LXKXHX .x IXKXKXKXKXKXKXKXBXH |                                                                                                           7Xa ^ c.f.4.7.7.7.7.2.2.2.2.7.7.7.7.7.*.*.9.9.7.7.9.7.7.2.2.2.2.2.,.2.7.7.7.8.8.7.7.7.7.7.7.8.7.7.7.7.0.0.5.k.p.! v yX                                                                                                                                                                                                                ",
"                                                                                                                                        CXL a y.h.5.f.6.5.6.6.6.4.5.6.6.5.5.g.u.~ 8 p $.&.6.9.4.4.,.4.,.7.7.5.5.4.f.g.a.` r a  .iX                                  yXL r u _ y.a.h.g.g.z.a.@.! a v yX                                                                  } F ZXHXKXKXKXKXKXKXKXKXKXKXKXKXKXKXKXKXKXKXKXKXKXKXKXKXKXKXKXKXKXKXKXKXKXKXKXKXKXKXKXKXKXKXKXKXKXKXKXKXKXHXHXcX4XqXCXe.& l p.f.j.9.7.7.9.9.7.7.9.9.9.9.9.j.a.l b AXHXSXF P PXKXKXKXKXKXKXKXFX} K CX                                                                                                        aX) l i.k.9.9.7.9.7.7.2.2.2.2.7.7.7.2.8.8.8.8.2.7.7.7.7.2.2.2.2.2.2.2.2.7.7.8.8.7.7.8.8.8.8.7.7.7.7.7.0.j.f.z.` a 5X                                                                                                                                                                                                                  ",
"                                                                                                                                          5Xr ' z.5.f.5.5.6.5.4.4.6.5.f.f.6.k.g.&.Q 8 p %.f.5.9.9.9.4.4.7.,.,.4.4.5.j.g.z.@.l r L yX                              6Xj r ! @.z.g.f.f.f.g.k.x.x.a.O.i ) pX                                                              ZXJ P LXKXKXKXKXKXKXKXKXKXKXKXKXKXKXKXKXKXKXKXKXKXKXKXKXKXKXKXKXKXKXKXKXKXKXKXKXKXKXKXKXKXKXKXKXKXKXKXKXKXKXKXKXeX- 5XHXGX .9 ( h.j.9.9.7.9.9.7.7.7.7.0.0.9.j.h.^ a cXHXuXf 8XHXKXKXKXKXKXKXKXHX7XH qX                                                                                                          ..u ' x.j.9.7.7.7.7.7.7.2.2.7.2.7.2.2.3.8.8.2.2.2.2.2.2.2.2.2.2.1.2.3.2.2.8.8.7.7.8.8.8.8.7.9.7.7.9.j.j.h.@.p [ BX                                                                                                                                                                                                                  ",
"                                                                                                                                          iXv a @.g.f.5.6.6.6.5.h.h.&.+.( ( #.%.a.a.Q 8 l $.g.6.9.9.9.9.9.<.<.9.4.6.4.6.j.h.u.^ t v r.CX                      CX..a u ' p.f.f.9.5.9.j.j.5.j.5.g.z.O.a {                                                               MXx e.KXKXKXKXKXKXKXKXKXKXKXKXKXKXKXKXKXKXKXKXKXKXKXKXKXKXKXKXKXKXKXKXKXKXKXKXKXKXKXKXKXKXKXKXKXKXKXKXKXKXHXKXFXP - BXHXHXFXv t @.g.9.9.7.0.0.7.7.7.0.l.j.l.j.x.#.e 7XGX4Xd cXKXKXKXKXKXKXKXKXKXBXH 5X                                                                                                          pXv l u.k.9.9.7.7.7.7.7.7.2.2.7.7.2.2.8.8.3.2.2.2.2.2.2.2.,.,.2.2.2.3.2.1.8.8.7.7.7.7.7.7.7.9.7.9.0.j.g.$.l v 6X                                                                                                                                                                                                                    ",
"                                                                                                                                            7Xy ^ z.f.6.4.9.5.f.a.' u 8 % 8 8 r ^ i.i.l % l $.f.4.9.9.9.4.,.,.9.4.9.5.4.6.6.f.a.O.p y { rX                ZX6X[ y p #.h.5.5.9.9.9.9.9.9.6.9.0.5.f.z._ b yX                                                            yXg 8XHXKXKXKXKXKXKXKXKXKXKXKXKXKXKXKXKXKXKXKXKXKXKXKXKXKXKXKXKXKXKXKXKXKXKXKXKXKXKXKXKXKXKXKXKXKXKXKXKXKXKXHXqX- P GXKXHXHXtXe z p.x.j.0.l.0.9.9.9.9.0.0.9.l.k.$.t { BXF 6 VXKXKXKXKXKXKXKXKXHXFXP K VX                                                                                                          ..i ( z.k.0.9.7.9.7.7.7.7.7.7.2.7.7.7.7.7.2.2.2.2.2.2.7.,.7.8.8.7.7.2.2.7.7.7.7.7.7.7.7.7.7.7.9.j.x.u.l y 5X                                                                                                                                                                                                                      ",
"                                                                                                                                            CX[ i O.h.6.<.6.f.h./ 8 0 ~ ^ ! p 0 % l u.u.p 8 Q p.f.4.9.9.<.,.,.4.5.4.4.4.4.4.6.6.z.y.! r v  .yXZX      BX6X[ a r ~ @.g.9.4.4.7.9.7.7.7.7.4.9.9.6.4.x.y.z e.                                                            6Xg cXHXKXKXKXKXKXKXKXKXKXKXKXKXKXKXKXKXKXKXKXKXKXKXKXKXKXKXKXKXKXKXKXKXKXKXKXKXKXKXKXKXKXKXKXKXKXKXKXKXKXKXFXP - qXHXKXKXHXFX{ 9 ^ c.j.j.j.0.9.9.9.9.0.0.9.0.j.a.l y P 7 @ 4XHXHXKXKXKXKXKXKXHXHX5XH pX                                                                                                          iXv i y.x.j.9.0.9.7.7.2.7.2.7.2.7.7.2.2.7.7.2.2.2.2.7.7.,.2.7.7.7.7.2.2.8.7.7.7.7.7.7.7.7.9.0.j.g.u.! r } CX                                                                                                                                                                                                                      ",
"                                                                                                                                              rXa z u.g.6.h.z.( 8 u O.a.g.6.&.#.p % l i.i.p 8 ~ &.5.4.<.<.<.,.<.,.,.,.,.4.4.4.6.6.h.p.' p r j } 7X6X| H y 9 l ` p.g.j.4.4.,.4.4.7.4.7.7.9.9.9.9.4.f.a.! {                                                             6Xd 8XKXHXKXKXKXKXKXKXKXKXKXKXKXKXKXKXKXKXKXKXKXKXKXKXKXKXKXKXKXKXKXKXKXKXKXKXKXKXKXKXKXKXKXKXKXKXKXKXKXKXKXVXd x SXHXHXKXLXHXvXb t O.x.9.0.9.9.9.0.0.0.9.9.0.f.z.' & O O = 6 cXKXHXKXKXKXKXKXKXHXpXx | IX                                                                                                          r.a ~ p.k.l.0.7.7.2.2.7.7.7.2.7.2.2.2.7.7.2.2.7.7.7.7.>.2.2.2.7.7.7.7.7.7.7.7.7.7.7.7.7.0.0.k.u.l 9 K iX                                                                                                                                                                                                                        ",
"                                                                                                                                                 .r ` x.f.g.y.0 r y.h.6.,.,.4.f.u.p % ^ z.u.i 8 Q p.j.<.,.,.>.:.:.,.4.,.7.7.4.<.,.9.f.h.$.^ i e r q & & 9 _ a.z.j.5.4.4.4.4.,.4.4.4.7.7.9.9.9.0.4.f.z.^ {                                                             pXH J cXKXKXHXKXKXKXKXKXKXKXKXKXKXKXKXKXKXKXKXKXKXKXKXKXKXKXKXKXKXKXKXKXKXKXKXKXKXKXKXKXKXKXKXKXKXKXKXKXKXHX7X= e.HXKXKXKXHXHXHX7Xe Q p.j.j.9.5.9.0.0.9.9.9.0.9.g.u.u O f e.6 P DXHXHXHXKXKXKXKXKXSXJ g 4XqXpXuXMXMXVX                                                                                              ZX{ r ^ p.9.7.7.7.2.2.7.7.2.2.7.2.2.,.,.2.2.2.7.7.7.7.2.7.7.,.7.7.7.7.7.7.7.7.7.7.7.7.7.7.0.&.Q 8 q 7X                                                                                                                                                                                                                          ",
"                                                                                                                                                iXv i u.g.h.^ 8 ( h.f.<.<.<.<.6.g.#.0 0 +.h.#.u 8 ~ &.6.<.,.,.:.:.<.,.7.4.,.4.:.<.,.4.4.g.h.$.` l u 0 8 p $.x.f.j.9.9.9.,.,.,.,.4.7.9.4.7.7.9.9.j.g.a.z {                                                               7XH J uXKXKXKXKXKXKXKXKXKXKXKXKXKXKXKXKXKXKXKXKXKXKXHXHXKXKXKXKXKXKXKXKXKXKXKXKXKXKXKXKXKXKXKXKXKXKXKXKXFXP d cXHXKXKXKXHXHXHXSXv e @.x.j.j.5.5.9.0.0.0.0.j.j.k.a.^ & e.FX4X- 7XHXKXKXKXKXKXKXKXGX .- 6 f f F H L }  .F.6XyXiXBXZX                                                                                  iX) r O.f.7.7.7.7.7.7.7.2.1.2.2.7.7.2.2.7.2.7.2.1.2.7.7.7.7.7.7.2.2.2.2.7.7.7.7.2.2.,.9.9.&.~ 0 y yX                                                                                                                                                                                                                          ",
"                                                                                                                                                  r.r ` z.a.u u &.5.4.4.,.,.,.<.4.z.` 8 Q a.h.#.p 8 / h.6.<.,.<.,.,.,.<.4.<.,.,.,.<.>.,.4.5.j.f.&.#.' / +.&.4.,.7.7.4.4.,.,.,.,.,.4.9.4.4.9.9.9.5.x.y.i  .                                                                yXL F 0XDXKXKXKXKXKXKXKXKXKXKXKXKXKXKXKXKXKXKXKXKXKXHXKXKXKXKXKXKXKXKXKXKXKXKXKXKXKXKXKXKXKXKXKXKXKXHXBXd P FXKXKXKXKXKXHXHXGXtXt l a.x.j.j.j.9.9.0.9.j.j.0.k.z.^ e uXHXZXJ c BXKXKXKXKXKXKXKXHX8X- - F F F x c g f h g g H K  .7XyXBX                                                                            FXrXr l &.7.7.7.7.7.7.7.2.1.2.2.7.7.7.7.7.2.2.1.1.2.7.7.7.7.2.2.2.2.7.8.8.0.7.7.2.2.2.7.0.g.y.p j iX                                                                                                                                                                                                                          ",
"                                                                                                                                                  iXj i i.O.9 ~ h.4.4.4.,.,.<.<.<.f.p.u r u.g.&.%.Q u ( 6.<.4.4.,.,.4.4.,.<.,.4.4.,.>.>.<.,.9.9.9.5.f.f.5.9.,.,.,.,.2.,.,.,.,.,.<.,.9.9.4.9.9.9.k.a.! a 6X                                                                FXyXH 6 U VXKXKXKXKXKXKXKXKXKXKXKXKXKXKXKXKXKXKXKXKXKXKXKXKXKXKXKXKXKXKXKXKXKXKXKXKXKXKXKXKXKXKXKXHXHXqX- 7XHXKXKXKXKXKXKXKXHXAXP e O.x.k.j.j.9.9.j.j.j.j.0.k.z.l b SXKXHX8Xk U PXHXKXKXKXKXKXKXcXd d   SXVXVXBXqX7X| K H g h h g x K  .7XpXCX                                                                      iXa l &.7.9.7.7.7.7.7.2.2.2.2.7.7.8.8.2.2.2.1.1.2.8.7.2.2.2.2.2.7.8.8.7.7.7.7.2.2.2.2.9.k.a.l v NX                                                                                                                                                                                                                          ",
"                                                                                                                                                     .e _ ! % ` g.4.4.4.,.<.<.:.:.4.h./ 8 ' f.<.6.&./ ~ &.<.4.4.4.,.,.,.:.,.,.4.,.,.,.:.<.,.,.,.7.<.2.,.7.,.,.:.2.2.2.7.,.,.2.2.<.2.9.9.4.9.9.j.z.^ r [ CX                                                                FXCX| - = F qXDXKXKXKXKXKXKXKXKXKXKXKXKXKXKXKXKXKXKXKXKXKXKXKXKXKXKXKXKXKXKXKXKXKXKXKXKXKXKXKXKXKXHXLX .d BXHXKXKXKXKXKXKXKXKXKXtXr z p.k.j.9.j.j.j.j.l.j.j.k.i.i { HXHXKXFX} d wXKXKXKXKXKXKXKXFXJ d VXJXKXKXKXKXKXGXSXVXcX8Xe.P H d k h H } 7XuXCX                                                                tXa ^ h.9.9.7.7.7.7.7.2.2.2.2.7.7.8.7.2.1.2.2.2.2.8.8.2.2.7.7.8.8.8.7.7.2.8.7.7.7.2.,.7.k.a.l v CX                                                                                                                                                                                                                          ",
"                                                                                                                                                    iXg 9 & 9 O.g.,.<.<.<.>.<.<.:.6.f.+.8 ~ h.:.:.4.&.*.:.:.4.,.,.<.<.<.<.,.,.<.:.<.,.<.,.,.,.,.4.4.,.,.,.,.,.,.,.7.2.,.,.,.,.,.2.7.7.9.0.9.k.z.` 9 v iX                                                                FX7X} x = = = - J e.8XuXDXHXKXKXKXKXKXKXKXKXKXKXKXKXKXKXKXKXKXKXKXKXKXKXKXKXKXKXKXKXKXKXKXKXKXKXKXHXKXDXF P FXKXKXKXKXKXKXKXKXKXKXGX{ e ` x.f.0.j.j.j.j.l.l.j.x.O.t 7XKXKXHXKXBXg L DXJXKXKXKXKXKXHXe.- eXKXKXKXKXKXKXKXKXKXKXKXLXFXVXpX5X} g d g H  .6XNX                                                            rXa ' x.9.7.7.7.7.2.2.2.2.2.2.2.2.7.7.2.2.2.2.2.2.2.2.2.2.2.7.8.8.7.7.7.7.7.7.7.7.9.7.7.k.p.l [                                                                                                                                                                                                                             ",
"                                                                                                                                                      5X* $ r @.f.,.<.<.<.<.<.<.,.<.6.#.9 l &.:.:.,.,.,.,.>.<.<.:.:.:.:.>.,.,.>.,.>.>.<.,.,.,.,.,.,.<.<.,.,.,.,.<.,.,.<.,.,.,.,.7.7.4.9.4.j.c.^ r [ yX                                                        ZXcX7X4X7XP F J J P  .P P x f d f J 4XBXLXKXKXKXKXKXKXKXKXKXKXKXKXKXKXKXKXKXKXKXKXKXKXKXKXKXKXKXKXKXKXKXKXKXHXKXuXd 7XKXKXKXKXKXKXKXKXKXKXKXHXcXt l i.x.j.j.j.j.j.l.j.l.z.^ y BXKXKXKXHXGXe.6 eXLXKXJXKXKXKXHXqX- U PXHXKXKXKXKXKXKXKXKXKXHXKXKXKXHXFXcX7XP x h g K 5XpX                                                        r.i @.x.7.9.7.2.2.2.2.2.2.2.2.2.2.7.2.7.7.2.2.2.2.2.2.2.2.,.2.7.2.7.7.7.7.7.7.7.7.9.9.7.j.a.~ [                                                                                                                                                                                                                             ",
"                                                                                                                                                      MXF $ i $.f.6.<.:.:.<.<.<.<.4.6.&.r p &.,.<.:.:.:.<.<.,.,.>.:.:.:.<.,.,.>.2.>.:.<.>.,.,.>.>.>.>.>.>.,.,.,.:.,.,.:.,.,.,.<.7.9.9.5.9.g.` r ) pX                                                    ZXqX} J x x J  .e.wXVXSXFXGXFXFXZXcXqX5XJ f f  .BXFXKXKXKXKXKXKXKXKXKXKXKXKXKXKXKXKXKXKXKXKXKXKXKXKXKXKXKXKXKXKXKXHXGX .6 cXKXKXKXKXKXKXKXKXKXKXKXHXGX .e ` z.k.j.j.j.l.0.l.k.p.l P FXJXHXKXHXKXVXF F VXKXKXKXKXHXKXZXx x VXKXKXKXKXKXKXKXKXKXKXKXHXHXHXHXKXKXHXSXBX7XL h g L | pX                                                  ZX{ l p.k.0.7.7.2.2.2.2.7.7.7.2.2.2.2.2.7.7.7.7.2.2.2.2.2.2.2.2.2.2.7.7.7.7.7.7.7.9.9.9.7.g.u.p {                                                                                                                                                                                                                             ",
"                                                                                                                                                        } & l $.h.<.:.:.:.<.,.,.,.4.4.&.r u &.,.4.&.:.:.<.<.<.<.<.>.>.>.<.,.,.>.>.,.>.:.>.>.>.>.>.>.>.:.:.:.<.<.,.2.2.,.,.,.,.<.4.9.9.5.k.#.r ) aX                                                  qX| L x J  .8XBXAXHXGXHXHXHXKXKXKXKXKXHXHXGXSXcX .x f U cXHXKXKXKXKXKXKXKXKXKXKXKXKXKXKXKXKXKXKXKXKXKXKXKXKXKXKXKXKXKXHXAXJ c VXKXKXKXKXKXKXKXKXKXKXHXHXHXCXb i y.z.k.j.l.l.l.l.x.O.r 7XHXKXHXKXKXKXHX7X6 4XHXKXKXKXKXKXFXP - wXKXKXKXKXKXKXKXKXKXKXKXKXKXKXKXKXHXKXKXKXGXSXpX| x h H 5XMX                                              CX) ! c.j.7.2.2.2.2.2.2.7.7.7.2.2.2.2.2.2.2.7.7.7.7.8.2.2.7.7.7.7.7.7.7.7.2.7.7.7.9.9.4.9.x.y.p  .                                                                                                                                                                                                                            ",
"                                                                                                                                                        7Xe l z.f.<.&.&.,.,.,.,.:.:.<.&.u r &.9.,.<.<.,.<.:.:.:.,.<.:.,.2.,.>.>.:.:.:.:.>.>.,.,.2.>.>.2.<.<.,.,.>.>.,.,.,.,.2.2.2.7.9.k.u.l a rX                                                pX} x H  .8XBXFXHXKXHXKXKXKXKXKXKXKXKXKXKXKXKXKXKXKXLXBX .d c 8XFXKXHXKXHXHXKXKXKXKXKXKXKXKXKXKXKXKXKXKXKXKXKXKXKXKXKXKXKXHXZXd J DXKXHXKXKXKXKXKXKXKXKXKXKXKXHXtXt ^ c.k.j.l.j.l.k.x./ t cXHXHXKXKXKXKXHXSXJ d wXDXDXDXPXDXBXJ = 4XKXKXKXKXKXKXKXKXKXKXKXKXKXKXKXKXKXKXKXKXKXHXHXFXcXe.x h K 6XCX                                          rXa ` h.5.7.7.7.2.2.7.7.7.8.7.7.8.7.8.8.8.7.2.8.8.7.7.2.2.7.7.2.2.2.7.2.2.2.7.7.7.9.9.9.9.x.@.p r.                                                                                                                                                                                                                            ",
"                                                                                                                                                        NXj l a.5.,.<.,.4.,.,.,.:.:.>.h.l 8 #.j.,.<.,.,.<.:.-.-.<.,.<.,.,.>.>.:.:.:.:.:.,.,.,.,.,.,.,.,.,.,.,.,.>.>.,.,.,.4.2.2.,.7.9.h.^ r ..                                              NX| H H e.cXGXHXKXKXKXKXKXKXKXKXKXKXKXKXKXKXKXKXKXKXKXKXKXKXFXqXJ - U VXKXKXHXHXKXKXKXKXKXKXKXKXKXKXKXKXKXKXKXKXKXKXKXKXKXKXKXKXuX6 4XHXHXHXKXKXKXKXKXKXKXKXKXKXKXKXAX{ t O.x.k.k.j.j.x.a.l v AXKXHXKXKXKXKXKXKXqX6 d F G Y Y Y F * 6 qXKXKXKXKXKXKXKXKXKXKXKXKXKXKXKXKXKXKXKXKXKXKXKXKXKXGXcX .x g | uX                                        ..p @.j.9.,.7.7.2.2.2.2.2.2.2.2.7.7.7.7.8.8.2.7.8.8.7.7.7.7.7.2.7.2.7.7.2.2.7.9.9.9.9.9.9.x.' i 5X                                                                                                                                                                                                                            ",
"                                                                                                                                                        CXv Q p.6.4.4.4.,.,.,.,.<.:.>.6.^ 8 ( g.4.<.,.,.<.>.:.:.>.,.<.>.>.>.>.>.>.>.>.>.2.,.,.,.,.,.,.,.,.,.,.,.:.>.,.,.,.4.2.2.,.7.4.&.l v iX                                            6XK g e.cXGXKXKXKXKXHXKXKXKXKXKXKXKXKXKXKXKXKXKXKXKXKXKXHXKXKXHXKXVXU - J cXKXHXKXKXKXKXKXKXKXKXKXKXKXKXKXKXKXKXKXKXKXKXKXKXKXKXKX8X- wXKXHXKXKXKXKXKXKXKXKXKXKXKXKXKXHXcXb z p.x.k.j.k.x.O.r e.GXKXHXKXKXKXKXKXKXFX .= O - 6 d c F P eXGXKXKXKXKXKXKXKXKXKXKXKXKXKXKXKXKXKXKXKXKXKXKXKXHXKXHXKXFXpXK h K yX                                    ZX[ Q p.j.9.9.7.7.2.2.2.2.2.2.2.2.7.2.2.7.7.7.2.2.7.8.7.7.7.8.7.2.8.7.7.7.8.7.7.9.9.9.9.9.9.x.' a 6X                                                                                                                                                                                                                            ",
"                                                                                                                                                          [ l p.6.4.4.4.4.4.4.,.<.:.<.6.#.0 l p.6.<.,.,.,.<.<.>.,.,.:.:.>.>.>.>.>.>.>.2.2.,.,.,.,.,.,.,.<.>.>.>.>.>.,.,.,.4.2.2.,.7.9.&.i { ZX                                        BX| H L yXGXHXHXKXKXKXKXKXKXKXKXKXKXKXKXKXKXKXKXKXKXKXKXKXKXKXKXKXKXJXHXFXe.- x cXHXKXKXKXKXKXKXKXKXKXKXKXKXKXKXKXKXKXKXKXKXKXKXKXKXHX .d BXKXHXKXKXKXKXKXKXKXKXKXKXKXKXKXHXGXr.e ` x.x.j.x.z._ y pXHXHXKXKXKXKXKXKXKXHXcXd - 4XcXcXBXZXSXKXKXHXHXKXKXKXKXKXKXKXKXKXKXKXKXKXKXKXKXKXKXKXKXKXKXHXKXKXKXHXZX .g L qX                                  pXv ^ h.9.9.7.7.7.7.2.2.2.2.,.2.2.2.2.2.2.7.7.2.2.2.8.8.8.7.2.8.7.8.7.7.8.8.8.7.7.9.9.9.9.9.z._ a yX                                                                                                                                                                                                                            ",
"                                                                                                                                                          { z u.6.<.6.4.<.6.4.4.4.4.<.6.&.Q 9 #.6.:.:.:.:.<.:.:.>.>.>.:.>.>.:.:.:.>.1.2.,.,.2.2.,.>.,.:.>.,.,.,.>.>.,.7.,.4.,.,.7.7.9.%.p {                                         pXK x e.ZXHXKXKXKXKXKXKXKXKXKXKXKXKXKXKXKXKXKXKXKXKXKXKXKXKXKXKXKXKXKXKXKXKXFXe.- x cXKXKXKXKXKXKXKXKXKXKXKXKXKXKXKXKXKXKXKXKXKXKXKXKXFXL F SXHXKXKXKXKXKXKXKXKXKXKXKXKXKXKXKXKXAXL t @.x.k.x.u.t v SXHXKXKXKXKXKXKXKXKXKXGX .6 wXLXHXKXKXKXKXKXKXKXKXKXKXKXKXKXKXKXKXKXKXKXKXKXKXKXKXKXKXKXKXKXKXKXKXKXKXHXFX8Xx H qX                                r.i @.x.7.7.2.7.7.7.2.7.7.8.8.7.7.8.7.2.2.2.7.8.2.2.8.0.0.8.7.7.7.7.9.7.7.7.7.7.7.9.9.0.9.j.z.! v iX                                                                                                                                                                                                                            ",
"                                                                                                                                                           .i u.g.4.4.6.6.6.6.4.4.4.,.6.f.( 8 p %.:.:.:.:.>.<.>.>.>.>.>.>.>.>.>.>.7.&.&.&.f.j.4.,.:.-.:.:.<.,.<.>.>.,.7.,.,.,.2.2.7.9.%.p ..                                      yXJ H 8XAXHXHXKXKXKXKXKXKXHXHXKXKXKXKXKXKXKXKXKXKXKXKXKXKXKXKXKXKXKXKXKXKXKXKXKXFXe.- F VXKXHXKXKXKXKXKXKXKXKXKXKXKXKXKXKXKXKXKXKXKXKXKXZXc P PXKXKXKXKXKXKXKXKXKXKXKXKXKXKXKXKXKXGXtXb l i.x.z.' e 5XHXKXKXKXKXKXKXKXKXKXKXHXuXd U DXKXKXKXKXKXKXKXKXKXKXKXKXKXKXKXKXKXKXKXKXKXKXKXKXKXKXKXKXKXKXKXKXKXKXKXKXKXGX8Xx } NX                            CX[ Q p.k.9.9.7.7.7.2.2.7.7.8.8.8.7.7.7.2.2.2.7.7.2.2.2.8.7.7.2.7.7.7.7.7.7.7.7.7.7.9.9.9.5.j.a.! v CX                                                                                                                                                                                                                            ",
"                                                                                                                                                          ..t y.g.9.4.6.6.6.6.6.4.4.4.4.4.&.Q 0 +.4.<.,.<.<.>.>.:.:.>.>.>.>.>.1.:.*.~ u Q ( $.k.4.:.:.:.:.,.,.>.:.>.,.<.7.,.,.2.,.4.9.$.p ..                                    6XH J cXHXKXKXKXKXKXKXKXKXKXKXKXKXKXKXKXKXKXKXKXKXKXKXKXKXKXKXKXKXKXKXKXKXKXKXKXKXKXSX .= U VXKXKXKXKXKXKXKXKXKXKXKXKXKXKXKXKXKXKXKXKXKXKXBX6 e.KXKXKXKXKXKXKXKXKXKXKXKXKXKXKXKXKXHXKXGXe.e _ c.d.z y cXKXKXKXKXKXKXKXKXKXKXKXHXFXU c BXKXKXKXKXKXKXKXKXKXKXKXKXKXKXKXKXKXKXKXKXKXKXKXKXKXKXKXKXKXKXKXKXKXKXKXKXKXKXGX} g qX                            rXz ` g.j.0.0.9.7.7.2.2.2.7.8.8.8.8.2.2.7.7.7.7.2.2.1.2.2.7.2.2.7.7.7.7.7.7.7.7.2.7.9.9.9.9.j.p.z {                                                                                                                                                                                                                               ",
"                                                                                                                                                          rXi ' g.4.4.,.4.4.4.4.4.4.4.4.,.6.&.( &.,.,.<.<.<.>.>.>.>.>.>.>.>.2.>.=.*./ ~ u 0 0 ( h.k.4.,.,.2.2.,.:.>.,.:.4.,.,.,.<.4.f.$.i ..                                  6Xx P BXHXHXKXKXKXKXKXKXKXKXKXKXKXKXKXKXKXKXKXKXKXKXKXKXKXKXKXKXKXKXKXKXKXKXKXKXKXKXHXKXSXL * J eXDXKXKXKXKXKXKXKXKXKXKXKXKXKXKXKXKXKXKXKXKXqX6 8XKXKXKXKXKXKXKXKXKXKXKXKXKXKXKXKXHXKXKXKXZXP r _ _ e P GXKXKXKXKXKXKXKXKXKXKXKXHXHXqX6 4XKXKXKXKXKXKXKXKXKXKXKXKXKXKXKXKXKXKXKXKXKXKXKXKXKXKXKXKXKXKXKXKXKXKXKXKXKXHXHX7Xh 6X                            ..i #.k.9.0.0.9.7.2.2.2.2.7.7.8.8.8.7.7.7.7.7.7.2.2.2.2.2.2.2.2.7.7.7.7.7.7.7.7.7.2.7.5.5.j.k.$.a  .                                                                                                                                                                                                                              ",
"                                                                                                                                                          iXv _ h.<.9.4.,.,.,.4.4.4.4.<.,.,.6.&.<.,.>.>.<.,.>.>.>.>.=.=.>.>.:.>.=.,.6.&.%.( p 8 u #.k.4.,.2.,.,.>.,.:.<.,.,.,.,.7.9.k.u.a ..                                yXH P VXHXHXKXKXKXKXKXKXKXKXKXKXKXKXKXKXHXHXHXHXKXKXKXKXKXKXKXKXKXKXKXKXKXKXKXKXKXKXKXKXKXKXpXd = 7 P qXDXKXKXKXKXKXKXKXKXKXKXKXKXKXKXKXKXKXHX7Xd cXKXKXKXKXKXKXKXKXKXKXKXKXKXKXKXKXKXKXKXKXHXcXv e & y cXKXKXKXKXKXKXKXKXKXKXKXKXKXKXFXP F IXKXKXKXKXKXKXKXKXKXKXKXKXKXKXKXKXKXKXKXKXKXKXKXKXKXKXKXKXKXKXKXKXKXKXKXKXHXKX4Xh 6X                          iXv Q p.9.9.7.9.7.7.2.2.2.2.7.7.7.8.8.8.8.7.7.7.2.2.2.2.2.7.7.7.2.7.7.7.7.7.7.7.7.7.9.9.9.9.5.g.#.a r.                                                                                                                                                                                                                              ",
"                                                                                                                                                          ZX[ z $.4.4.4.<.,.<.,.4.4.4.<.:.>.>.,.,.<.,.>.<.,.>.>.>.>.=.=.>.>.>.>.:.>.2.,.,.6.&.( u 0 ( 6.4.<.<.,.,.,.<.,.,.,.,.4.4.9.x.u.a ..                              yXH L VXKXKXKXKXKXKXKXKXKXKXKXKXKXKXKXKXKXHXHXHXHXKXKXKXKXKXKXKXKXKXKXKXKXKXKXKXKXKXKXKXKXKXKXGXe.= O @ 6 J 4XVXPXKXKXKXKXKXKXKXKXKXKXHXHXKXKXHXe.c BXKXKXKXKXKXKXKXKXKXKXKXKXKXKXKXKXKXKXKXKXKXHXpXx - 5XLXKXKXKXKXKXKXKXKXKXKXKXKXKXKXKXqXf eXKXHXKXKXKXKXKXKXKXKXKXKXKXKXKXKXKXKXKXKXKXKXKXKXKXKXKXKXKXKXKXKXKXKXKXKXKXLX .g yX                          r.i O.k.9.7.7.7.7.7.2.2.2.2.7.7.7.7.7.8.8.7.7.7.2.2.2.2.2.7.7.7.7.7.7.7.7.7.7.7.7.7.9.9.9.5.5.z.' a 6X                                                                                                                                                                                                                              ",
"                                                                                                                                                            ..t #.f.4.<.,.,.<.<.4.4.4.4.:.:.>.>.,.,.>.>.<.,.>.>.>.:.=.-.>.,.>.>.1.>.:.>.-.:.,.&.*.Q 0 / %.<.<.,.,.2.,.,.<.<.,.,.4.9.x.@.i r.                            iXL H BXKXKXKXKXKXKXKXKXKXKXKXKXKXKXKXKXKXKXHXHXHXHXKXKXKXKXKXKXKXKXKXKXHXKXKXKXKXKXKXKXKXKXKXKXHXuXc = J U F 6 f P 7XcXSXKXKXKXKXKXKXKXHXHXHXKXHXP F SXKXKXKXKXKXKXKXKXKXKXKXKXKXKXKXKXKXKXKXKXKXHXGXcXqXFXKXHXKXKXKXKXKXKXKXKXKXKXKXKXKXKXSXL G IXKXKXKXKXKXKXKXKXKXKXKXKXKXKXKXKXKXKXKXKXKXKXKXKXKXKXKXKXKXKXKXKXKXKXKXHXFXK g uX                        vX) l p.k.9.9.7.7.7.7.2.2.2.2.2.2.2.7.2.2.8.7.7.7.7.7.7.2.2.2.7.8.7.9.9.7.7.7.7.7.7.7.9.9.9.5.j.h.^ a yX                                                                                                                                                                                                                              ",
"                                                                                                                                                            yXj ^ z.5.4.4.4.4.4.4.4.,.,.:.:.:.:.>.>.>.>.:.>.>.:.:.:.:.-.>.<.:.>.>.1.1.>.1.>.-.:.6.%.~ 0 Q %.6.,.<.,.<.,.<.<.,.7.7.9.x.O.a tX                          CXP x uXHXKXKXKXKXKXKXKXKXKXKXKXKXKXKXKXKXKXKXKXKXHXKXKXKXKXKXKXKXKXKXKXKXHXHXKXKXKXKXKXKXKXKXKXKXKXGX5X=   DXZXqX .x d f J 4XwXVXDXLXKXKXKXKXHXHXFXJ J DXKXKXKXKXKXKXKXKXKXKXKXKXKXKXKXKXKXKXKXKXKXHXLXHXHXKXHXKXKXKXKXKXKXKXKXKXKXKXKXKXHXKXKX6Xd 7XHXKXKXKXKXKXKXKXKXKXKXKXKXKXKXKXKXKXKXKXKXKXKXKXKXKXKXKXKXKXKXKXKXKXKXHXAXH g iX                        rXa ^ z.9.7.7.7.7.7.7.7.7.7.2.2.2.2.7.2.2.2.2.2.7.7.2.2.2.,.2.7.7.7.9.9.9.9.9.9.9.9.9.9.9.9.4.k.a.~ v iX                                                                                                                                                                                                                              ",
"                                                                                                                                                            ZXL z a.f.4.,.4.7.<.<.>.:.:.:.,.,.:.:.:.>.>.>.,.>.:.:.:.:.>.<.,.>.:.=.=.>.,.,.>.:.:.:.6.&.~ 0 Q &.7.,.,.,.<.4.4.4.7.4.f.z./ v CX                        CX} x qXHXLXKXKXKXKXKXKXKXKXKXKXKXKXKXKXKXKXKXKXKXKXKXKXKXKXKXKXKXKXKXKXKXKXKXKXKXKXKXKXKXKXKXKXKXHXHXKXVXf F SXKXKXGXVXqX .J f d x J e.qXVXDXDXPXKXVXc U HXKXKXKXKXKXKXKXKXKXKXKXKXKXKXKXKXKXKXKXKXKXKXKXKXKXKXKXKXKXKXKXKXKXKXKXKXKXKXKXKXKXKXHXSXJ J DXJXKXKXKXKXKXKXKXKXKXKXKXKXKXKXKXKXKXKXKXKXKXKXKXKXKXKXKXKXKXKXKXKXKXHXcXh F uX                      ZX{ p @.f.4.7.7.7.7.8.7.7.2.7.2.8.8.2.8.8.8.8.2.2.7.7.7.2.2.2.2.7.7.7.7.7.7.7.9.9.9.9.4.4.4.9.0.x.a.~ [ CX                                                                                                                                                                                                                              ",
"                                                                                                                                                              ..i @.g.4.<.<.7.,.:.>.<.,.<.,.,.<.<.>.>.>.>.>.-.-.:.:.>.>.,.,.>.:.=.=.>.>.,.>.>.=.:.:.4.&.Q 0 ( f.4.,.,.<.4.4.4.7.9.f.p.l {                         CX} x 8XGXKXKXKXKXKXKXKXKXKXKXKXKXKXKXKXKXKXKXKXKXKXKXKXKXKXKXKXKXKXKXKXKXKXKXKXKXKXKXKXKXKXKXKXKXKXHXKXHXGX| 6 wXHXKXHXKXHXGXZXuX .P x d 6 c J I | 7X .- U HXKXKXKXKXKXKXKXKXKXKXKXKXKXKXKXKXKXKXKXKXKXKXKXKXKXKXKXKXKXKXKXKXKXKXKXKXKXKXKXKXKXKXKXHX6Xf qXKXKXKXKXKXKXKXKXKXKXKXKXKXKXKXKXKXKXKXKXKXKXKXKXKXKXKXKXKXKXKXKXKXKXHXyXk k | MX                    tXz ^ c.9.,.2.4.7.7.7.2.2.7.7.2.8.8.2.8.8.8.8.2.2.2.7.7.2.2.2.7.7.7.7.7.7.7.7.9.9.9.9.9.5.9.9.j.k.y.p {                                                                                                                                                                                                                                 ",
"                                                                                                                                                              iXj ! a.6.4.<.,.,.<.<.,.,.,.4.,.,.,.>.>.>.:.-.-.-.>.>.,.>.<.>.>.-.>.>.>.>.:.>.>.>.>.>.,.5.#.u u $.6.,.,.,.7.2.2.7.4.g.O.i r.                        | x 7XHXHXHXKXKXKXKXKXKXKXKXKXKXKXKXKXKXKXKXKXKXKXKXKXKXKXKXKXKXKXKXKXKXKXKXKXKXKXKXKXKXKXKXKXKXKXKXKXKXKXKXuXd e.HXKXHXKXKXHXHXHXGXAXVXpX7X .J c d d - - 4XHXKXKXKXKXKXKXKXKXKXKXKXKXKXKXKXKXKXKXKXKXKXKXKXKXKXKXKXKXKXKXKXKXKXKXKXKXKXKXKXKXKXKXKXKXZXx U DXKXKXHXKXKXKXKXKXKXKXKXKXKXKXKXKXKXKXKXKXKXKXKXKXKXKXKXKXKXKXKXKXKXHX5X* & h } yXCX              ZXX.p @.k.9.7.7.7.7.2.2.2.2.7.7.2.3.2.2.2.2.3.3.2.2.2.7.7.2.2.7.7.8.7.7.7.7.7.2.2.2.7.9.9.9.9.9.9.g.O.i r.                                                                                                                                                                                                                                ",
"                                                                                                                                                                 .i O.f.4.<.,.,.4.,.,.,.,.,.,.,.,.>.>.>.-.-.=.>.>.:.,.,.:.-.-.-.>.>.:.:.:.:.>.>.1.>.,.4.h.~ 0 ' f.,.,.,.2.2.2.7.5.z.! v vX                      6Xx e.GXKXKXKXKXKXKXKXKXKXKXKXKXKXKXKXKXKXKXKXKXKXKXKXKXKXKXKXKXKXKXKXKXKXKXKXKXKXKXKXKXKXKXKXKXKXKXKXKXKXHXKXFXJ J DXKXKXKXKXKXHXKXKXKXHXHXHXGXAXBXpX8X7X8XSXKXKXKXKXKXKXKXKXKXKXKXKXKXKXKXKXKXKXKXKXKXKXKXKXKXKXKXKXKXKXKXKXKXKXKXKXKXKXKXKXKXKXKXKXKXGXe.x cXKXJXLXKXKXKXKXKXKXKXKXKXKXKXKXKXKXKXKXKXKXKXKXKXKXKXKXKXKXKXKXKXKXGX{ & a a r v  .6XCX        FXrXb ! a.j.2.7.2.7.9.2.2.2.2.7.7.2.2.3.2.2.2.3.3.2.2.2.2.7.2.2.7.7.7.7.7.7.7.7.2.2.2.7.7.9.9.9.5.5.x.' a 6X                                                                                                                                                                                                                                ",
"                                                                                                                                                                yXa ^ a.f.<.4.9.4.4.,.<.,.,.<.<.>.>.:.:.-.:.,.:.>.:.:.:.-.:.>.-.>.1.1.1.>.:.:.>.>.>.>.,.6.*.0 ~ 6.,.,.2.:.>.2.4.6.#.i r.                      iXJ P FXHXHXHXKXKXKXKXKXKXKXKXKXKXKXKXKXKXKXKXKXKXKXKXKXKXKXKXKXKXKXKXKXKXKXKXKXKXKXKXKXKXKXKXKXKXKXKXKXKXKXKXKXKX .d cXKXKXKXKXKXKXKXKXKXKXKXKXKXKXKXKXKXKXKXKXKXKXKXKXKXKXKXKXKXKXKXKXKXKXKXKXKXKXKXKXKXKXKXKXKXKXKXKXKXKXKXKXKXKXKXKXKXKXKXKXKXKXKXKXKXKXcXc 7XHXJXKXKXKXKXKXKXKXKXKXKXKXKXKXKXKXKXKXKXKXKXKXKXKXKXKXKXKXKXKXKXHXSXv r w.u.` l t j [ 5XyXiXCXyX[ i @.g.9.7.2.2.7.7.7.2.2.2.2.2.2.2.8.8.3.3.8.7.2.2.2.2.2.2.2.7.7.7.7.7.7.7.9.7.7.7.7.9.9.9.9.9.j.a.^ v iX                                                                                                                                                                                                                                ",
"                                                                                                                                                                  { i @.g.6.6.4.4.4.,.<.>.>.:.<.,.<.:.:.-.:.:.:.:.:.:.-.-.=.>.:.>.>.>.>.>.:.:.:.>.>.>.<.,.&.p p %.,.:.:.:.>.1.4.&.Q v vX                      } x cXKXKXKXKXKXKXKXKXKXKXKXKXKXKXKXKXKXKXKXKXKXKXKXKXKXKXKXKXKXKXKXKXKXKXKXKXKXKXKXKXKXKXKXKXKXKXKXKXKXKXKXKXKXKXqXd 4XHXKXKXKXKXKXKXKXKXKXKXKXKXKXKXKXKXKXKXKXKXKXKXKXKXKXKXKXKXKXKXKXKXKXKXKXKXKXKXKXKXKXKXKXKXKXKXKXKXKXKXKXKXKXKXKXKXKXKXKXKXKXKXKXKXKXDXP P DXKXHXHXKXKXKXKXKXKXKXKXKXKXKXKXKXKXKXKXKXKXKXKXKXKXKXKXKXKXKXKXKXcXy p i.x.z.$.` z r a a v L v r ^ c.5.9.7.2.2.7.7.8.7.2.2.2.7.2.7.7.2.3.3.8.7.2.2.2.2.2.7.7.7.7.7.7.7.7.7.9.7.7.7.7.7.7.9.9.9.k.u.z [ CX                                                                                                                                                                                                                                ",
"                                                                                                                                                                  yXv z u.5.6.<.6.4.,.<.>.>.,.<.,.>.:.:.>.>.>.>.:.:.>.:.:.:.>.>.>.>.>.>.>.:.>.>.>.>.>.<.<.6./ l %.,.:.:.>.,.2.6.+.r ..FX                    5Xg 7XGXHXKXKXKXKXKXKXKXKXKXKXKXKXKXKXKXKXKXKXKXKXKXKXKXKXKXKXKXKXKXKXKXKXKXKXKXKXKXKXKXKXKXKXKXKXKXKXKXKXKXKXKXHXKXVXx U PXKXKXKXKXKXKXKXKXKXKXKXKXKXKXKXKXKXKXKXKXKXKXKXKXKXKXKXKXKXKXKXKXKXKXKXKXKXKXKXKXKXKXKXKXKXKXKXKXKXKXKXKXKXKXKXKXKXKXKXKXKXKXKXKXKXKX7Xd wXKXKXKXKXKXKXKXKXKXKXKXKXKXKXKXKXKXKXKXKXKXKXKXKXKXKXKXKXKXKXKXKX8Xe ! c.k.k.g.h.$.' ~ u 9 % % i @.g.9.9.7.2.2.2.7.7.8.2.2.2.2.2.7.2.2.2.7.7.7.7.7.7.7.7.7.7.7.7.7.7.2.7.,.9.7.7.7.7.7.9.7.9.9.f.#.a }                                                                                                                                                                                                                                   ",
"                                                                                                                                                                    r.i ^ a.6.4.6.4.4.<.<.<.,.,.:.:.:.>.:.:.,.,.,.,.>.:.<.>.:.>.>.>.>.>.>.>.>.>.>.>.:.>.:.4.%.*.<.,.,.2.,.2.2.5.#.u X.ZX                  iXH } AXHXHXKXKXKXKXKXKXKXKXKXKXKXKXKXKXKXKXKXKXKXKXKXKXKXKXKXKXKXKXKXKXKXKXKXKXKXKXKXKXKXKXKXKXKXKXKXKXKXKXKXKXKXHXKXFXP G DXKXKXKXKXKXKXKXKXKXKXKXKXKXKXKXKXKXKXKXKXKXKXKXKXKXKXKXKXKXKXKXKXKXKXKXKXKXKXKXKXKXKXKXKXKXKXKXKXKXKXKXKXKXKXKXKXKXKXKXKXKXKXKXKXHXKXcXx 4XLXKXLXKXKXKXKXKXKXKXKXKXKXKXKXKXKXKXKXKXKXKXKXKXKXKXKXKXKXKXKXGX .9 O.z.f.j.j.f.g.h.p.@._ 9 & ` h.j.4.9.7.2.2.2.7.7.7.2.7.2.2.7.7.2.2.7.7.7.7.7.7.7.7.7.7.7.7.7.7.7.7.,.,.7.7.7.7.7.7.9.9.9.9.g.O.i 5X                                                                                                                                                                                                                                  ",
"                                                                                                                                                                    CX{ i O.h.4.4.4.4.,.4.,.,.<.:.:.-.>.>.:.>.,.>.>.:.>.>.>.:.:.:.>.,.>.>.>.>.>.>.>.>.>.,.,.4.4.,.>.,.2.>.,.2.5.a.Q b iX                  } x cXHXKXKXKXKXKXKXKXKXKXKXKXKXKXKXKXKXKXKXKXKXKXKXKXKXKXKXKXKXKXKXKXKXKXKXKXKXKXKXKXKXKXKXKXKXKXKXKXKXKXKXKXKXKXKXKXHX .f VXKXKXKXKXKXKXKXKXKXKXKXKXKXKXKXKXKXKXKXKXKXKXKXKXKXKXKXKXKXKXKXKXKXKXKXKXKXKXKXKXKXKXKXKXKXKXKXKXKXKXKXKXKXKXKXKXKXKXKXKXKXKXKXKXKXKXFXU J VXKXKXKXKXKXKXKXKXKXKXKXKXKXKXKXKXKXKXKXKXKXKXKXKXKXKXKXKXKXKXZXb t u.k.9.9.9.9.6.5.f.a.' 0 p $.5.9.,.7.7.7.7.7.7.7.7.,.2.2.2.2.2.>.>.2.2.2.7.7.7.7.7.7.8.7.7.2.7.7.7.7.9.9.9.7.7.7.7.9.9.9.f.z.` a yX                                                                                                                                                                                                                                  ",
"                                                                                                                                                                      yXv i #.g.6.6.5.4.,.4.,.<.<.>.:.:.=.:.:.:.:.=.=.=.>.:.:.:.:.>.>.:.>.>.>.>.,.>.:.-.,.,.,.,.>.:.:.,.<.<.2.4.f.+.r ..                qXx 5XHXHXKXKXKXKXKXKXKXKXKXKXKXKXKXKXKXKXKXKXKXKXKXKXKXKXKXKXKXKXKXKXKXKXKXKXKXKXKXKXKXKXKXKXKXKXKXKXKXKXKXKXKXKXKXKXKXKXeX6 wXKXKXKXKXKXKXKXKXKXKXKXKXKXKXKXKXKXKXKXKXKXKXKXKXKXKXKXKXKXKXKXKXKXKXKXKXKXKXKXKXKXKXKXKXKXKXKXKXKXKXKXKXKXKXKXKXKXKXKXKXKXKXKXKXKXKXKXqXx wXKXKXKXKXKXKXKXKXKXKXKXKXKXKXKXKXKXKXKXKXKXKXKXKXKXKXLXKXKXHXtXe Q c.g.9.9.5.5.4.9.6.%.l u O.h.9.7.,.7.7.7.7.7.8.7.7.2.7.2.7.7.7.2.,.2.2.2.2.7.7.7.7.2.2.2.2.7.7.7.7.7.4.7.7.7.7.7.7.9.9.9.k.a.! v iX                                                                                                                                                                                                                                  ",
"                                                                                                                                                                        rXa l u.h.6.4.4.<.,.<.<.>.>.:.>.:.:.>.>.>.>.-.-.:.:.:.:.:.>.>.-.:.>.>.>.2.>.-.-.1.2.1.>.:.:.:.,.>.<.,.,.5.&.Q v pX            CX} J SXHXKXKXKXKXKXKXKXKXKXKXKXKXKXKXKXKXKXKXKXKXKXKXKXKXKXKXKXKXKXKXKXKXKXKXKXKXKXKXKXKXKXKXKXKXKXKXKXKXKXKXKXKXKXKXKXKXHXwX- 7XHXKXKXKXKXKXKXKXKXKXKXKXKXKXKXKXKXKXKXKXKXKXKXKXKXKXKXKXKXKXKXKXKXKXKXKXKXKXKXKXKXKXKXKXKXKXKXKXKXKXKXKXKXKXKXKXKXKXKXKXKXKXKXKXKXHXKXVXF | LXKXKXKXKXKXKXKXKXKXKXKXKXKXKXKXKXKXKXKXKXKXKXKXKXKXKXKXKXGX..9 ` z.g.f.5.5.5.4.9.6./ u ( q.6.4.7.4.7.7.7.7.7.7.7.7.2.2.7.8.7.7.7.7.2.2.2.2.7.7.7.7.2.2.7.7.2.7.7.7.7.7.,.,.7.7.9.9.9.9.9.k.p.l [ CX                                                                                                                                                                                                                                  ",
"                                                                                                                                                                          5Xa ! $.h.6.6.<.<.<.<.>.>.-.:.>.>.>.,.,.,.:.:.:.:.:.:.:.>.>.>.>.>.>.>.2.1.>.>.1.1.1.>.>.>.>.2.:.:.>.,.2.k.#.u ..            6Xx 8XHXHXKXKXKXKXKXKXKXKXKXKXKXKXKXKXKXKXKXKXKXKXKXKXKXKXKXKXKXKXKXKXKXKXKXKXKXKXKXKXKXKXKXKXKXKXKXKXKXKXKXKXKXKXKXKXKXKXKXBXd  .HXKXKXKXKXKXKXKXKXKXKXKXKXKXKXKXKXKXKXKXKXKXKXKXKXKXKXKXKXKXKXKXKXKXKXKXKXKXKXKXKXKXKXKXKXKXKXKXKXKXKXKXKXKXKXKXKXKXKXKXKXKXKXKXKXKXKXFXU J DXKXKXKXKXKXKXKXKXKXKXKXKXKXKXKXKXKXKXKXKXKXKXKXKXKXKXKXKXZXv r @.x.f.5.5.5.4.9.9.6.+.+.&.5.4.,.,.,.7.7.7.7.8.7.7.8.7.7.2.2.2.2.7.7.2.2.2.2.7.7.7.7.2.2.8.7.7.7.2.2.9.9.7.7.7.7.9.9.9.9.5.g.@.i ..                                                                                                                                                                                                                                    ",
"                                                                                                                                                                            ..a z y.h.6.4.<.,.<.<.,.>.>.2.,.,.,.,.,.,.>.,.,.>.-.=.=.=.=.:.>.>.:.2.,.>.1.2.2.2.>.2.,.,.,.,.>.1.1.2.9.a.Q b pX        vXL P SXHXHXKXKXKXKXKXKXKXKXKXKXKXKXKXKXKXKXKXKXKXKXKXKXKXKXKXKXKXKXKXKXKXKXKXKXKXKXKXKXKXKXKXKXKXKXKXKXKXKXKXKXKXKXKXKXKXKXKXZXx  .HXKXKXKXKXKXKXKXKXKXKXKXKXKXKXKXKXKXKXKXKXKXKXKXKXKXKXKXKXKXKXKXKXKXKXKXKXKXKXKXKXKXKXKXKXKXKXKXKXKXKXKXKXKXKXKXKXKXKXKXKXKXKXKXKXKXKXKX7Xx VXKXKXKXKXKXKXKXKXKXKXKXKXKXKXKXKXKXKXKXKXKXKXKXKXKXKXHXKXqXe z p.j.9.9.9.9.9.9.4.4.6.6.4.,.,.2.2.,.2.7.7.7.7.7.8.7.7.2.,.2.2.2.2.2.2.2.2.7.7.7.7.7.7.7.7.7.7.7.7.7.7.7.7.7.7.7.9.9.9.9.9.h.' a 6X                                                                                                                                                                                                                                    ",
"                                                                                                                                                                              r.a l @.a.f.4.4.,.,.,.<.,.,.<.,.,.:.>.,.,.<.>.>.-.-.=.=.-.-.=.:.>.,.,.2.2.2.2.1.:.2.2.,.,.2.2.1.1.2.9.f.#.i { CX      | x uXHXHXHXKXKXKXKXKXKXKXKXKXKXKXKXKXKXKXKXKXKXKXKXKXKXKXKXKXKXKXKXKXKXKXKXKXKXKXKXKXKXKXKXKXKXKXKXKXKXKXKXKXKXKXKXKXKXKXKXKXDXJ U LXKXKXKXKXKXKXKXKXKXKXKXKXKXKXKXKXKXKXKXKXKXKXKXKXKXKXKXKXKXKXKXKXHXKXKXKXKXKXKXKXKXKXKXKXKXKXKXKXKXKXKXKXKXKXKXKXKXKXKXKXKXKXKXKXKXKXKXuXx eXHXKXKXKXKXKXKXKXKXKXKXKXKXKXKXKXKXKXKXKXKXKXKXKXKXHXKXGX{ e ` g.9.7.4.7.7.9.4.7.,.4.7.7.2.,.7.7.,.,.7.7.7.2.7.7.7.7.2.2.2.2.2.2.1.>.>.2.7.7.7.7.7.7.7.7.7.7.7.7.7.7.7.7.7.7.9.9.9.5.9.9.h.^ v iX                                                                                                                                                                                                                                    ",
"                                                                                                                                                                                ..a i ` $.f.<.<.,.,.:.:.<.>.:.,.:.<.,.,.,.>.,.,.>.>.:.=.>.>.:.:.>.2.2.,.,.2.>.:.,.,.2.2.2.2.>.>.,.,.6.a.^ a r.FXPXqXx  .GXLXLXKXKXKXKXKXKXKXKXKXKXKXKXKXKXKXKXKXKXKXKXKXKXKXKXKXKXKXKXKXKXKXKXKXKXKXKXKXKXKXKXKXKXKXKXKXKXKXKXKXKXKXKXKXKXKXKXKXKXGXP P PXKXKXKXKXKXKXKXKXKXKXKXKXKXKXKXKXKXKXKXKXKXKXKXKXKXKXKXKXKXKXKXKXHXKXKXKXKXKXKXKXKXKXKXKXKXKXKXKXKXKXKXKXKXKXKXKXKXKXKXKXKXKXKXKXKXKXKXSXJ U LXKXKXKXKXKXKXKXKXKXKXKXKXKXKXKXKXKXKXKXKXKXKXKXKXHXHXCXb t u.k.9.9.4.4.9.4.4.2.7.7.7.7.2.2.7.7.2.,.2.7.7.2.7.7.2.7.2.2.2.2.2.2.2.2.2.2.2.2.7.7.7.7.7.7.7.7.7.7.7.7.7.7.7.9.9.9.9.9.9.j.&.Q [ ZX                                                                                                                                                                                                                                    ",
"                                                                                                                                                                                  7Xa r Q $.6.4.<.,.:.:.<.<.,.2.>.2.,.,.:.:.,.2.2.>.>.2.2.>.:.>.1.2.,.,.:.>.>.:.,.,.2.2.1.>.:.:.<.<.<.6.u.u v iXBXK f cXHXHXKXHXKXKXKXKXKXKXKXKXKXKXKXKXKXKXKXKXKXKXKXKXKXKXKXKXKXKXKXKXKXKXKXKXKXKXKXKXKXKXKXKXKXKXKXKXKXKXKXKXKXKXKXKXKXKXKXKXKXHXP J DXKXHXKXKXKXKXKXKXKXKXKXKXKXKXKXKXKXKXKXKXKXKXKXKXKXKXKXKXKXKXKXKXKXKXKXKXKXKXKXKXKXKXKXKXKXKXKXKXKXKXKXKXKXKXKXKXKXKXKXKXKXKXKXKXKXKXKXGXe.F SXKXKXKXKXKXKXKXKXKXKXKXKXKXKXKXKXKXKXKXKXKXKXKXKXKXHXr.e Q c.j.7.4.4.4.4.4.4.7.7.,.7.2.,.7.7.7.2.,.,.7.7.2.7.7.2.7.7.7.2.2.2.2.2.2.2.1.2.2.7.7.7.2.2.2.2.7.7.7.7.7.7.7.7.7.7.7.9.0.j.g.$.z ..                                                                                                                                                                                                                                      ",
"                                                                                                                                                                                    rX[ 9 l &.5.<.4.<.<.,.,.,.,.,.>.,.,.,.,.,.,.>.:.:.1.>.>.>.>.>.:.:.>.>.>.>.,.,.,.2.2.>.>.2.,.>.>.>.6.f./ & K P * * P e.7X6XuXBXSXFXHXKXHXKXHXKXKXKXKXKXKXKXKXKXKXKXKXKXKXKXKXKXKXKXKXKXKXKXKXKXKXKXKXKXKXKXKXKXKXKXKXKXKXKXKXKXKXKXKXKXKXKXKXHXKXP x IXKXHXKXKXKXKXKXKXKXKXKXKXKXKXKXKXKXKXKXKXKXKXKXKXKXKXKXKXKXKXKXKXKXKXKXKXKXKXKXKXKXKXKXKXKXKXKXKXKXKXKXKXKXKXKXKXKXKXKXKXKXKXKXKXKXKXKXHXqXf qXKXKXKXKXKXKXKXKXKXKXKXKXKXKXKXKXKXKXKXKXKXHXKXKXKXAXv e @.x.j.4.4.4.4.4.9.7.7.2.7.7.2.2.2.2.2.,.2.2.2.2.7.7.7.7.7.7.7.8.2.2.2.2.2.2.2.2.2.2.2.2.2.2.2.2.,.2.7.7.7.7.7.7.7.7.9.9.5.f.x.' a 6X                                                                                                                                                                                                                                      ",
"                                                                                                                                                                                      vX .r ( f.4.,.,.,.,.,.<.<.,.>.,.,.2.2.,.,.2.>.>.2.1.:.:.>.>.-.=.=.=.>.>.,.,.,.2.2.2.2.2.>.>.>.>.<.9.&.~ % $ O O O O $ & & y b J e.8XcXSXGXHXKXKXKXKXKXHXHXKXKXKXKXKXKXKXKXKXKXKXKXKXKXKXKXKXKXKXKXKXKXKXKXKXKXKXKXKXKXKXKXKXKXKXKXKXKXKXKXHXKX7XF VXLXKXKXKXKXKXKXKXKXKXKXKXKXKXKXKXKXKXKXKXKXKXKXKXKXKXKXKXKXKXKXKXKXKXKXKXKXKXKXKXKXKXKXKXKXKXKXKXKXKXKXKXKXKXKXKXKXKXKXKXKXKXKXKXKXKXKXHXVXx e.HXKXKXKXKXKXKXKXKXKXKXKXKXKXKXKXKXKXKXKXKXHXKXKXKXpXr l p.k.j.4.4.4.4.4.7.7.7.7.4.7.7.2.2.2.2.2.2.2.2.2.7.7.7.7.7.7.7.7.2.2.2.2.7.7.2.2.2.2.2.2.7.2.2.2.2.2.2.7.7.7.7.7.7.7.9.9.9.k.h.~ v iX                                                                                                                                                                                                                                      ",
"                                                                                                                                                                                        CXv Q a.f.<.<.,.,.<.<.<.>.>.,.,.,.,.<.:.,.,.>.2.>.=.-.=.=.>.>.=.>.>.>.2.,.,.2.2.2.2.>.>.>.:.>.,.,.6.@.t $ f 4XU O e ^ Q l l r r e r v { 7XcXSXGXKXKXHXKXKXKXKXKXKXKXKXKXKXKXKXKXKXKXKXKXKXKXKXKXKXKXKXKXKXKXKXKXKXKXKXKXKXKXKXKXKXKXKXKXKXHX7Xc VXJXKXKXKXKXKXKXKXKXKXKXKXKXKXKXKXKXKXKXKXKXKXKXKXKXKXKXKXKXKXKXKXKXKXKXKXKXKXKXKXKXKXKXKXKXKXKXKXKXKXKXKXKXKXKXKXKXKXKXKXKXKXKXKXKXKXKXKXDXJ L DXKXKXKXKXKXKXKXKXKXKXKXKXKXKXKXKXKXKXKXHXHXKXHXFX{ 9 O.h.9.0.0.9.9.9.9.9.7.7.7.4.7.7.,.2.2.2.2.2.2.2.2.7.7.2.7.7.7.7.7.7.7.7.2.7.7.7.7.7.2.2.2.7.7.7.7.2.2.7.7.9.9.9.9.9.9.9.9.4.f.$.l [ CX                                                                                                                                                                                                                                      ",
"                                                                                                                                                                                           .i u.f.4.,.,.,.<.<.>.:.>.,.,.:.:.:.:.>.>.>.>.:.-.-.=.>.1.1.>.>.>.>.2.>.,.2.2.2.,.:.-.=.-.:.2.2.4.&.( & J GX4X& ' x.h.a.a.$.O.` Q i t e t v { 8XcXAXHXHXKXKXKXKXKXKXKXKXKXKXKXKXKXKXKXKXKXKXKXKXKXKXKXKXKXKXKXKXKXKXKXKXKXKXKXKXKXKXKXKXKX8Xc wXKXHXKXKXKXKXKXKXKXKXKXKXKXKXKXKXKXKXKXKXKXKXKXKXKXKXKXKXKXKXKXKXKXKXKXKXKXKXKXKXKXKXKXKXKXKXKXKXKXKXKXKXKXKXKXKXKXKXKXKXKXKXKXKXKXKXKXHXHXe.x VXKXKXJXKXKXKXKXKXKXKXKXKXKXKXKXKXKXKXKXKXKXHXHXiXy l i.h.7.9.9.7.9.9.9.9.7.7.7.,.7.7.,.,.2.2.2.2.2.2.2.2.2.,.2.7.7.7.7.7.7.7.2.2.2.7.7.7.2.7.7.2.2.7.7.7.7.7.4.4.9.9.0.7.7.9.9.9.g.#.p r.                                                                                                                                                                                                                                        ",
"                                                                                                                                                                                          7Xi O.g.,.,.,.,.,.<.<.>.>.>.<.:.:.:.>.:.>.>.>.>.-.-.-.-.>.>.:.>.1.1.1.>.,.,.:.<.,.>.=.=.=.,.2.2.,.<.%.l 9 L e i p.j.9.5.5.f.k.g.h.&.%.+.Q i r r a v r.cXSXHXKXKXKXHXKXKXKXKXKXKXKXKXKXKXKXKXKXKXKXKXKXKXKXKXKXKXKXKXKXKXKXKXKXKXKXKXKXKXKXqXc wXKXKXKXKXKXKXKXKXKXKXKXKXKXKXKXKXKXKXKXKXKXKXKXKXKXKXKXKXKXKXKXKXKXKXKXKXKXKXKXKXKXKXKXKXKXKXKXKXKXKXKXKXKXKXKXKXKXKXKXKXKXKXKXKXKXKXKXKXKXqXf qXKXKXKXKXKXKXKXKXKXKXKXKXKXKXKXKXKXKXKXKXKXKXFX{ e ` g.j.9.9.9.9.9.9.9.9.7.7.7.9.7.7.2.7.7.7.,.7.7.,.,.2.7.2.2.2.7.7.0.7.7.7.7.2.2.2.2.7.7.7.2.7.7.7.7.7.7.7.7.7.9.9.9.9.9.7.9.j.h.^ v yX                                                                                                                                                                                                                                        ",
"                                                                                                                                                                                          iXj ! g.4.,.,.4.,.,.,.<.>.>.>.:.:.:.:.>.>.>.>.>.:.-.-.>.>.1.1.1.1.1.2.2.2.>.:.:.>.>.=.-.=.>.,.,.,.<.6.#.r $ 9 O.f.4.,.<.4.9.9.0.9.5.6.f.z.p.#.^ Q i e y P 7XBXFXHXKXKXKXKXKXKXKXKXKXKXKXKXKXKXKXKXKXKXKXKXKXKXKXKXKXKXKXKXKXKXKXKXKXKXKXKXqXf wXKXHXKXKXKXKXKXKXKXKXKXKXKXKXKXKXKXKXKXKXKXKXKXKXKXKXKXKXKXKXKXKXKXKXKXKXKXKXKXKXKXKXKXKXKXKXKXKXKXKXKXKXKXKXKXKXKXKXKXKXKXKXKXKXKXKXKXKXKXBXx 4XLXKXKXKXKXKXKXKXKXKXKXKXKXKXKXKXKXKXKXKXKXKX8Xr l p.k.9.9.9.9.9.9.9.7.9.4.2.7.9.7.7.7.7.7.7.,.2.7.7.2.2.2.2.2.2.7.7.7.7.7.7.7.2.7.7.7.8.7.7.7.7.7.7.7.7.7.7.7.7.2.7.9.9.9.9.9.g.u.! [ CX                                                                                                                                                                                                                                        ",
"                                                                                                                                                                                            [ z p.9.<.<.,.<.<.>.>.>.>.>.,.<.:.:.>.>.>.>.>.:.>.-.>.>.2.2.2.1.1.1.2.2.1.=.>.>.>.:.=.:.:.>.:.,.,.4.&.( 9 9 #.f.4.<.<.,.4.9.7.4.4.4.5.f.f.g.h.p.$.+.Q t e y { 8XSXHXKXKXKXKXKXKXKXKXKXKXKXKXKXKXKXKXKXKXKXKXKXKXKXKXKXKXKXKXKXKXKXKXKXKXqXd wXKXHXKXKXKXKXKXKXKXKXKXKXKXKXKXKXKXKXKXKXKXKXKXKXKXKXKXKXKXKXKXKXKXKXKXKXKXKXKXKXKXKXKXKXKXKXKXKXKXKXKXKXKXKXKXKXKXKXKXKXKXKXKXKXKXKXKXJXKXSXJ P DXKXHXKXKXKXKXKXKXKXKXKXKXKXKXKXKXKXKXKXKXZXv 9 O.z.j.9.9.9.9.7.9.7.7.9.7.2.7.2.7.7.7.7.7.7.2.2.2.7.2.2.2.2.2.2.7.7.2.2.7.7.7.7.7.7.7.8.8.7.7.7.7.7.7.8.8.7.7.7.2.,.7.9.9.0.j.g.#.a r.                                                                                                                                                                                                                                          ",
"                                                                                                                                                                                            5Xa @.g.4.<.,.<.>.>.>.>.>.>.,.,.>.:.>.:.:.:.>.>.>.-.:.>.2.2.2.>.>.1.1.1.1.=.>.=.=.>.>.>.>.>.:.:.,.4.4.&.~ 9 Q &.5.<.<.<.4.9.,.,.,.4.9.4.<.<.6.5.f.g.a.@.' ! t t b e.uXFXHXKXKXKXKXKXKXKXKXKXKXKXKXKXKXKXKXKXKXKXKXKXKXKXKXKXKXKXKXKXHXKXyXd wXKXHXKXKXKXKXKXKXKXKXKXKXKXKXKXKXKXKXKXKXKXKXKXKXKXKXKXKXKXKXKXKXKXKXKXKXKXKXKXKXKXKXKXKXKXKXKXKXKXKXKXKXKXKXKXKXKXKXKXKXKXKXKXKXKXKXKXKXKXGXU x VXKXKXKXKXKXKXKXKXKXKXKXKXKXKXKXKXKXKXLXGX5Xe z p.x.j.9.9.9.9.4.7.7.0.7.7.2.7.,.,.2.2.2.7.7.2.7.2.2.2.2.,.2.2.2.2.2.2.2.7.7.7.7.7.7.2.7.2.7.7.7.7.7.7.8.8.8.8.7.,.,.7.9.9.0.j.a.^ v yX                                                                                                                                                                                                                                          ",
"                                                                                                                                                                                            iXv Q z.6.,.<.<.,.<.:.>.,.>.,.,.,.>.>.>.>.,.<.>.>.>.>.>.,.2.,.1.1.1.1.1.1.>.>.=.=.;.:.>.>.2.,.,.,.2.2.j.a.p 9 / &.9.<.2.,.<.4.4.7.,.4.,.,.4.5.5.5.9.j.k.g.a.$.( l r t { pXFXKXHXKXKXKXKXKXKXKXKXKXKXKXKXKXKXKXKXKXKXKXKXKXKXKXKXKXKXHXKXpXd wXKXHXKXKXKXKXKXKXKXKXKXKXKXKXKXKXKXKXKXKXKXKXKXKXKXKXKXKXKXKXKXKXKXKXKXKXKXKXKXKXKXKXKXKXKXKXKXKXKXKXKXKXKXKXKXKXKXKXKXKXKXKXKXKXKXKXKXKXHXHX8Xf wXKXKXKXKXKXKXKXKXKXKXKXKXKXKXKXKXKXHXHXpXy t @.h.j.0.9.9.9.9.7.7.7.7.9.2.2.,.7.,.<.,.2.2.2.2.2.2.2.2.2.2.2.2.7.2.2.2.7.7.7.7.7.7.7.7.2.2.7.7.8.7.7.2.7.2.2.7.7.7.7.9.9.9.j.g.p.Q [ ZX                                                                                                                                                                                                                                          ",
"                                                                                                                                                                                              { p i.f.,.<.<.<.<.:.>.,.>.<.,.,.>.:.>.<.,.>.:.:.>.:.:.>.>.>.1.1.1.1.1.1.2.>.>.1.1.1.>.>.1.2.2.2.2.8.0.f.#.u 0 ( h.9.7.4.<.,.,.7.2.2.2.,.,.4.4.4.7.,.7.0.5.f.h.u.` l r t L 8XcXGXKXHXKXKXKXKXKXKXKXKXKXKXKXKXKXKXKXKXKXKXKXKXKXKXKXHXHXyXc cXKXHXKXKXKXKXKXKXKXKXKXKXKXKXKXKXKXKXKXKXKXKXKXKXKXKXKXKXKXKXKXKXKXKXKXKXKXKXKXKXKXKXKXKXKXKXKXKXKXKXKXKXKXKXKXKXKXKXKXKXKXKXKXKXKXKXKXHXKXKXBXx e.HXKXKXKXKXKXKXKXKXKXKXKXKXKXKXKXHXHXZXP e ` c.j.j.0.9.9.9.9.7.7.7.7.7.7.7.,.7.7.,.,.2.2.2.2.2.2.2.2.2.2.1.2.2.2.2.2.7.7.7.7.7.7.7.7.2.2.2.7.8.8.7.7.7.7.7.7.7.7.7.9.9.9.j.g.#.i r.                                                                                                                                                                                                                                            ",
"                                                                                                                                                                                              6Xt ' f.,.<.<.,.,.:.>.>.:.<.<.>.>.:.>.>.>.>.>.=.=.=.-.=.-.>.>.1.=.1.1.>.>.>.>.1.1.>.=.=.1.2.2.2.2.2.2.<.6.  0 0 ` h.j.4.,.<.2.2.2.2.7.,.,.,.4.4.,.7.9.9.5.9.9.j.h.p.@.^ t t v qXAXKXKXKXKXKXKXKXKXKXKXKXKXKXKXKXKXKXKXKXKXKXKXKXKXHXKX8Xx VXKXHXKXKXKXKXKXKXKXKXKXKXKXKXKXKXKXKXKXKXKXKXKXKXKXKXKXKXKXKXKXKXKXKXKXKXKXKXKXKXKXKXKXKXKXKXKXKXKXKXKXKXKXKXKXKXKXKXKXKXKXKXKXKXKXKXKXKXKXKXSXJ P DXKXKXKXKXKXKXKXKXKXKXKXKXKXKXKXKXGXr.e l p.g.j.9.j.9.9.9.9.9.9.7.7.7.4.9.9.9.9.7.4.2.7.7.7.2.2.2.2.2.2.1.1.2.7.2.7.7.7.7.7.7.7.7.7.2.2.2.7.7.7.7.7.7.7.7.7.7.9.9.9.9.9.j.a.^ v pX                                                                                                                                                                                                                                            ",
"                                                                                                                                                                                              cXv ! h.4.,.,.4.4.:.>.:.:.:.>.>.>.>.>.,.>.>.>.=.=.=.-.-.-.>.:.=.-.-.1.1.-.:.>.1.1.-.=.=.1.>.1.2.2.2.2.1.<.&.( 0 0 ( h.5.,.,.2.2.>.7.2.2.,.,.,.,.,.2.4.4.7.9.4.4.6.j.g.a.@.^ r t { pXGXKXHXKXKXKXKXKXKXKXKXKXKXKXKXKXKXKXKXKXKXKXKXKXLX5Xc BXHXKXKXKXKXKXKXKXKXKXKXKXKXKXKXKXKXKXKXKXKXKXKXKXKXKXKXKXKXKXKXKXKXKXKXKXKXKXKXKXKXKXKXKXKXKXKXKXKXKXKXKXKXKXKXKXKXKXKXKXKXKXKXKXKXKXKXKXKXKXPXe.d qXHXKXKXKXKXKXKXKXKXKXKXKXKXHXHXHXpXy r O.z.f.0.0.l.9.9.9.9.9.7.7.7.7.4.9.9.7.7.7.7.7.7.7.7.7.7.2.2.2.2.1.1.2.2.7.2.2.2.2.2.7.7.7.2.2.2.2.7.7.7.7.7.7.7.7.7.7.7.4.9.9.j.k.$.z { ZX                                                                                                                                                                                                                                            ",
"                                                                                                                                                                                                { p u.5.4.<.4.4.<.>.:.:.<.>.>.>.>.>.>.>.>.:.-.>.>.>.1.=.-.=.>.=.>.>.=.=.>.>.=.=.-.:.>.>.>.,.2.2.2.1.2.,.4.&.( 0 0 / &.4.<.,.,.>.:.,.,.,.,.,.,.,.2.4.7.7.7.9.9.4.5.5.f.k.h.+.Q r t  .BXHXHXKXKXHXKXKXKXKXKXKXKXKXKXKXKXKXKXKXKXKXKXHXe.x VXKXKXHXKXKXKXKXKXKXKXKXKXKXKXKXKXKXKXKXKXKXKXKXKXKXKXKXKXKXKXKXKXKXKXKXKXKXKXKXKXKXKXKXKXKXKXKXKXKXKXKXKXKXKXKXKXKXKXKXKXKXKXKXKXKXKXKXKXKXKXKXuXd P SXKXKXKXKXKXKXKXKXKXKXKXKXKXKXZXL e ` a.g.j.9.9.9.9.9.9.9.7.7.2.,.7.7.7.2.7.7.7.2.2.7.7.7.7.,.,.2.,.>.>.>.2.2.2.2.2.,.2.2.7.7.2.2.7.2.2.,.7.7.9.7.4.7.7.2.9.9.4.4.9.5.g.' z 5X                                                                                                                                                                                                                                              ",
"                                                                                                                                                                                                7Xa O.f.4.<.4.4.,.,.>.>.>.>.>.>.>.>.>.>.>.>.:.,.,.>.1.=.-.:.>.1.>.=.=.=.>.>.:.:.:.>.:.>.,.,.>.>.>.>.,.,.,.4.&.( u 0 / &.4.7.2.2.,.,.,.,.7.2.2.,.<.<.4.7.9.9.7.9.0.9.5.9.j.f.a.@.l r v 8XFXKXKXKXKXKXKXKXKXKXKXKXKXKXKXKXKXKXKXKXKXKX5Xc VXKXKXKXKXKXKXKXKXKXKXKXKXKXKXKXKXKXKXKXKXKXKXKXKXKXKXKXKXKXKXKXKXKXKXKXKXKXKXKXKXKXKXKXKXKXKXKXKXKXKXKXKXKXKXKXKXKXKXKXKXKXKXKXKXKXKXKXKXKXKXKXGXe.- 4XDXKXKXKXKXKXKXKXKXKXKXKXKXAX .9 ! a.g.5.j.9.9.9.9.9.9.9.9.7.2.7.7.7.7.2.7.7.7.,.7.7.7.7.7.7.7.2.2.,.,.>.2.2.2.2.4.7.2.2.7.7.2.,.2.2.2.,.,.7.7.4.4.7.7.4.9.9.9.9.5.g.p.~ v iX                                                                                                                                                                                                                                              ",
"                                                                                                                                                                                                iXv ^ z.5.<.<.,.,.,.<.>.>.>.>.>.:.>.>.:.>.>.:.2.>.>.1.1.>.>.,.2.=.=.=.=.=.=.=.-.:.:.-.>.>.>.>.-.>.>.>.,.<.,.4.&.+.~ p +.5.7.7.7.,.,.,.,.7.7.2.2.<.4.7.9.9.9.9.9.9.9.0.9.9.0.k.x.p.` i t { cXHXKXKXKXKXKXKXKXKXKXKXKXKXKXKXKXKXKXKXHX .x VXKXLXKXKXKXKXKXKXKXKXKXKXKXKXKXKXKXKXKXKXKXKXKXKXKXKXKXKXKXKXKXKXKXKXKXKXKXKXKXKXKXKXKXKXKXKXKXKXKXKXKXKXKXKXKXKXKXKXKXKXKXKXKXKXKXKXKXKXKXKXKXKXZXP d eXLXLXLXKXKXKXKXKXKXHXHXGX5Xe i $.k.f.5.5.9.9.9.9.9.9.9.7.9.9.9.9.9.7.2.2.2.2.,.7.7.2.2.7.7.7.2.2.2.,.,.2.7.7.7.7.7.2.2.2.7.7.2.7.2.2.2.,.2.7.,.4.7.7.4.0.9.9.9.j.g.#.z ..                                                                                                                                                                                                                                                ",
"                                                                                                                                                                                                ZX[ l p.5.<.,.,.<.>.:.:.:.:.:.:.>.>.>.:.:.:.-.>.>.=.>.1.2.1.,.,.>.=.=.=.=.=.-.=.:.:.=.>.>.>.>.:.=.>.>.,.,.,.:.<.6.%.( *.4.7.7.2.2.,.,.<.,.2.7.7.9.7.7.4.7.7.7.7.9.9.0.9.9.9.9.j.x.z.#.l e y 7XAXKXKXKXKXKXKXKXKXKXKXKXKXKXKXKXKXKXLXP P DXKXHXKXKXKXKXKXKXKXKXKXKXKXKXKXKXKXKXKXKXKXKXKXKXKXKXKXKXKXKXKXKXKXKXKXKXKXKXKXKXKXKXKXKXKXKXKXKXKXKXKXKXKXKXKXKXKXKXKXKXKXKXKXKXKXKXKXKXKXKXKXHXHXBXJ f eXDXHXHXKXKXKXKXKXHXGX8Xy i O.g.5.j.9.4.4.4.4.7.9.9.9.9.9.9.9.9.9.9.2.2.2.2.2.7.7.,.,.7.7.7.7.2.2.2.,.2.7.7.7.7.7.2.2.7.7.7.2.2.2.2.2.2.7.9.7.4.7.7.4.9.9.9.5.k.z.^ v pX                                                                                                                                                                                                                                                ",
"                                                                                                                                                                                                  ..i y.f.<.,.,.,.<.:.-.>.>.,.>.1.:.<.<.:.>.>.=.=.=.>.2.2.2.>.>.1.1.>.>.>.>.=.=.>.:.-.-.>.>.1.>.>.>.>.:.:.:.>.,.,.<.:.&.,.,.,.,.2.2.,.,.2.2.,.,.7.7.2.,.7.7.7.7.9.9.4.7.7.7.9.9.9.j.k.p.` t e P cXHXKXKXKXKXKXKXKXKXKXKXKXKXKXKXHXFXJ U HXKXHXKXKXKXKXKXKXKXKXKXKXKXKXKXKXKXKXKXKXKXKXKXKXKXKXKXKXKXKXKXKXKXKXKXKXKXKXKXKXKXKXKXKXKXKXKXKXKXKXKXKXKXKXKXKXKXKXKXKXKXKXKXKXKXKXKXKXKXKXKXKXKXHXuXJ f eXGXHXKXKXKXHXHXGX8Xy r O.z.k.9.4.4.9.5.7.4.9.9.j.0.9.9.9.9.7.7.9.9.,.,.2.2.,.,.,.,.,.,.2.2.2.2.2.,.,.,.,.,.,.7.7.,.7.7.7.2.2.2.2.2.,.9.9.9.9.7.2.2.9.9.5.f.g.@.z {                                                                                                                                                                                                                                                   ",
"                                                                                                                                                                                                  rXa ' g.<.<.,.,.<.:.-.:.>.>.2.2.>.<.,.<.>.>.>.>.>.>.2.2.2.>.>.>.>.>.>.>.>.=.=.>.>.=.-.>.>.1.>.>.>.:.>.:.:.>.,.,.>.:.:.2.2.,.,.,.,.>.,.2.2.2.,.7.7.2.,.2.7.7.2.9.9.,.7.7.7.9.9.9.7.7.j.z.y.l e b 8XGXHXKXKXKXKXKXKXKXKXKXKXKXKXKXVXx e.KXKXHXKXKXKXKXKXKXKXKXKXKXKXKXKXKXKXKXKXKXKXKXKXKXKXKXKXKXKXKXKXKXKXKXKXKXKXKXKXKXKXKXKXKXKXKXKXKXKXKXKXKXKXKXKXKXKXKXKXKXKXKXKXKXKXKXKXKXKXKXKXKXKXKXLXcXJ - e.IXHXKXHXKXGX7Xy e O.c.k.5.5.5.9.4.4.9.0.9.j.j.9.7.9.9.7.7.7.9.7.<.>.,.,.,.,.,.,.,.,.2.2.2.2.2.,.,.,.2.,.2.2.2.2.2.7.7.2.2.2.2.2.,.9.9.9.9.7.2.2.4.9.9.j.h.` b 6X                                                                                                                                                                                                                                                  ",
"                                                                                                                                                                                                  CX) ! a.4.<.,.<.>.:.:.:.:.>.1.>.,.<.<.>.>.>.1.>.>.,.2.2.>.>.>.>.>.>.=.>.1.1.>.>.>.>.=.-.:.-.-.:.:.:.>.>.>.>.1.>.>.,.,.2.2.>.:.>.:.>.,.,.2.2.2.7.2.2.2.,.2.2.,.7.7.<.7.7.7.7.7.7.7.4.j.f.x.a.` t y e.AXHXKXKXKXKXKXKXKXKXKXKXKXKXuXd 7XKXKXHXHXKXKXKXKXKXKXKXKXKXKXKXKXKXKXKXKXKXKXKXKXKXKXKXKXKXKXKXKXKXKXKXKXKXKXKXKXKXKXKXKXKXKXKXKXKXKXKXKXKXKXKXKXKXKXKXKXKXKXKXKXKXKXKXKXKXKXKXKXKXKXKXHXHXVXP - U VXHXKXDX5Xy r O.c.k.f.5.9.9.9.4.9.0.l.9.9.9.9.9.7.7.7.2.2.7.4.<.>.,.,.2.2.,.,.,.,.,.2.,.2.2.,.,.,.2.2.2.2.2.2.2.2.2.2.2.2.2.2.2.7.7.7.7.7.7.7.9.9.9.f.u.! [ CX                                                                                                                                                                                                                                                  ",
"                                                                                                                                                                                                    ..z p.5.4.7.<.>.:.:.>.:.>.>.:.,.<.:.>.:.>.1.2.2.,.2.,.:.-.=.=.=.=.=.=.>.1.>.1.>.>.>.:.>.>.:.:.>.>.>.2.>.:.>.>.>.>.2.>.1.>.>.:.:.>.,.>.,.2.2.2.2.2.7.,.2.2.,.,.,.<.7.,.,.,.,.7.9.9.6.5.f.k.h.O.l e { ZXHXKXKXKXKXKXKXKXKXKXKXKXuXf qXKXKXKXHXKXKXKXKXKXKXKXKXKXKXKXKXKXKXKXKXKXKXKXKXKXKXKXKXKXKXKXKXKXKXKXKXKXKXKXKXKXKXKXKXKXKXKXKXKXKXKXKXKXKXKXKXKXKXKXKXKXKXKXKXKXKXKXKXKXKXKXKXKXKXKXHXHXHXZXe.d G 8XuX .e t O.x.k.f.j.j.j.j.9.9.9.j.j.7.9.9.9.7.7.7.7.7.7.9.7.,.,.2.2.2.2.,.,.,.,.,.,.,.,.2.,.,.2.2.2.1.2.2.2.7.7.2.,.2.2.2.2.7.7.7.2.7.7.9.9.0.9.5.z.' z 6X                                                                                                                                                                                                                                                    ",
"                                                                                                                                                                                                    rXz @.g.5.,.<.:.:.:.,.2.1.1.>.:.-.-.>.>.>.>.1.2.2.<.>.>.=.=.=.=.=.=.=.>.>.1.1.>.>.>.>.>.1.>.1.>.,.7.,.>.1.1.>.>.>.>.>.1.1.1.>.>.>.2.>.2.2.2.,.,.2.,.7.7.7.2.,.4.7.7.7.,.<.<.,.4.4.4.9.5.5.k.g.$.l e P BXHXHXKXKXKXKXKXKXKXKXHX7Xf BXKXKXKXKXKXKXKXKXKXKXKXKXKXKXKXKXKXKXKXKXKXKXKXKXKXKXKXKXKXKXKXKXKXKXKXKXKXKXKXKXKXKXKXKXKXKXKXKXKXKXKXKXKXKXKXKXKXKXKXKXKXKXKXKXKXKXKXKXKXKXKXKXKXKXKXKXHXHXHXSX7Xf 6 d & t O.c.k.j.j.j.j.9.9.9.7.9.j.5.9.9.9.9.9.9.9.9.7.7.7.7.2.,.,.2.,.,.2.,.,.,.,.,.2.2.2.2.,.2.2.2.2.2.>.>.2.2.7.7.,.2.7.7.7.7.2.2.7.9.9.9.5.f.f.$.~ [ CX                                                                                                                                                                                                                                                    ",
"                                                                                                                                                                                                    aXv ^ x.5.<.<.:.:.:.,.,.2.1.>.:.-.:.1.>.=.=.=.>.,.>.>.=.=.=.=.>.=.=.=.1.2.2.1.1.>.:.:.>.=.>.>.>.,.2.,.>.>.>.>.>.>.>.>.>.1.1.>.1.1.2.2.2.2.2.2.2.,.,.7.7.2.,.,.,.7.7.,.,.,.,.4.4.4.4.9.5.9.j.j.k.i.^ e v uXHXHXHXKXKXHXKXKXKXLX4XF SXKXKXKXKXKXKXKXKXKXKXKXKXKXKXKXKXKXKXKXKXKXKXKXKXKXKXKXKXKXKXKXKXKXKXKXKXKXKXKXKXKXKXKXKXKXKXKXKXKXKXKXKXKXKXKXKXKXKXKXKXKXKXKXKXKXKXKXKXKXKXKXKXKXKXKXKXKXHXKXKXGXpXJ = & _ c.z.j.9.j.j.j.9.9.9.7.9.9.5.9.9.9.9.9.9.9.9.7.7.7.7.7.2.,.,.2.,.,.,.,.,.,.,.2.2.2.2.2.2.2.2.2.,.2.2.,.,.2.7.2.7.9.7.7.7.7.7.7.7.7.9.5.f.a.' z 7X                                                                                                                                                                                                                                                      ",
"                                                                                                                                                                                                      { l p.f.<.<.<.<.<.,.<.>.,.2.2.2.2.2.1.>.=.=.>.>.=.=.=.=.=.=.=.=.=.=.1.1.>.>.1.1.>.:.>.>.2.,.,.,.,.,.,.,.,.,.>.>.>.>.>.>.=.>.>.1.>.7.9.7.2.2.2.,.2.2.2.,.,.,.7.7.2.,.,.2.7.9.9.7.4.9.9.9.0.9.j.x.c.` r c pXHXKXKXKXKXKXKXKXGXU P FXKXKXKXKXKXKXKXKXKXKXKXKXKXKXKXKXKXKXKXKXKXKXKXKXKXKXKXKXKXKXKXKXKXKXKXKXKXKXKXKXKXKXKXKXKXKXKXKXKXKXKXKXKXKXKXKXKXKXKXKXKXKXKXKXKXKXKXKXKXKXKXKXKXKXKXKXKXKXHXHXKXHXcXP & z i.z.k.j.j.j.9.9.9.9.9.4.4.9.4.7.9.7.7.7.7.7.7.7.9.9.9.9.7.7.2.7.,.,.,.,.,.,.2.2.2.2.2.2.2.2.,.2.7.2.2.2.2.7.2.7.7.7.7.7.7.7.2.7.9.9.9.g.u.~ [ CX                                                                                                                                                                                                                                                      ",
"                                                                                                                                                                                                      r.i y.g.4.4.,.7.7.7.,.<.>.>.2.2.,.>.>.:.=.=.>.:.=.=.=.=.=.=.>.=.=.=.>.>.>.=.;.1.1.:.:.2.2.,.,.,.>.>.>.>.>.>.>.:.:.,.:.-.=.:.>.>.>.7.9.7.2.2.2.>.2.2.2.,.,.2.2.7.2.,.,.2.7.7.4.7.,.7.7.9.0.9.9.j.k.c.O.r y qXLXKXHXKXKXKXKXSXJ e.HXKXKXKXKXKXKXKXKXKXKXKXKXKXKXKXKXKXKXKXKXKXKXKXKXKXKXKXKXKXKXKXKXKXKXKXKXKXKXKXKXKXKXKXKXKXKXKXKXKXKXKXKXKXKXKXKXKXKXKXKXKXKXKXKXKXKXKXKXKXKXKXKXKXKXKXKXKXKXKXKXHXHXHXcXL e z i.x.j.j.j.9.9.9.9.9.4.6.9.,.2.7.7.7.7.7.7.2.7.7.9.9.9.7.7.7.7.,.<.,.,.,.2.2.2.2.2.2.2.2.7.7.9.7.7.,.,.7.7.2.7.7.7.7.7.7.2.7.7.9.9.5.h.' z 5X                                                                                                                                                                                                                                                        ",
"                                                                                                                                                                                                      iXj _ g.6.4.4.7.,.,.<.:.:.>.>.>.>.:.-.-.=.=.=.:.>.>.-.=.=.=.>.>.>.-.:.2.>.=.=.1.>.-.:.>.,.>.>.>.=.=.=.=.>.:.>.>.,.,.,.,.>.>.2.2.,.<.7.2.,.2.2.2.2.2.,.2.7.2.,.,.2.7.7.2.,.,.7.,.,.2.7.9.9.7.7.0.j.k.z.O.t y pXLXHXKXKXKXKXcXc eXHXKXKXKXKXKXKXKXKXKXKXKXKXKXKXKXKXKXKXKXKXKXKXKXKXKXKXKXKXKXKXKXKXKXKXKXKXKXKXKXKXKXKXKXKXKXKXKXKXKXKXKXKXKXKXKXKXKXKXKXKXKXKXKXKXKXKXKXKXKXKXKXKXKXKXKXKXKXKXKXKXKXKXHXHXcXv e l $.k.5.5.f.9.9.9.9.9.5.5.7.7.7.7.7.7.2.2.7.7.9.9.9.4.,.,.9.9.7.7.,.,.2.2.2.2.2.2.2.,.9.9.9.9.7.7.,.,.2.2.7.7.7.7.7.7.7.7.7.7.9.5.j.$.l [ aX                                                                                                                                                                                                                                                        ",
"                                                                                                                                                                                                        { z p.5.6.4.,.<.<.<.<.:.:.>.>.:.>.:.-.=.=.:.>.,.,.>.>.>.=.>.>.>.:.:.1.>.1.1.1.1.1.>.1.2.,.>.>.=.=.=.=.=.>.,.,.,.,.,.,.,.,.2.2.,.,.,.2.1.,.2.2.2.2.2.7.7.2.2.,.2.7.9.9.7.2.7.2.2.2.2.9.9.9.7.9.j.j.k.x.O.t c cXHXKXKXKXKX7Xd   HXKXKXKXKXKXKXKXKXKXKXKXKXKXKXKXKXKXKXKXKXKXKXKXKXKXKXKXKXKXKXKXKXKXKXKXKXKXKXKXKXKXKXKXKXKXKXKXKXKXKXKXKXKXKXKXKXKXKXKXKXKXKXKXKXKXKXKXKXKXKXKXKXKXKXKXKXKXKXKXKXKXKXKXHXHXcXv 9 l i.z.f.5.9.9.9.9.9.5.5.7.7.7.9.7.7.2.2.2.7.7.9.9.4.,.7.9.9.7.7.7.2.,.,.1.>.>.,.,.4.9.9.7.7.7.7.7.7.7.7.2.2.7.7.7.9.7.7.7.4.9.j.z.` a 5X                                                                                                                                                                                                                                                          ",
"                                                                                                                                                                                                        rXa O.h.5.4.<.<.<.,.,.:.<.,.>.>.>.:.:.-.=.=.:.>.>.>.>.>.=.>.1.>.:.:.>.>.-.>.>.1.2.1.1.2.>.>.>.=.1.1.>.>.2.,.,.,.>.>.>.>.>.,.,.,.,.2.2.1.>.2.7.7.,.,.,.2.1.1.>.,.,.7.7.7.7.7.,.2.7.9.9.9.9.9.9.f.5.f.k.c.O.e c cXKXKXKXHXP x SXJXKXKXKXKXKXKXKXKXKXKXKXKXKXKXKXKXKXKXKXKXKXKXKXKXKXKXKXKXKXKXKXKXKXKXKXKXKXKXKXKXKXKXKXKXKXKXKXKXKXKXKXKXHXHXKXKXKXKXKXKXKXKXKXKXKXKXKXKXKXKXKXKXKXKXKXKXKXKXKXKXKXKXKXKXHXHXvXP 9 ! i.z.5.9.9.9.9.5.5.5.7.7.9.9.9.9.7.2.7.9.7.9.9.2.,.7.7.7.7.2.7.2.2.,.2.,.,.,.,.7.7.7.2.,.,.4.7.7.7.7.2.2.7.7.7.9.9.9.7.4.9.h.y.z [ aX                                                                                                                                                                                                                                                          ",
"                                                                                                                                                                                                        CX) ^ a.5.4.<.,.<.,.,.:.,.,.,.>.>.>.:.-.=.=.=.:.=.=.>.-.-.>.>.:.:.:.>.1.-.>.-.>.1.>.>.>.-.-.>.>.>.1.>.>.,.>.<.>.>.>.>.>.,.>.,.,.,.2.2.2.>.2.9.9.<.:.<.,.>.1.1.>.,.,.,.7.2.2.,.7.9.9.9.9.9.9.9.5.f.j.j.x.y.t O F VXKXKXDXF P GXJXKXKXKXKXKXKXKXKXKXKXKXKXKXKXKXKXKXKXKXKXKXKXKXKXKXKXKXKXKXKXKXKXKXKXKXKXKXKXKXKXKXKXKXKXKXKXKXKXKXKXKXKXKXKXKXKXKXKXKXKXKXKXKXKXKXKXKXKXKXKXKXKXKXKXKXKXKXKXKXKXKXKXKXKXLXHXHXcXL e ! i.g.5.9.9.5.5.5.9.7.9.9.9.0.9.7.2.9.9.7.7.,.2.2.7.7.7.2.2.2.2.2.2.2.2.2.,.4.7.7.2.2.2.4.4.7.9.7.2.2.2.7.7.9.9.9.9.9.5.k.a.^ v 6X                                                                                                                                                                                                                                                            ",
"                                                                                                                                                                                                          X.z i.x.4.<.,.,.,.2.,.<.,.>.=.=.=.>.:.-.>.=.=.>.>.>.>.>.>.,.,.>.:.>.1.2.>.-.-.>.:.=.>.-.>.=.1.1.>.>.>.>.>.>.:.>.>.,.,.,.,.,.>.,.>.2.>.2.2.,.,.,.,.<.,.,.2.2.2.,.<.,.2.,.,.,.,.4.9.9.9.9.9.9.9.f.f.j.z.O.e - - J VXHXwX6 5XHXKXKXKXKXKXKXKXKXKXKXKXKXKXKXKXKXKXKXKXKXKXKXKXKXKXKXKXKXKXKXKXKXKXKXKXKXKXKXKXKXKXKXKXKXKXKXKXKXKXKXKXKXKXKXKXKXKXKXKXKXKXKXKXKXKXKXKXKXKXKXKXKXKXKXKXKXKXKXKXKXKXKXKXKXKXKXKXHXHXcXb 9 _ c.k.j.6.9.9.9.9.9.9.0.9.9.9.4.,.7.7.4.7.2.2.7.7.7.7.7.7.2.2.7.7.7.7.7.7.7.7.2.2.2.2.7.9.9.7.2.,.2.7.9.4.9.9.9.9.9.5.z.O.s  .ZX                                                                                                                                                                                                                                                            ",
"                                                                                                                                                                                                          rXa O.g.6.4.,.<.<.,.>.,.>.:.-.=.=.1.1.>.:.-.-.>.>.1.>.>.>.>.>.2.>.1.1.2.>.-.-.1.2.>.=.-.=.-.>.1.>.>.>.>.>.1.>.>.>.1.,.,.,.>.:.:.:.:.>.>.:.:.>.,.,.,.,.,.7.,.2.7.,.,.,.,.,.,.,.4.9.9.9.9.9.9.9.5.f.g.p.z & 7Xe.- P BX  6 pXKXKXKXKXKXKXKXKXKXKXKXKXKXKXKXKXKXKXKXKXKXKXKXKXKXKXKXKXKXKXKXKXKXKXKXKXKXKXKXKXKXKXKXKXKXKXKXKXKXKXKXKXKXKXKXKXKXKXKXKXKXKXKXKXKXKXKXKXKXKXKXKXKXKXKXKXKXKXKXKXKXKXKXKXKXKXKXKXKXHXGX6Xy e ` c.k.9.9.9.9.9.0.0.0.9.9.9.9.4.,.7.7.7.2.2.7.7.7.7.,.,.2.2.2.2.2.7.7.7.2.2.2.2.2.7.9.9.7.7.,.,.7.7.9.4.9.9.9.9.5.h.y.p v yX                                                                                                                                                                                                                                                              ",
"                                                                                                                                                                                                          CX) ! p.5.9.4.<.,.,.>.>.:.:.:.-.>.1.>.,.>.>.:.>.2.1.>.=.=.=.>.2.2.2.>.>.=.-.>.1.1.>.=.-.:.=.>.1.>.>.>.>.>.>.>.>.-.:.>.>.>.>.>.>.-.-.>.:.-.:.2.,.,.>.2.2.7.2.2.2.2.,.2.,.,.2.2.,.9.9.9.9.9.9.f.j.f.h.+.& P DXDXU - x 6 F SXKXKXKXKXKXKXKXKXKXKXKXKXKXKXKXKXKXKXKXKXKXKXKXKXKXKXKXKXKXKXKXKXKXKXKXKXKXKXKXKXKXKXKXKXKXKXKXKXKXKXKXKXKXKXKXKXKXKXKXKXKXKXKXKXKXKXKXKXKXKXKXKXKXKXKXKXKXKXKXKXKXKXKXKXKXKXKXKXKXHXKXFXr.e r O.z.5.9.9.9.9.0.0.0.9.9.9.9.7.,.7.7.2.2.7.7.7.7.,.,.,.2.2.,.,.,.4.7.7.,.,.,.,.7.7.9.9.9.7.,.,.2.7.7.9.7.7.9.5.5.p.^ a ..                                                                                                                                                                                                                                                                ",
"                                                                                                                                                                                                            r.a @.f.9.4.,.4.,.<.:.=.:.>.:.>.>.>.>.,.2.>.>.2.1.:.=.=.=.=.,.2.2.-.=.=.-.:.>.-.-.=.:.>.>.1.1.1.;.=.=.=.>.>.=.-.-.:.=.:.>.>.:.>.-.:.>.2.2.2.>.>.>.,.7.7.7.7.2.2.7.9.7.,.2.2.2.7.9.7.9.9.5.f.f.g.p.l & 8XHXHXVXF O O e.HXKXKXKXKXKXKXKXKXKXKXKXKXKXKXKXKXKXKXKXKXKXKXKXKXKXKXKXKXKXKXKXKXKXKXKXKXKXKXKXKXKXKXKXKXKXKXKXKXKXKXKXKXKXKXKXKXKXKXKXKXKXKXKXKXKXKXKXKXKXKXKXKXKXKXKXKXKXKXKXKXKXKXKXKXKXKXKXKXKXHXKXKXAX..e i @.g.k.j.9.9.0.0.0.9.9.9.9.9.7.2.2.,.2.7.7.7.,.,.,.,.,.2.>.<.,.4.7.7.,.,.,.,.7.9.9.9.4.,.2.2.,.7.7.9.7.9.9.f.h.' i [ aX                                                                                                                                                                                                                                                                ",
"                                                                                                                                                                                                            aXv ~ c.f.4.4.<.:.:.>.<.,.,.>.>.>.:.>.,.>.>.2.2.>.>.-.-.=.-.>.2.1.>.>.=.=.>.>.>.=.=.=.=.>.>.1.1.1.;.=.>.=.-.=.=.=.>.:.-.=.>.>.:.=.>.>.1.1.1.2.2.2.2.7.7.,.2.2.2.7.9.,.,.2.4.4.9.4.4.9.6.5.j.f.z.@.e & P 8XwX8Xx = c cXKXKXKXKXKXKXKXKXKXKXKXKXKXKXKXKXKXKXKXKXKXKXKXKXKXKXKXKXKXKXKXKXKXKXKXKXKXKXKXKXKXKXKXKXKXKXKXKXKXKXKXKXKXKXKXKXKXKXKXKXKXKXKXKXKXKXKXKXKXKXKXKXKXKXKXKXKXKXKXKXKXKXKXKXKXKXKXKXKXKXKXKXKXHXSXP & l $.z.k.9.j.0.0.9.9.9.9.9.9.7.7.4.4.7.7.7.7.7.,.,.,.,.,.,.,.,.4.7.7.2.2.,.,.7.7.4.4.7.7.7.7.7.4.4.9.4.5.9.g.@.l j 6X                                                                                                                                                                                                                                                                  ",
"                                                                                                                                                                                                               .l @.f.6.4.,.:.:.<.,.,.2.2.>.:.-.:.:.-.-.2.>.>.>.=.=.=.=.:.>.>.>.>.>.>.>.>.>.=.=.=.=.=.>.1.1.;.;.;.=.=.>.=.>.>.>.=.:.>.>.>.:.=.>.1.1.1.1.>.,.,.,.:.,.2.2.2.2.7.9.7.7.9.7.4.4.4.5.9.5.9.j.x.a.z & - - - 6 - - x 8XGXKXKXKXKXKXKXKXKXKXKXKXKXKXKXKXKXKXKXKXKXKXKXKXKXKXKXKXKXKXKXKXKXKXKXKXKXKXKXKXKXKXKXKXKXKXKXKXKXKXKXKXKXKXKXKXKXKXKXKXKXKXKXKXKXKXKXKXKXKXKXKXKXKXKXKXKXKXKXKXKXKXKXKXKXKXKXKXKXKXKXKXKXKXKXHXBXv 9 ^ a.x.j.l.0.0.9.9.9.9.9.9.9.9.9.9.9.9.7.7.7.2.2.2.,.,.,.,.4.7.7.7.7.2.2.,.7.7.7.2.,.7.2.7.2.7.4.9.4.5.5.p.^ a ..                                                                                                                                                                                                                                                                    ",
"                                                                                                                                                                                                              yXz ` h.5.4.,.:.:.,.,.,.,.,.>.>.>.:.-.:.>.>.>.>.1.>.>.:.:.>.>.>.:.>.>.>.>.>.:.:.=.=.=.>.1.1.>.1.1.=.-.>.1.>.>.>.>.=.>.>.>.>.:.:.>.2.2.2.2.>.,.,.,.<.2.2.2.2.2.2.7.2.7.7.7.7.9.4.9.9.5.6.f.x.' e L pX8Xe.P  .7XcXHXHXKXHXKXKXKXKXKXKXKXKXKXKXKXKXKXKXKXKXKXKXKXKXKXKXKXKXKXKXKXKXKXKXKXKXKXKXKXKXKXKXKXKXKXKXKXKXKXKXKXKXKXKXKXKXKXKXKXKXKXKXKXKXKXKXKXKXKXKXKXKXKXKXKXKXKXKXKXKXKXKXKXKXKXKXKXKXKXKXKXKXKXHXHXKXHXGX8Xy e ` z.j.0.0.0.7.9.7.7.9.9.7.7.7.7.9.7.7.7.7.7.4.7.2.2.,.,.7.9.9.9.9.9.7.7.7.7.2.2.,.4.7.7.2.2.2.9.9.f.h.O.a { CX                                                                                                                                                                                                                                                                    ",
"                                                                                                                                                                                                                { z $.5.4.4.,.<.<.<.<.,.,.,.>.:.-.-.>.>.-.=.=.1.1.:.-.-.-.:.:.-.=.>.>.:.:.:.:.>.=.=.>.1.=.>.1.1.>.>.>.:.>.>.>.1.>.:.>.2.,.:.:.>.2.2.2.2.2.,.2.7.7.2.2.7.,.2.2.7.2.,.7.7.7.9.4.9.5.9.5.k.a.l a cXHXHXHXGXGXGXHXHXJXKXKXKXKXKXKXKXKXKXKXKXKXKXKXKXKXKXKXKXKXKXKXKXKXKXKXKXKXKXKXKXKXKXKXKXKXKXKXKXKXKXKXKXKXKXKXKXKXKXKXKXKXKXKXKXKXKXKXKXKXKXKXKXKXKXKXKXKXKXKXKXKXKXKXKXKXKXKXKXKXKXKXKXKXKXKXKXKXKXKXKXHXHXKXKXHXGXr.e i @.g.j.j.j.7.7.7.7.7.9.7.7.7.7.9.7.,.,.2.,.4.7.2.2.2.,.7.9.9.9.9.9.9.9.2.2.2.2.7.4.4.7.2.2.7.9.9.h.$.l v yX                                                                                                                                                                                                                                                                      ",
"                                                                                                                                                                                                                rXa O.g.5.4.<.<.,.,.,.,.>.:.:.>.-.:.>.>.-.=.1.1.2.>.>.>.>.:.>.>.-.=.:.:.:.>.>.>.=.=.;.1.1.1.=.=.>.>.>.>.2.2.2.2.,.,.>.1.2.1.1.1.2.2.,.2.,.,.,.2.7.2.2.2.,.2.7.2.2.2.2.7.7.9.9.9.5.9.l.x.` e r.GXHXKXKXKXHXHXHXHXKXKXKXKXKXKXKXKXKXKXKXKXKXKXKXKXKXKXKXKXKXKXKXKXKXKXKXKXKXKXKXKXKXKXKXKXKXKXKXKXKXKXKXKXKXKXKXKXKXKXKXKXKXKXKXKXKXKXKXKXKXKXKXKXKXKXKXKXKXKXKXKXKXKXKXKXKXKXKXKXKXKXKXKXKXKXKXKXKXKXKXKXKXKXKXKXKXHXZXL & l i.k.k.l.l.0.9.7.7.7.7.7.7.7.4.9.7.2.7.9.9.9.7.7.2.2.7.9.9.9.9.9.9.7.7.7.7.9.4.4.7.7.2.9.0.j.g.u.! v 6X                                                                                                                                                                                                                                                                        ",
"                                                                                                                                                                                                                CX[ ! a.6.4.9.<.,.>.>.>.>.>.>.>.=.>.>.>.:.>.1.1.1.>.>.>.>.>.>.>.=.=.>.>.>.1.>.>.>.>.>.1.>.1.1.=.>.>.>.:.>.,.2.2.2.,.>.>.>.>.1.>.2.2.,.,.4.4.,.2.2.2.2.2.<.,.2.2.2.2.2.2.7.9.9.9.0.5.x.$.i b CXKXHXKXKXKXHXHXHXHXKXKXKXKXKXKXKXKXKXKXKXKXKXKXKXKXKXKXKXKXKXKXKXKXKXKXKXKXKXKXKXKXKXKXKXKXKXKXKXKXKXKXKXKXKXKXKXKXKXKXKXKXKXKXKXKXKXKXKXKXKXKXKXKXKXKXKXKXKXKXKXKXKXKXKXKXKXKXKXKXKXKXKXKXKXKXKXKXKXKXKXKXKXKXKXKXHXKXHXpXj 9 ` c.k.j.0.0.9.7.7.7.7.7.7.7.4.4.7.,.2.7.9.9.7.7.7.7.7.9.7.9.9.9.9.7.7.7.9.9.4.7.7.7.9.9.5.h.a.^ z ..                                                                                                                                                                                                                                                                          ",
"                                                                                                                                                                                                                  7Xa O.g.5.9.,.>.>.>.,.:.,.,.>.-.=.:.:.:.2.2.1.1.>.>.>.:.>.>.:.=.=.>.>.>.1.>.>.1.>.>.>.:.1.1.1.=.>.>.-.>.>.1.>.2.>.>.>.>.>.>.2.2.2.,.,.,.4.4.7.2.2.4.4.<.,.2.,.2.2.2.7.9.9.9.9.9.k.a.Q e 8XHXKXKXKXKXKXKXKXHXHXKXKXKXKXKXKXKXKXKXKXKXKXKXKXKXKXKXKXKXKXKXKXKXKXKXKXKXKXKXKXKXKXKXKXKXKXKXKXKXKXKXKXKXKXKXKXKXKXKXKXKXKXKXKXKXKXKXKXKXKXKXKXKXKXKXKXKXKXKXKXKXKXKXKXKXKXKXKXKXKXKXKXKXKXKXKXKXKXKXKXKXKXKXKXKXKXKXKXKXGX7Xe r @.x.j.0.9.0.9.7.7.9.9.9.9.4.9.7.7.2.2.7.7.9.9.7.9.9.7.7.7.9.9.9.9.7.7.7.9.7.2.7.7.7.4.f.z.` s  .CX                                                                                                                                                                                                                                                                          ",
"                                                                                                                                                                                                                  CXv ! c.f.4.,.<.>.,.,.-.,.,.:.:.>.:.,.,.2.2.>.>.>.>.>.-.>.:.-.=.=.>.:.=.>.:.:.1.>.>.>.:.1.1.1.1.>.=.-.>.1.1.1.>.>.>.>.:.>.,.2.>.2.2.2.,.,.,.,.2.2.4.4.<.,.,.,.2.2.2.7.9.5.5.5.j.g.' r { FXHXKXKXKXKXKXKXKXHXHXKXKXKXKXKXKXKXKXKXKXKXKXKXKXKXKXKXKXKXKXKXKXKXKXKXKXKXKXKXKXKXKXKXKXKXKXKXKXKXKXKXKXKXKXKXKXKXKXKXKXKXKXKXKXKXKXKXKXKXKXKXKXKXKXKXKXKXKXKXKXKXKXKXKXKXKXKXKXKXKXKXKXKXKXKXKXKXKXKXKXKXKXKXKXKXKXKXKXKXKXAX{ & z c.k.j.9.0.9.9.9.9.9.9.9.9.9.9.0.7.9.7.7.7.7.7.9.9.7.7.9.9.9.9.9.7.7.7.7.4.4.7.4.9.f.z.O.p [ iX                                                                                                                                                                                                                                                                            ",
"                                                                                                                                                                                                                    r.i @.x.5.<.<.>.<.,.,.,.>.>.>.>.>.>.,.,.,.,.>.1.2.>.>.>.=.-.>.=.-.-.>.>.>.>.>.>.>.>.:.1.1.1.1.>.>.>.>.2.2.1.2.2.1.>.2.2.2.2.>.>.2.2.2.7.7.,.7.7.,.4.,.,.,.2.9.4.4.4.5.9.5.6.f.p.l b cXKXHXKXKXKXKXKXKXKXKXHXKXKXKXKXKXKXKXKXKXKXKXKXKXKXKXKXKXKXKXKXKXKXKXKXKXKXKXKXKXKXKXKXKXKXKXKXKXKXKXKXKXKXKXKXKXKXKXKXKXKXKXKXKXKXKXKXKXKXKXKXKXKXKXKXKXKXKXKXKXKXKXKXKXKXKXKXKXKXKXKXKXKXKXKXKXKXKXKXKXKXKXKXKXKXKXKXKXKXKXKXHXcXv e O.z.k.j.9.4.9.9.9.9.9.9.9.9.9.9.9.9.7.7.7.7.7.9.9.9.7.7.7.7.7.7.7.9.9.9.9.5.4.9.j.g.@.z ) yX                                                                                                                                                                                                                                                                              ",
"                                                                                                                                                                                                                    aXv ^ z.5.<.4.,.,.7.,.,.>.:.>.>.>.,.,.2.,.:.:.>.>.>.:.-.-.>.=.-.=.>.>.>.>.>.>.>.>.>.>.1.1.1.1.>.>.>.>.>.1.2.2.2.2.2.2.2.2.2.,.,.2.2.2.2.2.,.2.7.,.4.,.,.2.7.9.9.9.4.9.9.5.g.g.` e r.GXKXKXKXKXKXKXKXKXKXKXKXKXKXKXKXKXKXKXKXKXKXKXKXKXKXKXKXKXKXKXKXKXKXKXKXKXKXKXKXKXKXKXKXKXKXKXKXKXKXKXKXKXKXKXKXKXKXKXKXKXKXKXKXKXKXKXKXKXKXKXKXKXKXKXKXKXKXKXKXKXKXKXKXKXKXKXKXKXKXKXKXKXKXKXKXKXKXKXKXKXKXKXKXKXKXKXKXKXKXKXKXKXFXe.e l y.z.j.4.4.9.9.4.9.9.7.9.9.9.9.9.9.9.9.7.7.7.9.7.9.9.9.7.7.7.9.9.9.9.9.9.9.5.f.h.@.z ) rX                                                                                                                                                                                                                                                                                ",
"                                                                                                                                                                                                                      r.z @.g.6.4.4.4.,.<.>.>.>.1.,.,.,.,.2.,.:.-.>.>.>.>.:.-.=.>.=.-.>.:.:.:.>.>.>.>.>.2.>.>.-.1.>.>.>.1.>.>.2.2.2.,.2.1.2.2.2.2.,.,.7.2.2.2.,.7.,.,.4.7.4.7.4.7.9.4.4.7.9.5.g.u.i v ZXKXHXKXKXKXKXKXKXKXKXKXKXKXKXKXKXKXKXKXKXKXKXKXKXKXKXKXKXKXKXKXKXKXKXKXKXKXKXKXKXKXKXKXKXKXKXKXKXKXKXKXKXKXKXKXKXKXKXKXKXKXKXKXKXKXKXKXKXKXKXKXKXKXKXKXKXKXKXKXKXKXKXKXKXKXKXKXKXKXKXKXKXKXKXKXKXKXKXKXKXKXKXKXKXKXKXKXKXKXKXKXKXHXKXZXP 9 ^ p.5.5.5.9.9.9.9.7.7.9.9.9.9.9.9.9.9.9.7.7.2.9.9.9.9.9.9.9.9.9.9.9.4.4.5.5.h.@.! ) rX                                                                                                                                                                                                                                                                                  ",
"                                                                                                                                                                                                                      vXv ^ c.j.4.,.,.,.<.<.>.>.2.2.2.2.,.>.>.>.:.>.>.>.,.>.>.=.=.>.>.-.:.:.:.:.:.>.>.>.2.>.>.1.1.>.>.>.1.>.>.2.>.:.>.2.2.2.2.1.2.2.,.2.2.2.2.,.7.2.<.,.7.9.4.4.,.4.,.<.4.5.6.c.! e 8XKXKXKXKXKXKXKXKXKXKXKXKXKXKXKXKXKXKXKXKXKXKXKXKXKXKXKXKXKXKXKXKXKXKXKXKXKXKXKXKXKXKXKXKXKXKXKXKXKXKXKXKXKXKXKXKXKXKXKXKXKXKXKXKXKXKXKXKXKXKXKXKXKXKXKXKXKXKXKXKXKXKXKXKXKXKXKXKXKXKXKXKXKXKXKXKXKXKXKXKXKXKXKXKXKXKXKXKXKXKXKXKXKXKXHXKXpXy r O.z.f.j.l.9.0.0.7.7.9.9.9.9.9.9.9.9.9.9.7.,.7.9.9.9.9.9.9.9.9.5.4.4.6.f.z.@.! ) rX                                                                                                                                                                                                                                                                                    ",
"                                                                                                                                                                                                                        r.z #.f.4.<.,.4.<.,.,.2.>.>.>.>.,.,.,.,.2.,.2.2.:.>.:.>.1.1.>.-.=.=.=.=.:.>.>.>.1.>.=.=.>.>.>.>.1.1.1.>.:.>.>.>.2.,.>.>.2.2.2.2.:.:.>.,.9.,.,.7.7.7.4.4.4.4.9.9.4.j.g.O.r { FXHXKXKXKXKXKXKXKXKXKXKXKXKXKXKXKXKXKXKXKXKXKXKXKXKXKXKXKXKXKXKXKXKXKXKXKXKXKXKXKXKXKXKXKXKXKXKXKXKXKXKXKXKXKXKXKXKXKXKXKXKXKXKXKXKXKXKXKXKXKXKXKXKXKXKXKXKXKXKXKXKXKXKXKXKXKXKXKXKXKXKXKXKXKXKXKXKXKXKXKXKXKXKXKXKXKXKXKXKXKXKXKXKXKXHXKXFX .e Q a.x.9.0.l.j.j.0.0.9.0.9.9.7.7.9.9.0.9.7.9.9.9.9.9.9.4.4.9.9.9.4.5.g.h.@.z ) rX                                                                                                                                                                                                                                                                                      ",
"                                                                                                                                                                                                                        vX) l a.f.,.7.,.<.,.,.,.:.:.:.:.>.:.,.2.,.>.>.>.:.>.-.>.>.>.>.:.=.=.:.>.>.>.>.>.1.>.=.1.>.>.1.>.>.1.1.>.>.:.:.-.>.,.2.2.>.2.2.,.:.,.2.2.7.,.,.7.2.2.9.9.4.4.9.9.9.k.u.i a cXHXHXHXKXKXKXKXKXKXKXKXKXKXKXKXKXKXKXKXKXKXKXKXKXKXKXKXKXKXKXKXKXKXKXKXKXKXKXKXKXKXKXKXKXKXKXKXKXKXKXKXKXKXKXKXKXKXKXKXKXKXKXKXKXKXKXKXKXKXKXKXKXKXKXKXKXKXKXKXKXKXKXKXKXKXKXKXKXKXKXKXKXKXKXKXKXKXKXKXKXKXKXKXKXKXKXKXKXKXKXKXKXKXKXKXKXKXHXcXb r O.x.j.9.0.9.9.9.9.0.0.0.9.9.9.9.9.9.5.9.9.9.9.9.9.9.4.4.9.9.9.j.g.a.' p ) rX                                                                                                                                                                                                                                                                                        ",
"                                                                                                                                                                                                                          rXz ` h.4.4.4.,.,.,.2.<.<.>.>.2.,.>.>.>.>.>.>.:.>.>.>.>.>.,.>.>.=.>.,.>.>.1.>.>.:.-.>.>.>.1.>.:.>.>.>.,.,.>.>.>.2.2.2.2.2.,.:.2.2.2.2.2.2.7.7.,.2.9.9.4.9.9.9.j.a.~ e 7XHXLXHXKXKXKXKXKXKXKXKXKXKXKXKXKXKXKXKXKXKXKXKXKXKXKXKXKXKXKXKXKXKXKXKXKXKXKXKXKXKXKXKXKXKXKXKXKXKXKXKXKXKXKXKXKXKXKXKXKXKXKXKXKXKXKXKXKXKXKXKXKXKXKXKXKXKXKXKXKXKXKXKXKXKXKXKXKXKXKXKXKXKXKXKXKXKXKXKXKXKXKXKXKXKXKXKXKXKXKXKXKXKXKXKXKXKXKXHXGXe.& z i.k.j.0.9.9.9.9.0.0.0.0.9.9.9.9.0.9.9.9.9.9.9.9.4.4.9.0.7.j.g.u.` p [ yX                                                                                                                                                                                                                                                                                          ",
"                                                                                                                                                                                                                            X.z @.f.6.4.,.,.,.,.,.,.,.<.:.>.2.2.>.>.,.>.:.>.>.2.:.>.2.2.>.=.>.2.>.>.>.>.>.>.>.>.>.>.>.>.-.>.1.>.>.>.>.>.2.2.2.2.7.,.<.,.2.,.<.<.,.2.7.7.,.2.9.9.9.9.9.j.g.O.r { SXHXHXHXKXKXKXKXKXKXKXKXKXKXKXKXKXKXKXKXKXKXKXKXKXKXKXKXKXKXKXKXKXKXKXKXKXKXKXKXKXKXKXKXKXKXKXKXKXKXKXKXKXKXKXKXKXKXKXKXKXKXKXKXKXKXKXKXKXKXKXKXKXKXKXKXKXKXKXKXKXKXKXKXHXKXKXKXKXKXKXKXKXKXKXKXKXKXKXKXKXKXKXKXKXKXKXKXKXKXKXKXKXKXKXKXKXKXKXKXKXBXc e O.z.k.0.0.9.9.0.0.0.0.0.9.9.9.9.4.9.9.9.9.9.9.9.4.4.9.j.k.g.u.! a { iX                                                                                                                                                                                                                                                                                            ",
"                                                                                                                                                                                                                            iX) ^ a.f.<.,.<.<.<.,.<.:.,.:.>.1.,.2.,.,.>.>.:.>.1.=.=.>.2.>.>.1.1.1.>.>.>.>.>.>.>.>.=.=.>.-.:.>.>.>.>.>.>.2.2.2.2.2.2.,.,.,.,.<.<.2.2.2.2.2.2.7.7.7.<.9.f.u.l y cXHXHXHXHXKXKXKXKXKXKXKXKXKXKXKXKXKXKXKXKXKXKXKXKXKXKXKXKXKXKXKXKXKXKXKXKXKXKXKXKXKXKXKXKXKXKXKXKXKXKXKXKXKXKXKXKXKXKXKXKXKXKXKXKXKXKXKXKXKXKXKXKXKXKXKXKXKXKXKXKXKXKXKXKXKXKXKXKXKXKXKXKXKXKXKXKXKXKXKXKXKXKXKXKXKXKXKXKXKXKXKXKXKXKXKXKXKXKXKXKXKXGXe.& l p.k.9.9.9.0.0.9.9.9.9.4.7.9.9.9.9.9.9.9.4.6.5.5.5.j.g.a.O.! a  .iX                                                                                                                                                                                                                                                                                              ",
"                                                                                                                                                                                                                              r.a O.h.4.<.<.,.<.,.<.:.<.>.>.>.>.,.,.>.>.1.:.-.-.:.-.>.>.>.=.1.1.>.>.,.2.1.>.>.>.>.=.>.=.-.:.>.>.>.>.>.>.,.,.2.2.2.2.2.,.,.,.7.7.2.2.2.7.7.2.4.4.9.9.5.p./ r r.GXHXKXKXKXKXHXKXKXKXKXKXKXKXKXKXKXKXKXKXKXKXKXKXKXKXKXKXKXKXKXKXKXKXKXKXKXKXKXKXKXKXKXKXKXKXKXKXKXKXKXKXKXKXKXKXKXKXKXKXKXKXKXKXKXKXKXKXKXKXKXKXKXKXKXKXKXKXKXKXKXKXKXKXKXKXKXKXKXKXKXKXKXKXKXKXKXKXKXKXKXKXKXKXKXKXKXKXKXKXKXKXKXKXKXKXKXKXKXKXKXHXHXcXc e O.g.j.9.9.j.j.j.9.9.9.9.9.9.7.4.9.9.9.0.9.4.5.f.g.z.$.^ p v r.CX                                                                                                                                                                                                                                                                                                ",
"                                                                                                                                                                                                                              CX[ z $.f.6.4.,.<.,.<.:.,.>.>.>.>.2.,.>.>.:.:.-.>.>.:.>.>.=.-.=.=.>.>.,.2.1.>.=.=.1.1.>.>.=.:.>.>.:.:.>.1.,.,.2.1.2.2.,.,.>.1.2.2.2.7.7.7.7.7.4.4.9.j.h.( r { AXHXHXKXKXKXHXHXKXKXKXKXKXKXKXKXKXKXKXKXKXKXKXKXKXKXKXKXKXKXKXKXKXKXKXKXKXKXKXKXKXKXKXKXKXKXKXKXKXKXKXKXKXKXKXKXKXKXKXKXKXKXKXKXKXKXKXKXKXKXKXKXKXKXKXKXKXKXKXKXKXKXKXKXKXKXKXKXKXKXKXKXKXKXKXKXKXKXKXKXKXKXKXKXKXKXKXKXKXKXKXKXKXKXKXKXKXKXKXKXKXKXHXKXGXr.e z p.j.j.j.j.j.j.j.9.9.9.9.4.5.5.j.9.9.9.5.6.6.z.p.' z a [ rX                                                                                                                                                                                                                                                                                                    ",
"                                                                                                                                                                                                                                yXv ! p.f.4.4.<.<.:.:.>.>.,.>.>.,.,.>.>.>.>.>.>.,.>.>.>.-.-.=.=.:.>.,.2.>.2.>.-.=.>.>.>.=.:.>.>.>.:.>.>.,.,.>.1.>.>.,.<.,.2.,.2.7.7.9.9.7.9.4.6.j.g.O.t v CXHXHXKXKXKXKXHXKXKXKXKXKXKXKXKXKXKXKXKXKXKXKXKXKXKXKXKXKXKXKXKXKXKXKXKXKXKXKXKXKXKXKXKXKXKXKXKXKXKXKXKXKXKXKXKXKXKXKXKXKXKXKXKXKXKXKXKXKXKXKXKXKXKXKXKXKXKXKXKXKXKXKXKXKXKXKXKXKXKXKXKXKXKXKXKXKXKXKXKXKXKXKXKXKXKXKXKXKXKXKXKXKXKXKXKXKXKXKXKXKXKXKXKXHXKXvXv r @.z.g.j.j.j.j.j.9.9.9.9.4.9.f.j.f.5.5.f.h.a.#.! a ) ..iX                                                                                                                                                                                                                                                                                                      ",
"                                                                                                                                                                                                                                  r.a ` a.4.,.<.,.<.<.>.,.>.>.>.<.<.>.>.<.>.>.>.>.>.2.>.:.>.,.,.:.:.>.2.2.>.>.>.>.>.>.-.:.>.>.>.:.:.:.,.1.>.1.1.>.>.:.:.<.,.4.7.7.7.7.9.4.9.4.5.g.$.i t cXGXKXKXKXKXKXKXKXKXKXKXKXKXKXHXKXKXKXKXHXKXKXKXKXKXKXKXKXKXKXKXKXKXKXKXKXKXKXKXKXKXKXKXKXKXKXKXKXKXKXKXKXKXKXKXKXKXKXKXKXKXKXKXKXKXKXKXKXKXKXKXKXKXKXKXKXKXKXKXKXKXKXKXKXKXKXKXKXKXKXKXKXKXKXKXKXKXKXKXKXKXKXKXKXKXKXKXKXKXKXKXKXKXKXKXKXKXKXKXHXHXHXKXKXKXHXFXr.9 ! a.g.f.j.j.j.j.j.j.5.5.6.5.5.5.5.f.g.a.#.^ p v ..iX                                                                                                                                                                                                                                                                                                          ",
"                                                                                                                                                                                                                                  CX{ z @.&.q.4.4.,.<.<.<.,.>.>.<.<.>.>.>.:.=.:.>.>.:.:.,.,.2.,.>.>.>.>.2.2.>.,.>.>.>.:.:.>.1.1.>.:.<.,.>.1.1.1.,.,.>.:.<.4.4.4.7.7.4.4.7.9.6.f.$.l e 8XGXKXKXKXKXKXKXKXKXKXKXKXKXKXHXHXKXKXKXKXKXKXKXKXKXKXKXKXKXKXKXKXKXKXKXKXKXKXKXKXKXKXKXKXKXKXKXKXKXKXKXKXKXKXKXKXKXKXKXKXKXKXKXKXKXKXKXKXKXKXKXKXKXKXKXKXKXKXKXKXKXKXKXKXKXKXKXKXKXKXKXKXKXKXKXKXKXKXKXKXKXKXKXKXKXKXKXKXKXKXKXKXKXKXKXKXKXKXKXKXHXHXHXKXKXKXHXHXvXb t @.x.f.j.j.j.j.j.j.j.f.5.5.f.g.h.a.@.^ l a [ rXZX                                                                                                                                                                                                                                                                                                            ",
"                                                                                                                                                                                                                                    pXv ! $.6.4.4.4.4.,.,.,.>.,.,.,.>.>.<.>.:.=.>.>.-.-.:.,.,.:.2.2.2.2.2.,.,.,.,.,.,.:.:.>.2.2.,.,.,.<.,.,.2.2.,.,.,.,.<.4.4.4.4.9.7.<.<.4.6.p.^ e e.GXHXKXKXKXKXKXKXKXKXKXKXKXKXKXHXHXHXKXKXKXKXKXKXKXKXKXKXKXKXKXKXKXKXKXKXKXKXKXKXKXKXKXKXKXKXKXKXKXKXKXKXKXKXKXKXKXKXKXKXKXKXKXKXKXKXKXKXKXKXKXKXKXKXKXKXKXKXKXKXKXKXKXKXKXKXKXKXKXKXKXKXKXKXKXKXKXKXKXKXKXKXKXKXKXKXKXKXKXKXKXKXKXKXKXKXKXKXKXKXKXHXHXHXHXKXKXHXHXGXe.e ^ z.f.j.j.j.j.f.j.g.g.g.g.z.p.@.` z a { 6XaX                                                                                                                                                                                                                                                                                                                ",
"                                                                                                                                                                                                                                      r.z ^ c.f.5.4.4.4.,.,.,.,.,.<.,.>.,.,.>.>.>.:.>.:.,.,.,.:.,.2.2.,.,.<.,.,.,.,.,.>.>.1.2.2.2.2.,.>.,.,.7.2.2.,.,.,.4.4.4.4.4.9.7.,.4.5.h.( e { AXKXHXKXKXKXKXKXKXKXKXKXKXKXKXKXKXKXHXHXKXKXKXKXKXKXKXKXKXKXKXKXKXKXKXKXKXKXKXKXKXKXKXKXKXKXKXKXKXKXKXKXKXKXKXKXKXKXKXKXKXKXKXKXKXKXKXKXKXKXKXKXKXKXKXKXKXKXKXKXKXKXKXKXKXKXKXKXKXKXKXKXKXKXKXKXKXKXKXKXKXKXKXKXKXKXKXKXKXKXKXKXKXKXKXKXKXKXKXKXKXKXHXHXHXHXKXKXHXKXHXpXy i u.z.g.g.g.g.g.x.z.z.p.@.' ! p a [ 7XiX                                                                                                                                                                                                                                                                                                                    ",
"                                                                                                                                                                                                                                        ..a ' z.j.4.<.,.4.,.,.,.7.,.,.:.,.7.2.,.,.,.,.,.,.,.2.>.:.>.1.1.-.:.<.,.,.,.,.2.1.1.,.,.7.7.<.>.<.,.,.,.,.,.7.7.7.4.4.9.6.9.7.4.5.h.' r L ZXHXHXKXKXKXKXKXKXKXKXKXKXKXKXKXKXKXKXKXKXKXKXKXKXKXKXKXKXKXKXKXKXKXKXKXKXKXKXKXKXKXKXKXKXKXKXKXKXKXKXKXKXKXKXKXKXKXKXKXKXKXKXKXKXKXKXKXKXKXKXKXKXKXHXKXKXKXKXKXKXKXKXKXKXKXKXKXKXKXKXKXKXKXKXKXKXKXKXKXKXKXKXKXKXKXKXKXKXKXKXKXKXKXKXKXKXKXKXKXKXKXKXKXKXKXKXKXKXHXHXKXSX[ e _ i.a.a.a.p.i.y.@.` ! z a v  .6XiX                                                                                                                                                                                                                                                                                                                        ",
"                                                                                                                                                                                                                                        CX{ z O.p.6.<.:.,.,.,.,.7.,.,.,.,.,.,.,.,.<.,.,.,.2.2.>.>.1.1.1.=.:.<.<.<.,.,.,.>.>.>.,.2.7.,.<.<.,.,.7.,.2.7.9.9.9.9.5.5.4.4.5.a.O.r b cXHXKXKXKXKXKXKXKXKXKXKXKXKXKXKXKXKXKXKXKXKXKXKXKXKXKXKXKXKXKXKXKXKXKXKXKXKXKXKXKXKXKXKXKXKXKXKXKXKXKXKXKXKXKXKXKXKXKXKXKXKXKXKXKXKXKXKXKXKXKXKXKXKXKXHXKXKXKXKXKXKXKXKXKXKXKXKXKXKXKXKXKXKXKXKXKXKXKXKXKXKXKXKXKXKXKXKXHXKXKXKXKXHXHXKXKXKXKXKXKXKXKXKXKXKXKXKXKXKXHXHXKXHXyXe e z ! ^ ^ ! z z i a v { 5XyXCX                                                                                                                                                                                                                                                                                                                            ",
"                                                                                                                                                                                                                                          aX) p #.f.<.:.4.4.,.,.7.,.7.,.,.<.,.,.,.<.:.,.,.,.>.>.>.>.>.>.>.>.,.<.:.,.>.>.>.>.>.>.,.2.,.<.<.<.,.7.2.7.7.7.9.9.9.9.5.5.f.x.O.t b cXHXHXHXKXKXKXKXKXKXKXKXKXKXKXKXKXKXKXKXKXKXKXKXKXKXKXKXKXKXKXKXKXKXKXKXKXKXKXKXKXKXKXKXKXKXKXKXKXKXKXKXKXKXKXKXKXKXKXKXKXKXKXKXKXKXKXKXKXKXKXKXKXKXKXKXHXKXKXKXKXKXKXKXKXKXKXKXKXKXKXKXKXKXKXKXKXKXKXKXKXKXKXKXKXKXKXKXKXKXKXKXKXKXHXHXKXKXKXKXKXKXKXKXKXKXKXKXKXKXKXKXKXKXKXSXL $ % y a j v v { ..r.yXCX                                                                                                                                                                                                                                                                                                                                  ",
"                                                                                                                                                                                                                                            yXv Q $.5.<.4.4.,.,.7.,.7.7.,.<.<.,.>.>.>.>.,.,.>.>.:.>.>.1.>.,.,.<.:.>.>.:.>.>.>.>.>.,.<.<.,.,.,.7.,.,.2.7.9.9.9.9.j.k.h.@.i y pXGXKXKXHXHXKXKXKXKXKXKXKXKXKXKXKXKXKXKXKXKXKXKXKXKXKXKXKXKXKXKXKXKXKXKXKXKXKXKXKXKXKXKXKXKXKXKXKXKXKXKXKXKXKXKXKXKXKXKXKXKXKXKXKXKXKXKXKXKXKXKXKXKXKXKXKXHXKXKXKXKXHXHXHXHXKXKXKXKXKXKXKXKXKXKXKXKXKXKXKXKXKXKXKXKXKXKXKXKXKXKXKXKXKXKXHXKXKXKXKXKXKXKXKXKXKXKXKXKXKXKXKXKXKXHXHX7X* - F.yXyXpXiXCX                                                                                                                                                                                                                                                                                                                                          ",
"                                                                                                                                                                                                                                              rXz ^ a.f.4.4.4.,.:.:.>.,.7.,.>.>.>.:.:.>.,.,.<.,.,.,.,.,.2.2.,.,.:.>.<.>.,.,.,.,.>.,.,.,.>.:.>.,.,.,.,.,.7.7.4.6.f.g.@.i t tXGXHXKXKXKXKXKXKXKXKXKXKXKXKXKXKXKXKXKXKXKXKXKXKXKXKXKXKXKXHXKXKXKXKXKXKXKXKXKXKXKXKXKXKXKXKXKXKXKXKXKXKXKXKXKXKXKXKXKXKXKXKXKXKXKXKXHXHXHXHXKXKXKXKXKXKXKXKXKXKXKXKXKXKXKXKXKXKXKXKXKXKXKXKXKXKXKXKXKXKXKXKXKXKXKXKXKXKXKXKXKXKXKXKXKXKXKXKXKXKXKXKXKXKXKXKXKXKXKXKXKXKXKXKXKXHXHXVXx f uXPX                                                                                                                                                                                                                                                                                                                                                  ",
"                                                                                                                                                                                                                                                r.a ` z.f.4.9.4.:.:.<.7.7.,.>.>.:.:.:.>.<.,.,.,.<.:.<.,.7.2.,.,.,.>.<.,.,.,.,.2.,.,.>.>.>.>.<.,.,.,.,.4.7.7.9.f.g.$.l r 8XGXHXHXKXKXKXKXKXKXKXKXKXKXKXKXKXKXKXKXKXKXKXKXKXKXKXKXKXKXKXKXKXKXKXKXKXKXKXKXKXKXKXKXKXKXKXKXKXKXKXKXKXKXKXKXKXKXKXKXKXKXKXKXKXKXKXKXHXHXHXKXKXKXKXKXKXKXKXKXKXKXKXKXKXKXKXKXKXKXKXKXKXKXKXKXKXKXKXKXKXKXKXKXKXKXKXKXKXKXKXKXKXKXKXKXKXKXKXKXKXKXKXKXKXKXKXKXKXKXKXKXKXKXKXKXKXKXKXFX .k 7XPX                                                                                                                                                                                                                                                                                                                                                  ",
"                                                                                                                                                                                                                                                CX{ a ' h.5.4.4.,.<.,.7.7.,.>.>.:.:.>.,.<.,.,.,.,.,.,.,.7.,.,.,.,.,.,.,.,.,.,.,.,.,.>.:.>.>.,.,.4.4.4.4.9.5.j.g.u.l e r.FXKXKXKXKXKXKXKXKXKXKXKXKXKXKXKXKXKXKXKXKXKXKXKXKXKXKXKXHXKXKXKXKXKXKXKXKXKXKXKXKXKXKXKXKXKXKXKXKXKXKXKXKXKXKXKXKXKXKXKXKXKXKXKXKXKXKXKXHXHXHXKXKXKXKXKXKXKXKXKXKXKXKXKXKXKXKXKXKXKXKXKXKXKXKXKXKXKXKXKXKXKXKXKXKXKXKXKXKXKXKXKXKXKXKXKXKXKXKXKXKXKXKXKXKXKXKXKXKXKXKXKXKXKXKXKXKXKXHXHXqXd U ZX                                                                                                                                                                                                                                                                                                                                                  ",
"                                                                                                                                                                                                                                                  aX[ a O.h.f.6.4.4.,.7.7.,.>.>.:.>.,.2.,.,.,.<.,.,.,.,.<.,.,.:.<.<.,.,.,.,.,.,.,.,.<.:.,.,.,.7.4.4.4.6.6.f.h.$.l e 7XGXKXHXKXHXKXKXKXKXKXKXKXKXKXKXKXKXKXKXKXKXKXKXKXKXKXKXKXKXHXKXKXKXKXKXKXKXKXKXKXKXKXKXKXKXKXKXKXKXKXKXKXKXKXKXKXKXKXKXKXKXKXKXKXKXKXKXKXKXHXHXHXKXKXKXKXKXKXKXKXKXKXKXKXKXKXKXKXKXKXKXKXKXKXKXKXKXKXKXKXKXKXKXKXKXKXKXKXKXKXKXKXKXKXKXKXKXKXKXKXKXKXKXKXKXKXKXKXKXKXKXKXKXKXKXKXKXKXKXKXHXSXK F pX                                                                                                                                                                                                                                                                                                                                                  ",
"                                                                                                                                                                                                                                                    aX[ i O.x.f.9.,.4.9.7.,.:.:.,.,.<.<.,.>.:.>.,.,.2.2.2.7.2.,.<.,.4.4.9.7.2.,.,.,.,.,.7.,.7.,.<.4.4.4.6.a.@.l e r.GXHXHXKXKXKXKXKXKXKXKXKXKXKXKXKXKXKXKXKXKXKXKXKXKXKXKXKXKXKXKXKXKXKXKXKXKXKXKXKXKXKXKXKXKXKXKXKXKXKXKXKXKXKXKXKXKXKXKXKXKXKXKXKXKXKXKXKXKXKXHXHXHXHXKXKXKXKXKXKXKXKXKXKXKXKXKXKXKXKXKXKXKXKXKXKXKXKXKXKXKXKXHXHXKXKXKXKXKXKXKXKXKXKXKXKXKXKXKXKXKXKXKXKXKXKXKXKXKXKXKXKXKXKXKXKXKXKXKXKXKXHXHX5Xd 5X                                                                                                                                                                                                                                                                                                                                                  ",
"                                                                                                                                                                                                                                                      iX[ z ` p.f.9.5.4.9.7.,.,.,.,.,.,.<.>.:.<.,.,.7.7.7.7.7.7.,.,.7.4.4.4.,.<.,.,.,.,.2.,.7.4.4.4.6.5.a.#.i e 7XGXKXKXKXKXKXKXKXKXKXKXKXKXKXKXKXKXKXKXKXKXKXKXKXKXKXKXKXKXKXKXKXKXKXKXKXKXKXKXKXKXKXKXKXKXKXKXKXKXKXKXKXKXKXKXKXKXKXKXKXKXKXKXKXKXKXKXKXKXKXKXHXHXHXKXKXKXKXKXKXKXKXKXKXKXKXKXKXKXKXKXKXKXKXKXKXKXKXKXKXKXKXKXHXHXKXKXKXKXKXKXKXKXKXKXKXKXKXKXKXKXKXKXKXKXKXKXKXKXKXKXKXKXKXKXKXKXKXKXKXKXKXHXKXcXx P VX                                                                                                                                                                                                                                                                                                                                                ",
"                                                                                                                                                                                                                                                        aX{ z ^ u.g.f.4.9.4.4.4.,.,.,.,.,.,.,.,.,.,.2.7.2.2.,.,.2.,.,.4.4.7.,.<.,.,.,.,.2.,.7.4.4.4.h.a.' r y 8XHXHXHXHXKXKXKXKXKXKXKXKXKXKXKXKXKXKXKXKXKXKXKXKXKXKXKXKXKXKXKXKXKXKXKXKXKXKXKXKXKXKXKXKXKXKXKXKXKXKXKXKXKXKXKXKXKXKXKXKXKXKXKXKXKXKXKXKXKXKXKXKXHXHXKXKXKXKXKXKXKXKXKXKXKXKXKXKXKXKXKXKXKXKXKXKXKXKXKXKXKXKXKXKXHXHXKXKXKXKXKXKXKXKXKXKXKXKXKXKXKXKXKXKXKXKXKXKXKXKXKXKXKXKXKXKXKXKXKXKXKXKXKXKXKXDXP H qX                                                                                                                                                                                                                                                                                                                                                ",
"                                                                                                                                                                                                                                                          CXr.z ~ @.h.k.5.5.4.4.,.,.2.7.4.4.,.9.<.<.,.,.2.2.,.,.7.,.,.4.7.7.7.7.7.7.7.2.,.4.9.5.5.h.$./ e v pXHXKXHXHXKXKXKXKXKXKXKXKXKXKXKXKXKXKXKXKXKXKXKXKXKXKXKXKXKXKXKXKXKXKXKXKXKXKXKXKXKXKXKXKXKXKXKXKXKXKXKXKXKXKXKXKXKXKXKXKXKXKXKXKXKXKXKXKXKXKXKXKXKXKXKXKXKXKXKXKXKXKXKXKXKXKXKXKXKXKXKXKXKXKXKXKXKXKXKXKXKXKXKXKXKXKXHXKXKXKXKXKXKXKXKXKXKXKXKXKXKXKXKXKXKXKXKXKXKXKXKXKXKXKXKXKXKXKXKXKXKXKXKXKXKXHXHX7Xg 5X                                                                                                                                                                                                                                                                                                                                                ",
"                                                                                                                                                                                                                                                              r.v p ' p.k.f.6.4.4.4.4.,.,.,.2.,.,.,.,.,.,.,.,.,.,.7.4.4.4.4.4.9.4.9.,.4.4.4.j.h.p.O.l e L vXHXHXKXKXKXKXKXKXKXKXKXKXKXKXKXKXKXKXKXKXKXKXKXKXKXKXKXKXKXKXKXKXKXKXKXKXKXKXKXKXKXKXKXKXKXKXKXKXKXKXKXKXKXKXKXKXKXKXKXKXKXKXKXKXKXKXKXKXKXKXKXKXKXKXKXKXKXKXKXKXKXKXKXKXKXKXKXKXKXKXKXKXKXKXKXKXKXKXKXKXKXKXHXHXKXKXKXKXKXKXKXKXKXKXKXKXKXKXKXKXKXKXKXKXKXKXKXKXKXKXKXKXKXKXKXKXKXKXKXKXKXKXKXKXKXKXHXKXBXF U VX                                                                                                                                                                                                                                                                                                                                              ",
"                                                                                                                                                                                                                                                                rX[ a ! @.z.f.f.6.4.4.<.,.,.4.4.,.,.,.,.,.,.4.4.4.4.4.4.4.,.4.9.9.4.9.9.9.x.z.#.Q r a 7XAXHXKXKXKXKXKXKXKXKXKXKXKXKXKXKXKXKXKXKXKXKXKXKXKXKXKXKXKXKXKXKXKXKXKXKXKXKXKXKXKXKXKXKXKXKXKXKXKXKXKXKXKXKXKXKXKXKXKXKXKXKXKXKXKXKXKXKXKXKXKXKXKXKXKXKXKXKXKXKXKXKXKXKXHXPXKXKXKXKXKXKXKXKXKXKXKXKXKXKXKXKXKXHXHXHXKXKXKXKXKXKXKXKXKXKXKXKXKXKXKXKXKXKXKXKXKXKXKXKXKXKXKXKXKXKXKXKXKXKXKXKXKXKXKXKXKXKXKXKXFXU H pX                                                                                                                                                                                                                                                                                                                                              ",
"                                                                                                                                                                                                                                                                  aX..j a ^ @.u.a.6.5.4.4.4.4.4.,.,.4.4.4.9.5.5.5.5.5.4.4.4.4.9.4.6.j.f.z.i.^ r t { vXHXHXKXKXKXKXKXKXKXKXKXKXKXKXKXKXKXKXKXKXKXKXKXKXKXKXKXKXKXKXKXKXKXKXKXKXKXKXKXKXKXKXKXKXKXKXKXKXKXKXKXKXKXKXKXKXKXKXKXKXKXKXKXKXKXKXKXKXKXKXKXKXKXHXKXKXHXKXKXKXKXKXKXKXKXHXPXKXKXKXKXKXKXKXKXKXKXKXKXKXKXKXKXHXHXHXHXKXKXKXKXKXKXKXKXKXKXKXKXKXKXKXKXKXKXKXKXKXKXKXKXKXKXKXKXKXKXKXKXKXKXKXKXKXKXKXKXKXKXKXKXHX7Xg 5X                                                                                                                                                                                                                                                                                                                                              ",
"                                                                                                                                                                                                                                                                      rXL t u l ( #.h.f.f.5.5.4.4.4.4.4.9.9.9.9.6.5.5.4.4.4.5.j.f.h.p.#.~ r e [ cXGXHXHXHXKXKXKXKXKXKXKXKXKXKXKXKXKXKXKXKXKXKXKXKXKXKXKXKXKXKXKXKXKXKXKXKXKXKXKXKXKXKXKXKXKXKXKXKXKXKXKXKXKXKXKXKXKXKXKXKXKXKXKXKXKXKXKXKXKXKXKXKXKXKXKXHXKXKXHXHXKXKXKXKXKXKXKXKXKXKXHXKXKXKXKXKXKXKXKXKXKXKXKXKXKXHXHXHXHXKXKXKXKXKXKXKXKXKXKXKXKXKXKXKXKXKXKXKXKXKXKXKXKXKXKXKXKXKXKXKXKXKXKXKXKXKXKXKXKXKXKXKXKXKXcXg K VX                                                                                                                                                                                                                                                                                                                                            ",
"                                                                                                                                                                                                                                                                        iX..v y 9 u ! O.$.h.g.5.5.4.4.4.4.4.4.4.4.<.4.4.4.6.f.$.O.^ i r e v pXAXHXHXHXHXKXKXKXKXKXKXKXKXKXKXKXKXKXKXKXKXKXKXKXKXKXKXKXKXKXKXKXKXKXKXKXKXKXKXKXKXKXKXKXKXKXKXKXKXKXKXKXKXKXKXKXKXKXKXKXKXKXKXKXKXKXKXKXKXKXKXKXKXKXKXKXKXKXKXKXKXKXKXKXKXKXKXKXKXKXKXKXKXKXKXKXKXKXKXKXKXHXKXKXKXKXKXKXKXKXKXKXKXKXKXKXKXHXHXKXKXKXKXKXKXKXKXKXKXKXKXKXKXKXKXKXKXKXKXKXKXKXKXKXKXKXKXKXKXKXKXKXKXKXKXKXSXK x pX                                                                                                                                                                                                                                                                                                                                            ",
"                                                                                                                                                                                                                                                                            iX6X[ h r r l ^ #.$.p.g.x.g.k.g.f.f.f.f.f.h.&.#./ i e e b { tXAXKXHXHXKXKXKXKXKXKXKXKXKXKXKXKXKXKXKXKXKXKXKXKXKXKXKXKXKXKXKXKXKXKXHXKXKXKXKXKXKXKXKXKXKXKXKXKXKXKXKXKXKXKXKXKXKXKXKXKXKXKXKXKXKXKXKXKXKXKXKXKXKXKXKXKXKXKXKXKXKXKXKXKXKXKXKXKXKXKXKXKXKXKXKXKXKXKXKXKXKXKXKXKXKXKXKXKXKXKXKXKXKXKXKXKXKXKXKXHXHXKXKXKXKXKXKXKXKXKXKXKXKXKXKXKXKXKXKXKXKXKXKXKXKXKXKXKXKXKXKXKXKXKXKXHXKXKXLXe.d 7X                                                                                                                                                                                                                                                                                                                                            ",
"                                                                                                                                                                                                                                                                                CXrX .v y r r i l ^ ' O.@.@.@.u.u.y.O.^ l r 9 a { 8XZXGXHXKXHXKXKXKXKXKXKXKXKXKXKXKXKXKXKXKXKXKXKXKXKXKXKXKXKXKXKXKXKXKXKXKXKXHXKXKXKXKXKXKXKXKXKXKXKXKXKXKXKXKXKXKXKXKXKXKXKXKXKXKXKXKXKXKXKXKXKXKXKXKXKXKXKXKXHXHXHXHXHXHXHXHXKXKXKXKXKXKXKXKXKXKXKXKXKXKXKXKXKXKXKXKXKXKXKXKXKXKXKXKXKXKXHXHXHXHXKXKXKXKXKXKXKXKXKXKXKXKXKXKXKXKXKXKXKXKXKXKXKXKXKXKXKXKXKXKXKXKXKXKXKXKXKXKXKXHXKXHX8Xg  .                                                                                                                                                                                                                                                                                                                                            ",
"                                                                                                                                                                                                                                                                                    CXpX7X .L v y y t i i i i u t e 9 & e P 7XCXGXHXHXKXHXHXKXKXKXKXKXKXKXKXKXKXKXKXKXKXKXKXKXKXKXKXKXKXKXKXKXKXKXKXKXKXKXKXKXKXKXKXKXKXKXKXKXKXKXKXKXKXKXKXKXKXKXKXKXKXKXKXKXKXKXKXKXKXKXKXKXKXKXKXKXKXKXKXKXKXHXHXHXHXKXKXHXHXKXKXKXKXKXKXKXKXKXKXKXKXKXKXKXKXKXKXKXKXKXKXKXKXKXKXKXKXKXKXKXKXHXKXKXKXKXKXKXKXKXKXKXKXKXKXKXKXKXKXKXKXKXKXKXKXKXKXKXKXKXKXKXKXKXKXKXKXKXKXKXKXKXKXKXKXVXJ L BX                                                                                                                                                                                                                                                                                                                                          ",
"                                                                                                                                                                                                                                                                                            CXpXrX7Xr... .{ [ h $ O d e.cXFXHXHXHXHXKXKXKXKXKXKXKXKXKXKXKXKXKXKXKXKXKXKXKXKXKXKXKXKXKXKXKXKXKXKXKXKXKXKXKXKXKXKXKXKXKXKXKXKXKXKXKXKXKXKXKXKXKXKXKXKXKXKXKXKXKXKXKXKXKXKXKXKXKXKXKXKXKXKXKXKXKXKXKXHXKXKXKXKXKXKXKXHXHXHXHXHXHXHXKXKXKXKXKXKXKXKXKXKXKXKXKXKXKXKXKXKXKXKXKXKXKXKXKXKXKXKXKXKXKXKXKXKXKXKXKXKXKXKXKXKXKXKXKXKXKXKXKXKXKXKXKXKXKXKXKXKXKXKXKXKXKXKXKXKXKXKXGX .x yX                                                                                                                                                                                                                                                                                                                                          ",
"                                                                                                                                                                                                                                                                                                            CX5X* = 7XGXHXKXKXKXKXKXKXKXKXKXKXKXKXKXKXKXKXKXKXKXKXKXKXKXKXKXKXKXKXKXKXKXKXKXKXKXKXKXKXKXKXKXKXKXKXKXKXKXKXKXKXKXKXKXKXKXKXKXKXKXKXKXKXKXKXKXKXKXKXKXKXKXKXKXKXKXKXKXKXKXKXKXKXKXKXHXKXKXKXKXKXKXKXKXHXHXHXHXHXHXHXKXKXHXKXKXKXKXKXKXKXKXKXKXKXKXKXKXKXKXKXKXKXKXKXKXKXKXKXKXKXKXKXKXKXKXKXKXKXKXKXKXKXKXKXKXKXKXKXKXKXKXKXKXKXKXKXKXKXKXKXKXKXKXKXKXKXKXKX6Xg 7X                                                                                                                                                                                                                                                                                                                                          ",
"                                                                                                                                                                                                                                                                                                            ZX| - c VXHXKXLXHXKXKXKXKXKXKXKXKXKXKXKXKXKXKXKXKXKXKXKXKXKXKXKXHXHXKXKXKXKXKXKXKXKXKXKXKXKXKXKXKXKXKXKXKXKXKXKXKXKXKXKXKXKXKXKXKXKXKXKXKXKXKXKXKXKXKXKXKXKXKXKXKXKXKXKXKXKXKXKXKXKXKXKXKXKXKXKXKXHXKXKXKXKXHXHXHXHXKXHXKXHXKXKXKXKXKXKXKXKXKXKXKXKXKXKXKXHXKXKXKXKXKXKXKXKXKXKXKXKXKXKXKXKXKXKXKXKXKXKXKXKXKXKXKXKXKXKXKXKXKXKXKXKXKXKXKXKXKXKXKXKXKXKXKXKXKXuXg  .                                                                                                                                                                                                                                                                                                                                          ",
"                                                                                                                                                                                                                                                                                                            ZXK - e.HXHXHXHXHXKXKXKXKXKXKXKXKXKXKXKXKXKXKXKXKXKXKXKXKXKXKXKXKXKXKXKXKXKXKXKXKXKXKXKXKXKXKXKXKXKXKXKXKXKXKXKXKXKXKXKXKXKXKXKXKXKXKXKXKXKXKXKXKXKXKXKXKXKXKXKXKXKXKXKXKXKXKXKXKXKXKXKXKXKXKXKXHXHXHXHXKXKXHXHXHXHXDXIXKXHXKXKXKXKXKXKXKXKXKXKXKXKXKXKXKXHXKXKXKXKXKXKXKXKXKXKXKXKXKXKXKXKXKXKXKXKXKXKXKXKXKXKXKXKXKXKXKXKXKXKXKXKXKXKXKXKXKXKXKXKXKXKXKXKXHXBXF K CX                                                                                                                                                                                                                                                                                                                                        ",
"                                                                                                                                                                                                                                                                                                            yXg x BXKXHXKXKXKXKXKXKXKXKXKXKXKXKXKXKXKXKXKXKXKXKXKXKXKXKXKXKXKXKXKXKXKXKXKXKXKXKXKXKXKXKXKXHXHXKXKXKXKXKXKXKXKXKXKXKXKXKXKXKXKXKXKXKXKXKXKXKXKXKXKXKXKXKXKXKXKXKXKXKXKXKXKXKXKXKXKXKXKXKXKXKXHXHXKXKXKXKXHXHXKXKXPXDXHXHXKXKXKXKXKXKXKXKXKXKXKXKXKXKXKXKXKXKXKXKXKXKXKXKXKXKXKXKXKXKXKXKXKXLXKXKXKXKXKXKXKXKXKXKXKXKXKXKXKXKXKXKXKXKXKXKXKXKXKXKXKXKXKXKXKXIXL H uX                                                                                                                                                                                                                                                                                                                                        ",
"                                                                                                                                                                                                                                                                                                             .- e.GXHXHXKXKXKXKXKXKXKXKXKXKXKXKXKXKXKXKXKXKXKXKXKXHXHXKXKXKXKXKXKXKXKXKXKXKXKXKXKXKXKXKXHXHXHXHXKXKXKXKXKXKXKXKXKXKXKXKXKXKXKXKXKXKXKXKXKXKXKXKXKXKXKXKXKXKXKXKXKXKXKXKXKXKXKXKXKXKXKXKXKXKXHXHXKXKXKXKXKXKXKXKXKXKXHXKXKXKXKXKXKXKXKXKXKXKXKXKXKXKXKXKXKXKXKXKXKXKXKXKXKXKXKXKXKXKXKXKXHXLXHXKXKXKXKXKXKXKXKXKXKXKXKXKXKXKXKXKXKXKXKXKXKXKXKXKXKXKXKXKXKXLX .f 7X                                                                                                                                                                                                                                                                                                                                        ",
"                                                                                                                                                                                                                                                                                                          iXx d wXKXKXHXKXKXKXKXKXKXKXKXKXKXKXKXKXKXKXKXKXKXKXKXKXHXHXKXKXKXKXKXKXKXKXKXKXKXKXKXKXKXKXKXHXHXHXHXKXKXKXKXKXKXKXKXKXKXKXKXKXKXKXKXKXKXKXKXKXHXKXKXKXKXKXKXKXKXKXKXKXKXKXKXKXKXKXKXKXKXKXKXKXKXHXHXKXKXKXKXKXKXKXKXHXHXKXKXKXKXKXKXKXKXKXKXKXKXKXKXKXKXKXKXKXKXKXKXKXKXKXKXKXKXKXKXKXKXKXKXKXHXKXKXKXKXKXKXKXKXKXKXKXKXKXKXKXKXKXKXKXKXKXKXKXKXKXKXKXKXKXKXJXHX7Xh D.                                                                                                                                                                                                                                                                                                                                        ",
"                                                                                                                                                                                                                                                                                                          6X- J SXKXKXKXKXKXKXKXKXKXKXKXKXKXKXKXHXHXHXHXHXKXKXKXKXKXKXKXKXKXKXKXKXKXKXKXKXKXKXKXKXKXKXKXKXHXHXKXKXKXKXKXKXKXKXKXKXKXKXKXKXKXKXKXKXKXKXKXKXHXKXKXKXKXKXKXKXKXKXKXKXKXKXKXKXKXKXKXKXKXKXKXKXKXHXHXKXKXKXHXKXKXKXKXKXKXHXHXKXKXKXKXKXKXKXKXKXKXKXKXKXKXKXKXKXKXKXKXKXKXKXKXKXKXKXKXKXKXKXKXHXKXHXLXKXKXKXKXKXKXKXKXKXKXKXKXKXKXKXKXKXKXKXKXKXKXKXKXKXKXKXKXKXKXpXg }                                                                                                                                                                                                                                                                                                                                         ",
"                                                                                                                                                                                                                                                                                                           .- e.LXKXKXKXKXKXKXKXKXKXKXKXKXKXKXKXHXHXHXKXKXKXKXKXKXKXKXKXKXHXHXKXKXKXKXKXKXKXKXKXHXHXKXKXKXKXKXKXKXKXKXKXKXKXKXKXKXKXKXKXKXKXKXKXKXKXKXKXKXKXHXKXKXKXKXKXKXKXKXKXKXKXKXKXKXKXKXKXKXKXKXKXKXKXKXKXKXKXKXKXKXKXKXKXKXKXKXKXKXKXKXKXHXHXHXHXKXKXKXKXKXKXHXHXHXHXKXKXKXKXKXKXKXKXKXKXKXKXKXKXKXKXKXKXKXKXKXKXKXKXKXKXKXKXKXHXKXKXKXKXKXKXKXKXKXKXKXKXKXKXKXKXJXKXBXg L BX                                                                                                                                                                                                                                                                                                                                      ",
"                                                                                                                                                                                                                                                                                                        CXL - wXKXKXKXKXKXKXKXKXKXKXKXKXKXKXKXKXHXKXKXKXKXKXKXKXKXKXKXKXKXKXKXKXKXKXKXKXKXKXKXKXHXHXKXKXKXKXKXKXKXKXKXKXKXKXKXKXKXKXKXKXKXKXKXKXKXKXKXKXKXKXKXKXKXKXKXKXKXKXKXKXKXKXKXKXKXKXKXKXKXKXKXKXKXKXKXKXKXKXKXKXKXKXKXKXHXHXKXKXKXKXKXKXKXKXHXHXKXKXKXKXKXKXHXHXHXHXKXKXKXKXKXKXKXKXKXKXKXKXKXKXKXKXKXKXKXKXKXKXKXKXKXKXKXKXKXKXKXKXKXKXKXKXKXKXKXKXKXKXKXKXKXKXKXKXSXL x pX                                                                                                                                                                                                                                                                                                                                      ",
"                                                                                                                                                                                                                                                                                                        qXd F VXKXKXKXKXKXKXKXKXKXKXKXKXKXKXKXKXKXKXKXKXKXKXKXKXKXKXKXKXKXKXKXKXKXKXKXKXKXKXKXKXKXKXKXKXKXKXKXKXKXKXKXKXKXKXKXKXKXKXKXKXKXKXKXKXKXKXKXKXKXKXKXKXKXKXKXKXKXKXKXKXKXKXKXKXKXKXKXKXKXKXKXKXKXKXKXKXKXKXKXKXKXKXKXKXHXHXKXKXKXKXKXKXKXHXHXHXKXKXKXKXKXKXHXHXHXHXKXKXKXKXKXKXKXKXKXKXKXKXKXKXKXKXKXKXKXKXKXKXKXKXKXKXKXKXKXKXKXKXKXKXKXKXKXKXKXKXKXKXKXKXKXKXKXKXFXP g 6X                                                                                                                                                                                                                                                                                                                                      ",
"                                                                                                                                                                                                                                                                                                        | - e.LXKXKXKXKXKXKXKXKXKXKXKXKXKXKXKXKXHXKXKXKXKXKXKXKXKXKXKXKXKXKXKXKXKXKXKXKXKXKXKXKXKXKXKXKXKXKXKXKXKXKXKXKXKXKXKXKXKXKXKXKXKXKXKXKXKXKXKXKXKXKXKXKXKXKXKXKXKXKXKXKXKXKXKXKXKXKXKXKXKXKXKXKXKXKXKXKXKXKXKXKXKXKXKXKXKXKXKXKXKXKXKXKXHXHXHXHXKXKXKXKXKXKXHXHXHXHXKXKXKXKXKXKXKXKXKXKXKXKXKXKXKXKXKXKXKXKXKXKXKXKXKXKXKXKXKXKXKXKXKXKXKXKXKXKXKXKXKXKXKXKXKXKXKXKXLXe.f 5X                                                                                                                                                                                                                                                                                                                                      ",
"                                                                                                                                                                                                                                                                                                      CXL - 8XHXKXKXKXKXKXKXKXKXKXKXKXKXKXKXKXKXKXKXKXKXKXKXKXKXKXKXKXKXKXKXKXKXKXKXKXKXKXKXKXKXKXKXKXKXKXKXKXKXKXKXKXKXKXKXKXKXKXKXKXKXKXKXKXKXKXKXKXKXKXKXKXKXKXKXKXKXKXKXKXKXKXKXKXKXKXKXKXKXKXKXKXKXKXKXKXKXKXKXKXKXKXKXKXKXHXHXHXHXKXKXKXKXHXHXKXKXKXKXHXKXKXKXHXHXHXHXKXKXKXKXKXKXKXKXKXKXKXKXKXKXKXKXKXKXKXKXKXKXKXKXKXKXKXKXKXKXKXKXKXKXKXKXKXKXKXKXKXKXKXKXKXKXKXHXKX7Xd |                                                                                                                                                                                                                                                                                                                                       ",
"                                                                                                                                                                                                                                                                                                      pXg d BXKXKXKXKXKXKXKXKXKXKXKXKXKXHXKXKXKXKXKXKXKXKXKXKXKXKXKXKXKXKXKXKXKXKXKXKXKXKXKXKXKXKXKXKXKXKXKXKXKXKXKXKXKXKXKXKXKXKXKXKXKXKXPXHXKXKXKXKXKXKXKXKXKXKXKXKXKXKXKXKXKXKXKXKXKXKXKXKXKXKXKXKXKXKXKXKXKXKXKXKXKXKXKXKXKXHXKXHXKXKXKXKXKXHXHXKXKXKXKXKXKXKXKXHXHXHXHXKXKXKXKXKXKXKXKXKXKXKXKXKXKXKXKXKXKXKXKXKXKXKXKXKXKXKXKXKXKXKXKXKXKXKXKXKXKXKXKXKXKXKXKXKXKXKXKXKXqXf  .                                                                                                                                                                                                                                                                                                                                      ",
"                                                                                                                                                                                                                                                                                                      6Xd P DXKXKXKXKXKXKXKXKXKXKXKXKXKXKXKXKXKXKXKXKXKXKXKXKXKXKXKXKXKXKXKXKXKXKXKXKXKXKXKXKXKXKXKXKXKXKXKXKXKXKXKXKXKXKXKXKXKXKXKXKXKXKXLXKXKXKXKXKXHXHXKXKXKXKXKXKXKXKXKXKXKXKXKXKXKXKXKXKXKXKXKXKXKXKXKXKXKXKXKXKXHXKXKXKXKXKXKXKXKXKXKXKXKXHXHXKXKXKXKXKXKXKXKXKXKXKXKXKXKXKXKXKXKXKXKXKXKXKXKXKXKXKXKXKXKXKXKXKXKXKXKXKXKXKXKXKXKXKXKXKXKXKXKXKXKXKXKXKXHXKXKXKXKXKXKXKXBXF U                                                                                                                                                                                                                                                                                                                                       ",
"                                                                                                                                                                                                                                                                                                      | - e.HXHXKXKXKXKXKXKXKXKXKXKXKXKXKXKXKXKXKXKXKXKXKXKXKXKXKXKXKXKXKXKXKXKXKXKXKXKXKXKXKXKXKXKXKXKXKXKXKXKXKXKXKXKXKXKXKXKXKXKXKXKXKXKXKXKXKXKXKXHXHXHXKXKXKXKXKXKXKXKXKXKXKXKXKXKXKXKXKXKXKXKXKXKXKXKXKXKXKXKXKXHXKXKXKXKXKXKXKXKXKXKXKXKXKXKXKXKXKXKXKXKXKXKXKXKXKXKXKXKXKXKXKXKXKXKXKXKXKXKXKXKXKXKXKXKXKXKXKXKXKXKXKXKXKXKXKXKXKXKXKXKXKXKXKXKXKXKXKXLXKXKXKXKXHXKXKXIXH K BX                                                                                                                                                                                                                                                                                                                                    ",
"                                                                                                                                                                                                                                                                                                    ZXK - 8XKXHXKXKXKXKXKXKXKXKXKXKXKXKXKXKXKXKXKXKXKXKXKXKXKXKXHXHXHXHXKXKXKXKXKXKXKXKXKXKXKXKXKXKXKXKXKXKXKXKXKXKXKXKXKXKXKXKXKXKXKXKXKXKXKXKXKXKXKXKXKXKXKXKXKXKXKXKXKXKXKXKXHXHXHXHXHXHXHXKXKXKXKXKXKXKXKXKXKXKXKXHXKXKXKXKXKXKXKXKXKXKXKXHXKXKXKXKXKXKXKXKXKXKXKXKXKXKXKXKXKXKXKXKXKXKXKXKXKXKXKXHXKXKXKXKXKXKXKXKXKXKXKXKXKXKXKXKXKXKXKXKXKXKXKXKXKXKXKXKXKXKXKXKXHXHXKXDXJ x uX                                                                                                                                                                                                                                                                                                                                    ",
"                                                                                                                                                                                                                                                                                                    iXF f cXKXHXKXKXKXKXKXKXKXKXKXKXKXKXKXKXKXKXKXKXKXKXKXKXKXKXKXKXKXKXKXKXKXKXKXKXKXKXKXKXKXKXKXKXKXKXKXKXKXKXKXKXKXKXKXKXKXKXKXKXKXKXKXKXKXKXKXKXKXKXHXHXHXHXKXKXKXKXKXKXKXKXHXHXHXHXHXHXHXKXKXKXKXHXKXKXKXKXKXKXKXHXKXKXKXKXKXKXKXKXKXKXKXHXKXKXKXKXKXKXKXKXKXKXKXKXKXKXKXKXKXKXKXKXKXKXKXKXKXKXKXKXKXKXKXKXKXKXKXKXKXKXKXKXKXKXKXKXKXKXKXKXKXKXKXKXKXKXKXKXKXKXKXKXKXHXKXFXP g qX                                                                                                                                                                                                                                                                                                                                    ",
"                                                                                                                                                                                                                                                                                                    qXd J SXKXKXKXKXKXKXKXKXKXKXKXKXKXKXKXKXKXKXKXKXKXKXKXKXKXKXKXHXHXHXKXHXHXKXKXKXKXKXKXKXKXKXKXKXKXKXKXKXKXKXKXKXKXKXKXKXKXKXKXKXKXKXKXKXKXKXKXKXKXKXHXHXHXHXKXKXKXKXKXKXKXKXKXKXKXKXKXKXKXKXKXKXKXKXKXKXKXKXKXKXKXKXKXKXKXKXKXKXKXKXKXKXKXHXKXKXKXKXKXKXKXKXKXKXKXKXKXKXKXKXKXKXKXKXKXKXKXKXKXKXKXKXKXKXKXKXKXKXKXKXKXKXKXKXKXKXKXKXKXKXKXKXKXKXKXKXKXKXKXKXKXKXKXKXKXHXKXHX| g 0X                                                                                                                                                                                                                                                                                                                                    ",
"                                                                                                                                                                                                                                                                                                    5X- U GXKXKXKXKXKXKXKXKXKXKXKXKXKXKXKXKXKXKXKXKXKXKXKXKXKXKXKXKXKXKXKXKXKXKXKXKXKXKXKXKXKXKXKXKXKXKXKXKXKXKXKXKXKXKXKXKXKXKXKXKXKXKXKXKXKXKXKXKXKXKXHXHXHXHXKXKXKXKXKXKXKXKXKXKXKXKXKXKXKXKXKXKXKXKXKXKXKXKXKXKXKXKXKXKXKXKXKXKXKXKXKXKXKXHXKXKXKXHXKXKXKXKXKXKXKXKXKXKXKXKXKXKXKXKXKXKXKXKXKXKXKXKXKXKXKXKXKXKXKXKXKXKXKXKXKXKXKXKXKXKXKXKXKXKXKXKXHXHXKXKXKXKXKXKXKXKXKXLX| g 7X                                                                                                                                                                                                                                                                                                                                    ",
"                                                                                                                                                                                                                                                                                                    } - 4XHXHXKXKXKXKXKXKXKXKXKXKXKXKXKXKXKXKXKXKXKXKXKXKXKXKXKXKXKXKXKXKXKXKXKXKXKXKXKXKXKXKXKXKXKXKXKXKXKXKXKXKXKXKXKXKXKXKXKXKXKXKXKXKXKXKXKXKXKXKXKXKXHXHXLXHXKXKXKXKXKXKXKXHXHXKXKXKXKXKXKXKXKXKXKXHXKXKXHXKXKXKXKXKXKXKXKXHXHXHXHXKXKXHXHXLXKXKXKXKXKXKXKXKXKXKXKXKXKXKXKXKXKXKXKXKXKXKXKXKXKXKXKXKXKXKXKXKXKXKXKXKXKXKXKXKXKXKXKXKXKXKXKXKXKXKXKXKXKXKXKXKXKXKXKXKXHXKXHXe.h 7X                                                                                                                                                                                                                                                                                                                                    ",
"                                                                                                                                                                                                                                                                                                    K - 8XHXKXKXKXKXKXKXKXKXKXKXKXKXKXKXKXKXKXKXKXKXKXKXKXKXKXKXKXKXKXKXKXKXKXKXKXKXKXKXKXKXKXKXKXKXKXKXKXKXKXKXKXKXKXKXKXKXKXKXKXKXKXKXKXKXKXKXKXKXKXKXKXHXHXHXKXKXKXKXKXKXKXKXKXKXKXKXKXKXKXKXKXKXKXKXKXKXKXHXHXKXKXHXKXKXKXKXHXHXHXHXHXHXHXLXHXKXKXKXKXKXKXKXKXKXKXKXKXKXKXKXKXKXKXKXKXKXKXKXKXKXKXKXKXKXKXKXKXKXKXKXKXKXKXKXKXKXKXKXKXKXKXKXKXKXKXKXKXKXKXKXKXKXKXKXKXKXKXKX5Xf 7X                                                                                                                                                                                                                                                                                                                                    ",
"                                                                                                                                                                                                                                                                                                  BXH 6 wXKXKXKXKXKXKXKXKXKXKXKXKXKXKXKXKXKXKXKXKXKXKXKXKXKXKXKXKXKXKXKXKXKXKXKXKXKXKXKXKXKXKXKXKXKXKXKXKXKXKXKXKXKXKXKXKXKXKXKXKXKXKXKXKXKXKXKXKXKXKXKXKXKXHXHXKXKXKXKXKXKXKXKXKXKXKXKXKXKXKXKXKXKXKXKXKXKXKXHXHXKXKXHXKXKXKXKXKXKXKXKXHXHXHXHXHXKXKXKXKXKXKXKXKXKXKXKXKXKXKXKXKXKXKXKXKXKXKXKXKXKXKXKXKXKXKXKXKXKXKXKXKXKXKXKXKXKXKXKXKXKXKXKXKXKXKXKXKXKXKXKXKXKXKXKXKXKXKXFX .g 6X                                                                                                                                                                                                                                                                                                                                    ",
"                                                                                                                                                                                                                                                                                                  uXg d BXKXHXHXKXKXKXKXKXKXKXKXKXKXKXKXKXKXKXKXKXKXKXKXKXKXKXKXKXKXKXKXKXKXKXKXKXKXKXKXKXKXKXKXKXKXKXKXKXKXKXKXKXKXKXKXKXKXKXKXKXKXKXKXKXKXKXKXHXKXKXKXKXKXKXKXKXKXHXKXKXKXKXKXKXKXKXKXKXKXKXKXKXKXKXKXKXKXKXKXKXKXKXKXKXKXKXKXKXKXKXKXKXKXKXHXHXKXKXKXKXKXKXKXKXKXKXKXKXKXKXKXKXKXKXKXKXKXKXKXKXKXKXKXKXKXKXKXKXKXKXKXKXKXKXKXKXKXKXKXKXKXKXKXKXKXKXKXKXKXJXKXKXKXKXKXLXKXLXwXg J MX                                                                                                                                                                                                                                                                                                                                    ",
"                                                                                                                                                                                                                                                                                                  qXd f VXKXKXHXKXKXKXKXKXKXKXKXKXKXKXKXKXKXKXKXKXKXKXKXKXKXKXKXKXKXKXKXKXKXKXKXKXKXKXKXKXKXKXKXKXKXKXKXKXKXKXKXKXKXKXKXKXKXKXKXKXKXKXKXKXKXKXKXKXKXKXKXKXKXKXKXKXKXKXKXKXKXKXKXKXKXKXKXKXKXKXKXKXKXKXKXKXKXKXKXKXKXKXKXKXKXKXKXKXKXKXKXKXHXHXHXKXKXKXKXKXKXKXKXKXKXKXKXKXKXKXKXKXKXHXHXKXKXKXKXKXKXKXKXKXKXKXKXKXKXKXKXKXKXKXKXKXKXKXKXKXKXKXKXKXKXKXKXKXKXKXKXKXKXKXKXPXIXpXH g 5X                                                                                                                                                                                                                                                                                                                                      ",
"                                                                                                                                                                                                                                                                                                  6Xk F DXKXKXKXKXKXKXKXKXKXKXKXKXKXKXKXKXKXKXKXKXKXKXKXKXKXKXKXKXKXKXKXKXKXKXKXKXKXKXKXKXKXKXKXKXKXKXKXKXKXKXKXKXKXKXKXKXKXKXKXKXKXKXKXKXHXHXKXKXKXKXKXKXKXKXKXKXKXKXKXKXKXKXKXKXKXKXKXKXKXKXKXKXKXKXKXKXKXKXKXKXKXKXKXKXKXKXKXKXKXKXKXHXHXHXKXKXKXKXKXKXKXKXKXKXKXKXKXKXKXKXKXKXKXHXHXKXKXKXKXKXKXKXKXKXKXKXKXKXKXKXKXKXKXKXKXKXKXKXKXKXKXKXKXKXKXKXKXKXKXKXKXKXKXKXKXIX4XF F F.VX                                                                                                                                                                                                                                                                                                                                      ",
"                                                                                                                                                                                                                                                                                                  7X- P PXKXKXKXKXKXKXKXKXKXKXKXKXKXKXKXKXKXKXKXKXKXKXKXKXKXKXKXKXKXKXKXKXKXKXKXKXKXKXKXKXKXKXKXKXKXKXKXKXKXKXKXKXKXKXKXKXKXKXKXKXKXKXKXKXHXHXKXKXKXKXKXKXKXKXKXKXKXKXKXKXKXKXKXKXKXKXKXKXKXKXKXKXKXKXKXKXKXKXKXKXKXKXKXKXKXKXKXKXKXKXKXHXKXHXHXKXKXKXKXKXKXKXKXKXKXKXKXKXKXKXKXKXKXHXHXKXKXKXKXKXKXKXKXKXKXKXKXKXKXKXKXKXKXKXKXKXKXKXKXKXKXKXKXKXKXKXKXKXKXKXKXHXKXLXVX .d H 7XBX                                                                                                                                                                                                                                                                                                                                        ",
"                                                                                                                                                                                                                                                                                                  5X-  .HXKXKXHXKXKXKXKXKXKXKXKXKXKXKXKXKXKXKXKXKXKXKXKXKXKXKXKXKXKXKXLXHXKXKXKXKXKXKXKXKXKXKXKXKXKXKXKXKXKXKXKXKXKXKXKXKXKXKXKXKXKXKXKXKXKXHXKXKXKXKXKXKXKXKXKXKXKXKXKXKXKXKXKXKXKXKXKXKXKXKXKXKXKXKXKXKXKXKXKXKXKXKXKXKXKXKXKXKXKXKXKXKXKXHXHXHXHXHXHXKXKXKXKXKXKXKXKXKXKXKXKXHXHXHXHXKXKXKXKXKXKXKXKXKXKXKXKXHXKXKXKXKXKXKXKXKXKXKXKXKXKXKXKXHXHXKXKXKXKXKXKXKXHXuXK d L 0X                                                                                                                                                                                                                                                                                                                                            ",
"                                                                                                                                                                                                                                                                                                  | - e.KXKXKXKXKXKXKXKXKXKXKXKXKXHXHXHXKXKXKXKXKXKXKXKXKXKXKXKXKXKXKXHXKXKXKXKXKXKXKXKXKXKXKXKXKXKXKXKXKXKXKXKXKXKXKXKXKXKXKXKXKXKXKXKXKXKXKXKXKXKXKXKXKXKXKXKXKXKXKXKXKXKXKXKXKXKXKXKXKXKXKXKXKXKXKXKXKXKXKXKXKXKXKXKXKXKXKXHXKXKXKXKXKXKXHXHXKXKXKXKXKXKXKXKXKXKXKXKXLXHXKXKXKXKXHXHXHXKXKXKXKXKXKXKXKXKXKXKXKXKXKXKXKXKXKXKXKXKXKXKXKXKXKXKXKXKXJXJXKXKXHXHXDX7XF f U yX                                                                                                                                                                                                                                                                                                                                              ",
"                                                                                                                                                                                                                                                                                                  | - 4XKXHXKXKXKXKXKXKXKXKXKXKXKXHXHXKXKXKXKXKXKXKXKXKXKXKXKXKXKXKXKXKXKXKXKXKXKXKXKXKXKXKXKXKXKXKXKXKXKXKXKXKXKXKXKXKXKXKXKXKXKXKXKXKXKXKXKXKXKXKXKXKXKXKXKXKXKXKXKXKXKXKXKXKXKXKXKXKXKXKXKXKXKXKXKXKXKXKXKXKXKXKXKXKXKXKXKXHXKXKXKXKXKXKXHXHXKXKXKXKXKXKXKXKXKXKXKXKXHXKXKXKXKXKXHXHXHXKXKXKXKXKXKXKXKXKXKXKXKXKXKXKXKXKXKXKXKXKXKXKXKXKXKXKXKXKXJXJXHXKXKXBX} f F F.uX                                                                                                                                                                                                                                                                                                                                                ",
"                                                                                                                                                                                                                                                                                                   .- 4XHXHXKXKXKXKXKXKXKXKXKXKXKXHXHXKXKXKXKXKXKXKXKXKXKXKXKXKXKXKXKXKXKXKXKXKXKXKXKXKXKXKXKXKXKXKXKXKXKXKXKXKXKXKXKXKXKXKXKXKXKXKXKXKXKXKXKXKXKXKXKXKXKXKXKXKXKXKXKXKXKXKXKXKXKXKXKXKXKXKXKXKXKXKXKXKXKXKXKXKXKXKXKXKXKXKXKXHXHXKXKXKXKXKXHXHXKXKXKXKXKXKXKXKXKXKXKXKXHXHXKXKXKXKXHXHXKXKXKXKXKXKXKXKXKXKXKXKXKXKXKXKXKXKXKXHXKXJXJXJXKXKXKXKXKXKXJXJXKXDX8XH f K 6XCX                                                                                                                                                                                                                                                                                                                                                  ",
"                                                                                                                                                                                                                                                                                                  | - 4XKXKXKXKXKXKXKXKXKXKXKXKXKXKXKXKXKXKXKXKXKXKXKXKXKXKXKXKXKXKXKXKXKXHXHXKXKXKXKXKXKXKXKXKXKXKXKXKXKXKXKXKXKXKXKXKXKXKXKXKXKXKXKXKXKXKXKXKXKXKXKXKXKXKXKXHXKXKXKXKXKXKXKXKXKXKXKXHXHXHXHXKXKXJXHXKXKXKXKXHXKXKXKXKXKXKXKXHXKXKXKXKXKXKXHXHXKXKXKXKXKXKXKXKXKXKXKXKXKXKXKXKXKXKXHXHXKXKXKXKXKXKXKXKXKXKXKXKXKXKXKXKXKXKXHXLXJXJXJXKXKXKXKXKXKXKXKXHXBX| g g  .pX                                                                                                                                                                                                                                                                                                                                                      ",
"                                                                                                                                                                                                                                                                                                  | - 4XKXKXKXKXKXKXKXKXKXKXKXKXKXKXHXHXKXKXKXKXKXKXKXKXKXKXKXKXKXKXKXKXKXHXHXHXHXKXKXKXKXKXKXKXKXKXKXKXKXKXKXKXKXKXKXKXKXKXKXKXKXKXKXKXKXKXKXKXKXKXKXKXKXKXKXKXKXKXKXKXKXKXKXKXKXKXKXKXKXKXHXKXKXKXKXKXKXKXKXKXKXKXKXKXHXHXKXKXKXKXKXKXKXKXKXKXKXKXKXKXHXHXHXHXHXHXKXKXHXHXKXKXKXKXKXKXKXKXKXKXKXKXKXKXJXJXJXJXKXKXKXKXKXJXJXJXJXJXJXKXHXKXHXKXKXLXVX8XJ d J 5XNX                                                                                                                                                                                                                                                                                                                                                        ",
"                                                                                                                                                                                                                                                                                                  5Xk 4XKXKXKXKXKXKXKXKXKXKXKXKXKXKXKXHXKXKXKXKXKXKXKXKXKXKXKXHXKXKXKXKXKXKXHXHXHXKXKXKXKXKXHXHXKXKXKXKXKXKXKXKXKXKXKXKXKXKXKXKXKXKXKXKXKXKXKXKXKXKXKXKXKXKXKXKXKXKXKXKXKXKXKXKXKXKXKXKXKXKXHXHXHXKXKXKXKXKXKXKXKXKXKXKXHXKXKXKXKXKXKXKXKXKXHXKXKXKXKXKXKXKXHXHXHXHXKXKXHXHXKXKXKXKXKXKXKXKXKXKXKXKXJXKXJXJXJXJXKXKXKXKXKXKXJXJXJXJXJXKXKXKXKXKXDXwXI 6 = L qXZX                                                                                                                                                                                                                                                                                                                                                          ",
"                                                                                                                                                                                                                                                                                                  6Xf K SXHXHXKXKXKXKXKXKXKXKXKXKXKXKXKXKXKXKXKXKXKXKXKXKXKXHXHXKXKXKXKXKXKXHXHXHXKXKXKXKXKXKXHXKXKXKXKXKXKXKXKXKXKXKXKXKXKXKXKXKXKXKXKXKXKXKXKXKXKXKXKXKXKXKXKXKXKXKXKXKXKXKXKXKXKXKXKXKXKXHXHXHXHXKXKXKXKXKXKXKXKXHXHXKXKXKXKXKXKXKXKXKXKXKXKXKXKXKXKXKXKXHXHXHXHXKXKXHXHXKXKXKXKXKXKXKXKXKXKXJXJXJXJXJXKXKXKXJXJXKXKXKXKXJXJXJXKXLXKXKXKXFXwXI 2 @ @ 6 0X                                                                                                                                                                                                                                                                                                                                                              ",
"                                                                                                                                                                                                                                                                                                  NXK k  .VXHXKXKXKXKXKXKXKXKXKXKXKXKXKXKXKXKXKXKXKXKXKXKXHXHXHXKXKXKXKXKXKXHXHXHXHXKXKXKXKXKXKXKXKXKXKXKXKXKXKXKXKXKXKXKXKXKXKXKXKXKXHXKXKXKXKXKXKXKXKXKXKXKXKXKXKXKXKXKXKXKXKXKXKXKXKXKXKXHXHXHXKXKXHXKXKXKXKXKXKXKXKXKXKXKXKXKXKXKXKXKXKXHXHXKXKXKXKXKXHXLXLXHXHXHXKXKXHXKXKXKXKXKXKXLXKXKXKXJXJXJXJXKXKXKXKXJXKXKXKXKXKXKXJXKXKXKXDXDXVXU 6 > 5 @ @ I BX                                                                                                                                                                                                                                                                                                                                                              ",
"                                                                                                                                                                                                                                                                                                    yXK d F 7XSXKXKXKXHXKXKXKXKXKXKXKXHXHXHXKXHXKXKXKXKXKXKXKXKXKXKXKXKXKXKXHXHXHXKXKXKXKXKXKXKXKXKXKXKXKXKXKXKXKXKXKXHXHXKXKXKXKXKXHXHXKXKXHXHXHXHXHXHXKXKXKXKXHXHXKXKXHXHXKXKXKXKXKXKXKXKXKXKXKXKXHXHXHXLXHXKXKXKXHXHXKXKXKXKXKXKXKXKXKXKXKXHXHXHXHXHXKXKXKXHXHXHXKXKXKXKXKXKXKXKXJXKXKXJXKXKXJXKXHXHXHXJXKXKXJXJXKXKXKXKXKXKXKXKXLXeX4XG > m S N.V 7 U                                                                                                                                                                                                                                                                                                                                                                 ",
"                                                                                                                                                                                                                                                                                                      iX .x d J qXFXKXKXHXKXKXKXHXHXKXKXHXHXHXHXKXKXKXKXKXKXKXKXKXKXKXKXKXKXKXKXHXKXKXKXKXKXKXKXHXHXKXKXKXKXKXKXKXKXHXHXHXHXKXKXKXKXHXHXKXKXHXHXHXHXHXHXLXKXKXKXHXHXKXKXHXKXKXKXKXKXKXKXKXKXKXKXKXKXKXKXHXLXHXKXKXKXHXHXHXHXHXKXKXKXKXKXKXHXKXHXHXHXHXHXKXKXKXKXHXHXKXKXKXKXKXKXKXJXJXKXKXKXJXKXKXKXKXKXJXJXKXKXJXJXKXKXJXKXKXJXPXVX4XG 4 : D A.L.N.1 6 9X                                                                                                                                                                                                                                                                                                                                                                ",
"                                                                                                                                                                                                                                                                                                          6X} g d P wXSXHXKXJXHXLXLXHXKXKXKXKXHXKXKXKXKXKXKXKXKXKXKXHXKXKXKXKXKXHXKXKXHXKXKXKXHXKXKXKXKXKXKXKXKXKXKXHXHXHXHXKXKXKXHXHXHXHXHXHXHXKXKXKXKXLXHXKXKXKXKXKXKXHXKXKXKXKXKXKXKXKXKXKXKXKXKXKXKXKXJXJXKXJXJXHXHXHXHXHXKXKXKXKXKXKXHXKXKXHXHXHXHXKXKXKXKXHXHXKXKXKXHXKXKXJXJXJXKXKXKXKXJXKXKXKXKXJXJXJXJXJXJXJXJXJXKXPXBX4XG > < N N.=X=X3XS > G MX                                                                                                                                                                                                                                                                                                                                                                ",
"                                                                                                                                                                                                                                                                                                            BX6XK k - J 4XIXKXKXHXLXLXLXKXKXKXKXKXKXKXKXKXKXKXKXKXKXKXKXKXKXKXKXHXKXKXHXKXKXKXHXKXKXKXKXKXKXKXKXKXKXKXKXKXKXKXKXKXHXHXHXHXHXHXHXKXKXKXKXKXHXKXKXKXKXKXKXHXKXKXKXKXKXKXKXKXKXKXKXKXKXKXKXKXKXJXKXJXJXHXHXHXHXHXKXKXKXKXKXKXHXKXKXKXHXHXHXKXKXKXKXHXKXKXKXHXKXKXKXLXLXJXKXKXKXKXJXKXKXKXKXKXKXKXKXJXJXJXJXIXwXU V # : N N.L.=X<X<XL.B 2 D.                                                                                                                                                                                                                                                                                                                                                                  ",
"                                                                                                                                                                                                                                                                                                                CXF.6 O @ G qXSXHXKXKXHXHXKXKXKXKXKXKXHXKXKXHXKXKXKXKXKXKXKXKXKXKXKXKXHXKXKXKXKXHXHXHXHXHXKXKXKXKXKXKXKXKXKXKXKXKXKXKXHXKXKXKXHXKXKXKXKXKXKXKXKXKXKXKXKXKXKXKXKXKXKXKXKXKXKXKXKXKXKXKXKXKXKXKXKXJXKXKXJXKXKXKXKXKXKXKXKXKXKXKXKXKXKXKXKXKXKXKXKXKXKXKXKXKXKXKXJXJXJXJXJXJXJXKXKXJXKXKXJXJXHXLXHXKXHXVXeXG 5 + < N N.L.=X=X<X<X3Xn.: Z wX                                                                                                                                                                                                                                                                                                                                                                  ",
"                                                                                                                                                                                                                                                                                                                  NXF O o o 7 G eXIXLXHXHXHXKXKXKXKXKXKXKXKXHXKXKXKXKXKXKXKXKXKXKXKXKXKXKXKXKXKXHXHXHXHXHXHXHXHXKXKXKXKXKXKXKXKXKXKXKXHXKXKXKXHXKXKXKXKXKXKXKXKXKXKXKXKXKXKXKXKXKXKXKXKXKXKXKXKXKXKXKXKXKXKXKXKXKXKXKXKXKXKXKXKXKXKXKXKXKXKXKXKXKXKXKXKXKXKXKXKXKXKXKXKXKXKXKXJXJXJXLXLXJXHXKXKXKXKXJXKXLXKXKXPXVX4XG > + 1 D N.L.#X<X<X<X<X<XL.N 1 U IX                                                                                                                                                                                                                                                                                                                                                                  ",
"                                                                                                                                                                                                                                                                                                                  ZX| 2 : D B : : G e.BXLXHXKXHXKXKXHXHXKXKXKXKXKXKXKXKXKXKXKXKXKXKXKXKXKXKXKXKXHXHXHXHXHXKXHXHXKXKXKXKXKXKXKXKXKXKXKXHXKXKXKXKXKXKXKXKXKXKXKXKXKXKXKXKXKXKXKXKXKXKXKXKXKXKXKXKXKXKXKXKXKXKXKXKXKXKXKXKXKXKXKXKXKXKXKXKXKXKXKXKXKXKXKXKXKXKXKXKXHXHXKXKXKXKXKXJXJXJXLXHXHXHXKXJXJXJXJXJXHXDXuX4XG > : B S S.L.=X=X=X<X<X<X<X=XS.1 V 0X                                                                                                                                                                                                                                                                                                                                                                    ",
"                                                                                                                                                                                                                                                                                                                    6X6 4 Y S.S N : : V 4XVXLXKXKXKXHXHXKXKXKXKXKXKXKXKXKXKXKXKXKXKXKXKXKXKXKXKXHXHXHXHXHXKXKXHXKXKXKXKXKXKXKXKXKXKXKXKXKXHXHXKXKXKXKXKXKXKXKXKXKXKXKXKXKXKXKXKXKXKXKXKXKXKXKXKXKXKXKXKXKXKXKXKXKXKXKXKXKXKXKXKXKXKXKXKXKXKXKXKXKXKXKXKXKXKXKXKXHXHXHXJXKXKXKXJXKXKXKXKXKXHXHXHXJXJXDXIXwXU 6 : 1 N N.L.=X=X<X%X%X*X=X<X<X3XL.N 1 U VX                                                                                                                                                                                                                                                                                                                                                                    ",
"                                                                                                                                                                                                                                                                                                                    uXZ : S =X<XL.S.N < : 6 U wXSXKXHXKXHXLXKXKXJXKXKXKXKXKXKXKXKXKXHXHXKXKXKXKXHXHXHXHXHXHXHXHXKXKXKXKXKXKXKXKXKXKXKXKXKXHXHXKXKXKXKXKXKXKXKXKXKXKXKXKXKXKXKXKXKXKXKXKXKXKXKXKXKXKXKXKXKXKXKXKXKXKXKXKXKXKXJXJXKXKXKXKXKXKXKXKXKXKXKXKXKXKXKXJXJXJXJXJXKXKXJXKXJXKXJXJXJXKXKXLXVXwXU G 4 : 3 N N.L.=X1X<X<X<X<X<X;X=X<X<X3Xn.1 Z 0X                                                                                                                                                                                                                                                                                                                                                                      ",
"                                                                                                                                                                                                                                                                                                                    ZXU @ N =X<X<X<XL.N.D 3 : 4 G 4XBXDXKXKXKXKXJXJXJXKXKXKXKXKXKXKXKXKXKXKXKXKXHXHXHXHXHXHXKXKXKXKXKXKXKXKXKXKXKXKXKXKXKXHXHXHXKXLXLXKXKXKXKXKXKXKXKXKXKXKXKXKXKXKXKXKXKXKXKXKXKXKXKXJXKXKXKXKXJXJXJXJXKXKXJXJXKXKXKXKXKXKXKXKXKXKXKXKXKXKXKXKXJXJXJXJXJXJXJXKXJXJXJXJXLXDXVXeXY 5 : : N S N.K.#X%X%X%X<X<X<X<X<X<X<X<X<XL.B > U VX                                                                                                                                                                                                                                                                                                                                                                      ",
"                                                                                                                                                                                                                                                                                                                      5X6 1 A.3X<X1X1XK.L.L.N.N 3 : 4 Y eXVXDXLXJXKXKXKXJXKXKXKXKXKXKXKXKXKXKXKXHXHXHXHXHXHXHXHXHXKXKXKXKXKXKXHXKXKXKXKXKXKXHXHXKXLXLXKXKXKXKXKXKXKXKXKXKXKXKXKXKXKXKXKXKXKXKXKXJXJXHXHXKXKXKXKXJXJXJXJXKXKXJXJXKXKXKXKXKXKXJXJXJXKXKXKXKXJXKXKXJXJXJXJXJXJXJXJXKXPXIXwX4XY 6 > : m A N.L.#X=X=X=X%X%X%X<X>X>X<X<X<X%X=X=Xn.; 6 0X                                                                                                                                                                                                                                                                                                                                                                        ",
"                                                                                                                                                                                                                                                                                                                      uXF > S =X1X1X1X1X1X<X<XL.N.S m : > V Y eXVXDXJXKXKXKXKXKXHXKXKXKXHXHXKXKXHXHXHXHXHXKXKXHXHXKXKXKXKXKXKXKXKXKXKXKXKXKXHXKXKXKXKXKXKXKXKXKXKXKXKXKXKXKXKXKXKXKXKXKXKXKXKXKXJXHXHXJXKXKXKXKXHXJXJXJXKXKXKXKXKXKXKXKXJXJXJXJXKXKXKXJXJXJXJXJXJXJXJXKXKXKXPXVXeX4XG 5 : : 3 N S L.K.#X@X%X>X%X*X*X%X>X>X>X>X>X<X>X<X3XS.< # G MX                                                                                                                                                                                                                                                                                                                                                                        ",
"                                                                                                                                                                                                                                                                                                                        } 2 B L.<X<X1X<X<X<X<X<X1XL.L.N.A 3 : 1 V Y 4XwXVXLXKXKXJXJXKXKXJXKXLXLXKXKXKXJXKXKXKXKXKXKXKXKXKXKXHXKXKXKXKXKXKXKXKXKXKXKXKXKXKXKXKXKXKXKXKXKXKXKXKXKXKXKXKXKXKXHXJXJXKXKXJXLXHXKXKXKXKXKXKXKXKXJXKXKXKXKXKXHXKXKXKXKXJXKXKXJXJXJXJXKXJXKXLXDXuXeXU G 4 : + 3 N n.B.K.1X1X%X%X@X@X;X;X<X%X%X%X>X>X>X%X<X=X3X3XD + @ I VX                                                                                                                                                                                                                                                                                                                                                                        ",
"                                                                                                                                                                                                                                                                                                                        0X6 : S 1X<X<X<X<X<X<X<X<X1X1X1XK.A.N.S 3 : > 4 V U eXVXDXPXKXKXKXKXLXLXKXLXLXJXKXKXKXKXKXKXKXKXKXKXHXKXKXKXKXKXKXKXKXKXKXKXKXKXKXKXKXKXKXKXKXKXKXKXKXKXKXKXKXKXHXLXLXJXJXJXJXLXKXKXKXHXKXKXKXKXKXKXKXKXKXKXKXHXKXJXKXKXKXKXKXJXJXJXLXDXVXwX4XY 5 1 : < 3 N S B.L.=X#X;X;X;X;X;X%X;X;X;X<X%X*X*X>X>X>X>X%X#X=XN.: X @ I                                                                                                                                                                                                                                                                                                                                                                           ",
"                                                                                                                                                                                                                                                                                                                        CXI > N L.<X<X<X1X1X<X<X<X<X;X<X<X=X=X=XL.N.S N m : 4 5 G U eXwXVXDXGXHXKXKXJXJXHXHXKXKXJXJXJXJXKXKXHXHXKXKXKXKXKXKXKXKXKXKXKXKXKXKXKXKXKXKXKXKXKXKXKXKXKXKXHXHXHXLXLXJXJXJXJXLXKXKXKXKXKXKXKXJXKXKXKXKXKXKXJXJXJXKXKXKXKXPXDXVXwXeX4XU Z 5 : : m C S N.B.G.#X=X1X;X<X;X;X;X;X;X:X:X:X:X>X%X*X&X%X%X%X%X;X#XN.< + # @ U                                                                                                                                                                                                                                                                                                                                                                           ",
"                                                                                                                                                                                                                                                                                                                          9X6 : S K.1X<X<X<X<X<X<X<X<X<X<X*X%X;X;X1X=XL.L.N.S B 3 : : 5 V Y U 4XwX  IXDXLXLXHXKXJXJXHXJXHXHXHXHXKXKXKXKXKXKXKXKXKXKXKXKXKXKXKXKXJXJXJXKXJXJXJXKXKXKXKXJXJXJXJXJXJXJXJXJXKXKXKXKXJXJXKXKXKXKXKXKXKXKXHXJXPXDXVXwXeXP.U G 5 > : + : 3 D n.B.#X%X*X$X$X$X%X;X<X;X%X;X;X;X%X:X$X$X$X>X&X&X*X%X%X%X%X1XB.B + : : > I                                                                                                                                                                                                                                                                                                                                                                           ",
"                                                                                                                                                                                                                                                                                                                          VXG > N L.<X<X<X<X<X1X;X<X<X<X<X>X;X;X<X%X%X=X=X1X1XL.B.N.A M 3 : + : 4 5 V Y U 4XeXwXcXBXVXSXDXLXLXHXHXLXHXKXKXKXKXKXHXKXKXJXKXKXKXKXJXJXJXKXKXKXJXKXKXKXJXJXJXJXJXJXKXJXJXJXJXJXKXKXJXJXLXPXPXDXIXVXBXwXeX4XU Y Z 4 > : : : 3 B A n.N.B.K.#X=X%X>X%X*X;X>X>X>X%X*X%X;X;X:X:X%X%X%X%X*X&X*X*X*X%X*X<XL.M + + N N > Y VX                                                                                                                                                                                                                                                                                                                                                                        ",
"                                                                                                                                                                                                                                                                                                                            7X6 : S L.1X<X<X<X;X>X<X<X<X<X>X>X<X;X;X;X;X;X,X<X;X1X=X#XK.A.S.S N N 3 : : : + > 4 5 6 G G Y U P.4XeXeXeXwXwXwX  VXVXVXVXDXPXPXPXPXDXPXDXIXDXDXPXLXPXPXIXDXLXJXPXPXIXDXIXIXVX    wXwXeX4XP.U Y G V 5 5 > : + : < 3 N D S N.B.G.#X<X@X*X%X>X%X%X:X>X$X%X;X;X;X*X*X*X*X$X$X$X%X%X%X%X&X%X%X%X%X*X%XK.S : + B N.A : G VX                                                                                                                                                                                                                                                                                                                                                                        ",
"                                                                                                                                                                                                                                                                                                                            CXU 7 4 N.=X<X<X<X<X<X,X,X,X>X>X>X<X;X,X;X;X;X<X,X,X;X=X@X<X<X=X=X#XK.K.B.N.A A C M m 3 : : : : : : : : : 4 4 4 5 6 6 V G Y Y Y Y Y U U Y G Y I U U U U U U U U U U Y Y G V V 5 5 4 > > : : : : : : 3 B N A A N.B.K.K.#X=X=X%X%X;X%X$X%X%X%X$X%X>X>X$X%X;X;X-X$X$X$X$X$X$X$X&X$X$X$X$X:X>X%X*X>XK.A : + m B.L.S : G VX                                                                                                                                                                                                                                                                                                                                                                        ",
"                                                                                                                                                                                                                                                                                                                              yXF @ m A.=X<X<X<X<X,X,X,X>X>X>X,X>X,X;X;X1X;X;X,X,X,X-X>X>X:X>X2X:X%X,X,X=X#XK.K.L.L.N.N.N.S S N D N N N B 3 < 3 : : : : : : : : + + : : : : : + : : : : : : : + : < 3 3 3 3 B N N N N A S S N.N.B.L.K.#X#X%X:X>X*X;X-X-X-X:X:X:X&X>X:X*X:X:X:X:X>X:X-X-X:X&X&X&X&X&X&X&X&X$X-X-X$X$X&X$X%XK.C , + m M.#X=Xn.: G VX                                                                                                                                                                                                                                                                                                                                                                        ",
"                                                                                                                                                                                                                                                                                                                                6Xf : D L.<X=X%X%X<X<X<X<X%X$X;X;X>X>X>X-X>X,X,X,X;X*X;X;X:X>X>X,X;X;X;X;X1X1X#X;X1X1X1X1X=X=X#XK.L.K.K.K.L.L.B.N.N.N.N.M.n.n.N.n.n.n.n.m.n.n.n.n.n.n.n.n.n.n.n.M.N.B.B.B.B.K.K.K.K.K.=X1X#X#X#X=X=X%X%X%X%X%X:X:X:X-X-X,X>X>X:X$X>X>X$X:X>X$X$X$X$X:X:X:X$X$X%X&X&X&X&X%X*X*X%X%X$X*X<XA.A ; ; m N.#X%X=Xn.: G VX                                                                                                                                                                                                                                                                                                                                                                        ",
"                                                                                                                                                                                                                                                                                                                                  | 6 : A A.#X#X;X<X>X:X%X@X@X@X;X-X:X>X-X:X>X>X,X;X%X;X*X;X;X:X:X>X;X;X,X-X>X-X:X:X>X>X;X$X-X*X;X;X;X>X>X<X<X;X*X*X@X@X=X#X@X#X#X%X%X%X#X#X#X#X%X%X=X=X#X#X#X@X=X;X-X$X$X$X-X*X$X$X$X-X,X$X$X$X$X;X;X$X%X%X>X:X:X:X-X-X-X;X:X:X:X:X$X:X:X:X$X$X{.$X$X:X$X$X$X&X&X&X&X$X$X$X$X*X$X$X#XB.M ; + B B.#X@X%X#XA : Z MX                                                                                                                                                                                                                                                                                                                                                                        ",
"                                                                                                                                                                                                                                                                                                                                  BXU 2 ; N A.=X<X;X;X%X>X%X$X*X*X-X:X,X-X-X,X>X,X,X;X;X@X-X;X;X%X>X,X>X:X$X>X-X-X;X;X;X*X@X-X*X;X%X%X;X$X>X<X%X%X%X%X*X;X;X;X@X@X;X;X;X*X;X;X;X;X:X;X;X%X@X%X:X-X-X-X-X>X:X-X-X>X:X-X&X>X$X*X*X*X-X-X*X$X&X&X:X&X:X:X:X-X$X:X>X:X$X$X*X%X$X$X:X$X$X$X&X$X$X$X:X&X&X$X$X$X$X|.$X$X#XN.B ; ; C B.;X-X$X;X=XN.< V MX                                                                                                                                                                                                                                                                                                                                                                        ",
"                                                                                                                                                                                                                                                                                                                                    pXY > ; A L.1X;X;X%X%X%X%X*X*X-X>X,X:X>X:X>X>X;X;X,X-X-X;X;X%X,X2X>X>X$X-X$X*X;X;X>X-X*X>X,X*X%X@X;X:X;X>X*X*X$X$X-X>X,X;X%X;X*X;X>X;X>X>X,X-X:X*X@X*X>X:X:X>X:X$X-X>X:X:X:X>X:X-X$X>X&X$X:X-X-X-X-X$X&X:X:X&X&X:X:X$X$X-X:X:X$X$X*X$X$X:X>X$X$X$X&X$X$X$X:X&X&X$X$X$X{.|.$X#XN.m ; ; B B.$X|.:X;X%X<XN.< V nX                                                                                                                                                                                                                                                                                                                                                                        ",
"                                                                                                                                                                                                                                                                                                                                      yXG > : S =X;X;X;X;X%X$X$X$X>X,X,X>X:X:X>X$X$X,X;X;X*X*X$X$X>X,X<X>X:X:X-X*X*X%X;X;X-X,X,X;X*X*X-X>X-X*X$X:X:X-X$X,X;X@X%X*X$X$X,X-X>X>X:X-X-X$X%X;X-X:X:X:X:X-X-X:X:X:X:X-X$X-X>X&X&X>X>X:X>X:X$X$X:X&X:X.X$X-X$X-X$X$X-X.X&X&X&X|.&X&X:X&X$X$X$X$X$X$X:X&X&X$X$X&X:X.X#Xm.m + : A V.@X*X$X*X$X%X<XB.< V nX                                                                                                                                                                                                                                                                                                                                                                        ",
"                                                                                                                                                                                                                                                                                                                                        0XG # B K.>X;X;X;X;X;X:X:X>X>X>X:X:X$X:X$X-X-X;X;X*X*X:X-X:X>X;X:X$X-X>X>X,X;X;X;X-X>X,X;X-X-X;X$X$X*X-X$X:X-X$X$X-X*X:X:X$X$X-X$X-X:X:X:X:X-X:X-X-X:X:X:X:X:X-X:X:X:X:X$X$X-X:X|.|.:X:X&X-X$X$X&X2X&X|..X-X-XOXOXOX|.-X|.&X:X:X$X&X|..X$X$X$X$X:X$X$X.X.X.X.X$X{.$XK.b.< ; < A G.*X%X$X$X*X%X%X1XB.< V wX                                                                                                                                                                                                                                                                                                                                                                        ",
"                                                                                                                                                                                                                                                                                                                                        IX .> 3 K.,X@X@X-X-X:X:X:X>X2X>X>X&X:X>X>X>X*X*X@X@X-X>X:X-X-X$X-X-X-X:X:X:X>X>X:X:X>X>X-X$X-X;X$X$X$X:X&X:X&X$X-X:X-X:X:X:X-X-X-X>X2X>X>X:X:X>X:X:X:X:X2X2X:X:X-X$X-X-X$X$X$X$X(.(.-X$X|.$X-X&X&X2X.X{.$X-X$X.X|.$X|.|..X$X$X&X$X$X{.-X$X{.$X$X:X$X{.{..X.X.X$X$XG.A < ; < A G.*X&X&X&X*X%X;X%X1XB.< 5 wX                                                                                                                                                                                                                                                                                                                                                                        ",
"                                                                                                                                                                                                                                                                                                                                          D.> 3 L.,X1X-X@X*X-X:X$X:X>X>X>X:X>X>X>X,X-X-X@X@X-X-X-X$X$X(.(.;X:X-XOXOX:X:X:X:X>X>X$X$X$X$X;X-X-X>X2X2X:X$X$X:X:X:X&X>X>X:X$X:X>X:X:X:X:X:X:X:X:X:X2X2X:X:X{.(.(.|.:X:X$X{.(.(.$X-X|.-X:X:X&X2X.X|.$X$X$X$X(.|.|.(.$X$X$X$X$X$X$X>X$X{.$X$X&X$X{.|.&X&X&X*XG.C ; ; n n.Q.$X|.|.|.{.%X%X;X;X<XA.3 5 nX                                                                                                                                                                                                                                                                                                                                                                        ",
"                                                                                                                                                                                                                                                                                                                                          4X2 3 L.;X@X;X-X*X-X-X>X:X>X2X>X2X>X$X-X-X:X-X-X;X-X|.:X$X|.(.|.-X-X-X.XOX-X$X-X-X-X-X*X-X|.|.|.$X:X&X&X2X:X&X&X$X.X&X:X:X:X:X$X&X&X$X$X:X&X.X:XOX.X|.&X:X:X$X.X(.(.(.|.$X$X/.$X{.$X).{.>X:X:X.X.X.X.X:X-X{..X|.|.|.{.{.$X$X$X{.|..X&X&X|.|.&X$X/.{.&X.X&X*XM.m ; ; m M.Q.&X&X&X&X{.{.$X$X%X<X<XL.3 5 wX                                                                                                                                                                                                                                                                                                                                                                        ",
"                                                                                                                                                                                                                                                                                                                                          4X> < B.@X#X%X,X*X@X$X-X*X>X:X:X:X-X$X$X$X$X.X$X-X-X.X>X:X$X$X(.-X-X-X:X:X:X-X-X-X-X-X$X-X|..X.X$X:X:X&X2X:X$X$X.X$X:X:X:X:X:X:X:X:X:X$X:X:X.XOX.X.X|.&X&X.X{..X|.-X-X{.:X&X|.&X{.$X{.&X&X:X:X:X:X:X:X|.|.{.{..X|..X|.|.{.{.|.{.|.|..X|.|.|.|.$X{./.&X&X#Xm.n ; ; M B./.&X&X|.$X$X$X$X*X*X%X%X<XL.3 5 wX                                                                                                                                                                                                                                                                                                                                                                        ",
"                                                                                                                                                                                                                                                                                                                                          4X2 < B.;X;X;X>X*X@X$X@X(.-X-X$X$X(.@X$X|..X|.|.-X$X$X:X:X$X$X(.$X-X$X.XOX|.|.$X$X.X.X$X-X.X.X.X&X:X:X&X&X&X.X{..XOX:X.X&X&X:X:X&X&X:X:X$X.X:XOX.X|.|.|..X|.{.(.|.-X-X{..X:X&X&X$X&X$X:X:X:X$X$X$X$X.X(.|.{..X.X.X.X|.|.|.|.|.|.|.|.{.{.|..X|.|.|./.@XB.A , ; , A B./.|..X{.{.{.$X$X$X*X%X%X%X%XA.3 5 wX                                                                                                                                                                                                                                                                                                                                                                        ",
"                                                                                                                                                                                                                                                                                                                                          4X2 : N.@X1X;X-X*X-X-X@X(.*X-X(.(.(.$X-X$X$X.X(.-X$X$X:X&X.X(.(..X$X.X.X.X|..X$X$X$X&X&X:X.X.X.X&X:X:X|.$X{./.(.OXOX:X:X.X.X&X:X|.|.:X$X{.$X:X:XOX.X.X|.|.{.{.).{.-X:X|..X:X:X$X&X&X$X{..X$X&X&X$X$X$X(.-X.X.X.X.X.X|.|.|.|.|..X|.{.}..X&X:X.X$X%X#XM.B , ; < A G.).{..X&X|.&X$X$X{.$X*X&X&X%X>XA.3 5 wX                                                                                                                                                                                                                                                                                                                                                                        ",
"                                                                                                                                                                                                                                                                                                                                          7X2 < N.;X#X*X*X@X-X;X-X@X(.(.@X@X@X@X-X-X$X|.$X-X-X$X:X:X{..X|..X:X:X:X:X:X:X&X&X2X2X:X:X>X2X:X&X:X&X|.|.|..X|..XOXOX,X:X:X:X.X{.:X>X{.{.{.{..X|.(.|.-X$X{.{.$X{.{.:X.X|..X&X.X&X&X|.{..X.X.X$X$X-X$X|.OXOX|..X|..X&X.X&X.X.X.X|..X.X.X2X&X.X@XG.A < + ; B M.Q.{.{.{..X.X:X:X&X$X$X$X$X*X*X$X%XL.3 5 wX                                                                                                                                                                                                                                                                                                                                                                        ",
"                                                                                                                                                                                                                                                                                                                                          0X2 : B.;X#X;X-X-X-X;X-X-X$X$X@X@X$X-X-X$X|.(.-X(.{.&X:X&X{..X>X:X&X.X:X:X:X:X&X&X&X:X&X:X:X.X&X&X.X.X:X&X&X.X.X.XOX-X>X:X:X:X{.{.:X:X&X$X{.{.|.|./.(.-X$X.X{.|.|.$X>X|..X&X.X.X.X&X{.|..X.X.X.X.X$X$X.XOX|.|..X.X.X.X|..X.X}..X.X.X{.{.{.*XG.M.M ; + ; N V.Q..X:X.X$X|..X&X&X:X&X$X$X@X$X$X%X%XA.3 V nX                                                                                                                                                                                                                                                                                                                                                                        ",
"                                                                                                                                                                                                                                                                                                                                          0X2 : B.;X@X;X*X;X-X$X@X-X;X;X*X*X-X:X$X(.|.(.-X(.{.&X:XOX|..X:X:X:X:X:X:X:X:X&X.X&X$X&X:X:X{.&X$X.X|..X.X.X.X.X.X.X-X-XOXOXOX|.|.OX.X:X$X{.|..X|.(.(.OX-X.X|.:X.X.X.X|..X.X.X&X&X&X|.|.|.|..X.X.X.X.X.X{.|.{.|.-X.X.X{.|..X{.|..X.X}.[.$XA.C < + ; < b.G./.|..X.X|.&X.X.X.X|.&X:X$X$X$X$X*X*X%XA.< 5 nX                                                                                                                                                                                                                                                                                                                                                                        ",
"                                                                                                                                                                                                                                                                                                                                          0X2 : B.;X@X;X*X$X@X(.(.@X@X*X*X*X$X$X|.|.|.(.|.$X$X.X:XOX|.OXOXOXOXOXOXOX.X&X.X.X|..X:X:XOX:X.X.X|.|.|..X.X.X X|.|.|.{.(.{..X.X.X.X[.:X|.|.:X.X.X(.|.|.|.|..X.X|.{..X|.}.|..X.X.X.X.XOX|.|.OX:X.X.X.X{.{.|.&X.X-X&X|.{..X.X{./..X&X*XQ.M.M , ; ; B m.Q./.[.}..XOX.X:X.X|.|.|.$X$X:X&X&X*X*X#X*XB.< V nX                                                                                                                                                                                                                                                                                                                                                                        ",
"                                                                                                                                                                                                                                                                                                                                          0X2 : B.;X;X%X:X>X-X-X-X@X@X*X$X(.(./.$X$X|.(.(.|..X.X.X.X|.|..X:X:X.X.X.X{.|..X.X.X|..X:X:X.X:X.X|.|.|.{..X.X.X|.|.-X{.{..X|.{..X.X.X|.|.{..X.X.X|.|.|.|.{.(././.|..X.X.X.X.X|.|.|..X.X.X|.|..X|.|.{.{.{..X.X.X.X&X|.{.:X:X:X|..X@XM.C < ; ; , A V.)./.(.[.}..X.X&X&X.X.X&X(.$X$X$X$X$X$X@X@X%XA.3 V MX                                                                                                                                                                                                                                                                                                                                                                        ",
"                                                                                                                                                                                                                                                                                                                                          qX6 : N.*X%X%X:X>X-X$X-X*X$X-X-X(././.$X$X|.(.(.{..X.X.X.X.X.X.X:X:X.X{.{.{.{..X:X.X.X|.|..X.X|..X|.}.|..X.X.X.X:XOX[..X:X.X{..X.X|..X.X|.{.{..X.X|.|.|.|.{.{.{.|.OXOX.X.X.X[.{.|..X.X{.|..X.X.X|.|.|.{.{.|..X|..X|.{.:X:X$X$X#XB.A m ; ; : B n.V.[.[.{./.[.|..X.X&X:X.X.X&X{.(.$X$X$X$X$X$X@X*XB.< V MX                                                                                                                                                                                                                                                                                                                                                                        ",
"                                                                                                                                                                                                                                                                                                                                          qX6 : N.@X=X*X:X:X-X$X-X-X:X:X$X{.(./.$X$X$X{.(.(..X.X.X|.|..X.X.X.X.X{.}./.}.|..X.X{.|.|..X.X[.|..X}.{..X.X.X:X.X|.}.|.|.}.OX:X|.|.|.OXOX.X|..X.X|.|.|. X|.{..X|.OXOX|..X|.[.{.|.}.|.}. X.XOX.X.X.X.X|..X.X.X}.|.|.{.:X.X@XG.S m ; + ; m b.B./.*X{..X{.^.}.OX|..X$X:X.X|..X.X{.{.$X$X&X$X$X$X*XB.< V MX                                                                                                                                                                                                                                                                                                                                                                        ",
"                                                                                                                                                                                                                                                                                                                                          qX6 ; N.1X=X$X%X%X$X$X$X&X:X:X.X{.(.|.$X$X$X{.(.(.{..X|.{.{..X.X.X.X.X|.{.{.{.{.|.{./.OX.X.X.X[..X.X|.{.[.|..X.X.X.XOX.X|.|.|.OX|..XOX|.OXOX.X.X.X|.|..X X}.}.|.|.}.}.}..X{.|.|.|.[.}.}. X X X.X.X.X.X|..X.XXX}.|.{.@X#XH.n.M < + + < A M.G.{.|..X{.|.&X{./.}.}.{.{..X|.{..X&X$X{.$X$X&X&X*X$X%XB.< V MX                                                                                                                                                                                                                                                                                                                                                                        ",
"                                                                                                                                                                                                                                                                                                                                          wX6 : N.1X;X;X%X$X$X$X&X:X:X&X$X{.OX|.$X$X{.{..X.X.X.X.X|.|.|.|..X.X|.{..X|.|.{.{.[.[.|.|.|.}..X.X|..X}.}..X.X|.OX.X X:X:X.X}.}..X.X{.|.(.{..X.X{.{.|..X X}.}.}.[.^.}.}..X[.^.|.}.}.|.}.}..X.X.X.X}..X.X XXXXXXX|./.B.S B ; + ; , C M.G.).{.{.{.{..X.X:X.X[.[.{.{.{.|.&X.X&X&X&X{./.$X$X*X$X*X%XB.: Z MX                                                                                                                                                                                                                                                                                                                                                                        ",
"                                                                                                                                                                                                                                                                                                                                          uX6 : N.;X;X:X$X$X$X(.$X$X:X:X:X:X:X-X|.-X|.|..X|..X.X:X&X:X.X.X.X.X{.(.{.{.{.|.|.|.|.|.|.{.}..X|.}.OX.X|.OX.X|..X.X.X.X.X.X}.|.|.|.[./.{.{..X.X|.|..X|. XXX}.[.^.[.}..X}.[.[.}.[.}..X|.|.|.|..X{.[.}..X.X|./.(.V.b.m , ; ; < M m.G.(.OX|.{.[.|.|.|.|.|.&X|.{.{..X.X|.|.|..X.X{.&X&X$X$X$X*X*X<XB.: Z MX                                                                                                                                                                                                                                                                                                                                                                        ",
"                                                                                                                                                                                                                                                                                                                                          MX6 : N.;X;X*X(.-X-X(.-X$X-X:X:X.X-X|.(.|.{.{..X|.|.|..X.X.X{.|..X.X{.(.(.(.(..X.X.X.X|.|.|.}.|.[.{.OX.X|.OXOX.X.X.XOX|.}..X.X|.|.}.[.^./.|..X|.|.|..X}.}.}.[.[.XXXXXX[.'.}..X|.}.}.OX|.|.|.|.[.^.[.|..X{.G.B.A m ; ; ; < A C.H./.|.|.|.|.}.[.}.}.|.|.[.:X|./.|..X.X|.{..X$X|.$X$X&X&X&X*X$X*X=XB.: Z MX                                                                                                                                                                                                                                                                                                                                                                        ",
"                                                                                                                                                                                                                                                                                                                                          MX6 ; N.;X>X$X(.-X-X-X-X$X$X-X:X$X-X.X-X:X.X.X.X|.|.|.{.(.{./.^.(.|.{.{.|.(.(.(..X.X.X|.|.{.}.}.}..X.X[.[..XOX.X}. X.X[.[..X.X|.|.|.|.^.}.}.}.}.}.|.|.}.}.}.}.|..X}.'.'.!.}..X}.|..X}.[.}..X.X{.).Q.Q.V.b.C m ; ; ; < C M.G.T.}.!.[.^.[.|.|.[.|.|.|.|..X$X[.).{.{.|.|.|.&X-X|.$X$X*X*X&X&X%X*X#XN.: G MX                                                                                                                                                                                                                                                                                                                                                                        ",
"                                                                                                                                                                                                                                                                                                                                          MXf + n.#X-X-X$X$X-X-X-X$X$X$X{.{.OX:X:X:X:X.X.X{.|.:XOXOXOX(.^./.(.{.|.{.{.|.(.{.|.|.|.|.^.|.[.[./.[.[.|.OX.X}..X.X[.!.}.}..X|.^.[..X}.}.}.}.[.[.}..X|.|.|.|.|.}.[.XX[.XX}.}.}.}. X X.X}.|.Q.H.M.n.N < ; ; ; ; m A C.H.{.^.[.^.[.}.}.|.{.{.|.{.{.{..X.X|..X{.^.{.|.|.|.$X$X$X{.{.|.|.&X&X2X%X%XB.< G VX                                                                                                                                                                                                                                                                                                                                                                        ",
"                                                                                                                                                                                                                                                                                                                                          qX6 : N.#X(.(.$X&X&X&X.X|.|.{..X.X.X.X:X:X:X{.{.{..X:X-X.X.X|.{.(.(.{.|.{.{.|.{.{.|.|.|.{././.[.[.{.{.^.|..X|.}..X|.[.[.|. XOXOX}.|..X.X XXX}.XX}.}..X|.|.|.|.|.|.[.}.XX}.|.|.{.(.(./.G.V.b.A M n , ; + ; < B A M.H.T.}. X.X|.}.}.}.|..X|.{.[.^.{..X.X|.|..X.X|.|.{.{.|.$X$X$X(.{.{.$X*X&X%X&X>XA.3 G VX                                                                                                                                                                                                                                                                                                                                                                        ",
"                                                                                                                                                                                                                                                                                                                                          yX6 + N.#X@X-X$X-X-X-X$X$X{.{..X&X$X$X{.|.:X:X.X|..X.X:X(.|.OXOX|.{.{.|.{.|..X|.|.}.|.^.W.}.}.}.}.{.|.|.|.[.}.}.|.|.[.}.|. X.X.X|..X.X.X.X X].}.}.|.|.|.{.(.[.}.}. XXX XXX{././.V.N.S B < ; ; + ; , n M A C.H.Q./.{.[..X.XOX^.}..X.X|..X|.|.{.{.|.|.[.{.{..X.X.X|..X|.|.$X$X$X$X$X$X$X%X*X*X%X%XA.3 G VX                                                                                                                                                                                                                                                                                                                                                                        ",
"                                                                                                                                                                                                                                                                                                                                          MXf : N.;X;X*X-X$X-X-X:X-X.X{.|.&X&X$X{.{..X:X:X|.}..X:X/.|.-XOX-X:X.X|.}.|.OXOX.X|.}.^./..X|.}.}.|..X.X.X}.|.}.|.}.[.[.}.[.}. X.XOX X X.X X[.}..X|.{.{.{.(.{.[. X XXX X X[./.B.C , ; + ; ; , < B A M.H./..X}.[.}.}.[.}.}..X.X.X.X}.}.|.|.|.{.{.{.{.{.|.|..X.X.X{.{..X|.|.$X$X@X@X$X$X%X*X$X*X%XB.< Z VX                                                                                                                                                                                                                                                                                                                                                                        ",
"                                                                                                                                                                                                                                                                                                                                          MX6 ; N.@X%X-X$X$X$X-X:X-X|.(.|.|.{././..X.X2X:X.X|..X|..XOX.X{.|.|..X|.|.}.OXOXOX|.OX|.{.}.}..X.X.X}.}.}.}.}.}.}.[.[.}.!.!.[.}..X.X}.}.}.}.}.}.|.|.[.[.^./.|..X.X.X.X X[.[./.M.< ; n C A b.C.V.V.Q./.[.}.}.}.}.[.[.^.|.|.|.|..X|.}.}.|.{.|..X[.[.[.{.[.|..X.X|..X{.{.&X$X$X/.(.(./.(.$X$X$X$X%XA.< Z VX                                                                                                                                                                                                                                                                                                                                                                        ",
"                                                                                                                                                                                                                                                                                                                                          MXf : N.@X%X;X$X@X$X-X-X-X$X|.-X&X$X{.).&X:X:X.X.XOXOX.X.X.X}.}..X|..X.X.X X.XOXOX.X|.}.|.}.}..X.X|.[..X[.^.[.}.}.[.}.|.}.}.^.XXXX}.|.}.}.}.}.[.{.{.{.{.[.{.}.}.XXXXXXXXXX[./.n., , S V.U.[.XX!.T.^.^.[.[.[.].[.[.^.^.}.}.}.}.}..X X}.|.[.}.|.|.|.|.|.|.|..X[.|.:X:X$X&X|.{.).$X$X).).@X@X$X%X<XA.< G MX                                                                                                                                                                                                                                                                                                                                                                        ",
"                                                                                                                                                                                                                                                                                                                                          uXf : n.1X;X%X$X@X$X-X-X-X$X$X.X&X&X.X{..X.X/.{.{..X.X.X.X.X}..XOXOX.X{..X[.}. XOX|.{..XOX.X}. X.X}.|.}.^.^.{.|..X|.|.}.|.}.[.[.[.[.|.}.}.}.}.}.[.{.{.{.}.}.}.[.[.[.[. XXX[./.m., ; n.E.[.[.[.^.[.[.[.'.'.'.].XX}.}.^.}.}.}.}.}..X.X}.|.[.[.[..X.X|.|.|.|.|.[.{..X.X{.$X$X&X{.$X$X/.)././.$X$X<XA.< G MX                                                                                                                                                                                                                                                                                                                                                                        ",
"                                                                                                                                                                                                                                                                                                                                          MXF : S 1X;X%X@X@X$X-X-X-X|.|.{..X:X:X.X&X{.(.{.{..X:X|..XOX.X|.|..X.X{..X}.}..X X|.}.}..XOX.X.X.X[.}.}.[.^.W.|..X.X.X}.}.}.}.}.}.}.}.}.}.}.}..X}.{.{.|..X}.[.}.}.[.XX XXXXX/.n., , S ).XX X}.XX}.XX!.XXXXXXXX.X X}.}.}.}.}.}.}. X.X X|.[.^.^..X|.}.}.[.[.|.[.|.|././.{.{.&X|.{.$X{./.$X*X*X@X%XA.3 G VX                                                                                                                                                                                                                                                                                                                                                                        ",
"                                                                                                                                                                                                                                                                                                                                            I : n.@X;X;X-X@X$X$X$X|.-X.X{.$X:X:X&X|.{.$X$X.X.X&X.XXX}..X.X.X|.|.}.}.}.}.|..X|.}.[..X.X}..X}.[..X.X.X|.[.[.[.|..X.X.X.X X X}. X X[..X}.}..X}.XX[.}.}.[.[.XXXXXXXX X XXXQ.n., , n.Q.XX XXXXXXX X XXX X X.X|..X.X}.}.XX}..X X^.[..X}.^.[.|.[.[.}..X|.|.}.[.|.|.{.(.{.$X:X|.{.|..X|.&X&X&X*X%XB.< G VX                                                                                                                                                                                                                                                                                                                                                                        ",
"                                                                                                                                                                                                                                                                                                                                            I > S =X;X;X;X-X$X*X{.{..X{.{.{.|.{..X|.:X$X{.|.|.&X.X}.}..X:X:X.X|.}.}.}.}.}.}.[.}.|..X.X}.}.}.}..XOX.X}.[.[.[.}.}.}..X X X}.[.}.|.[.[..X}.!.'.XX XXX}.[.[.}.}.}. XXXXXXX).n., , n./.XXXXXXXXXX X X.X X X}.[.|..X.X X}.XXXX.X[.[..X{.[.[.{.[.[.|..X|.|.|.{.}.{.{.{.{..X$X{.|.&X:X:X&X&X&X%X<XA.< G VX                                                                                                                                                                                                                                                                                                                                                                        ",
"                                                                                                                                                                                                                                                                                                                                            U > A #X>X:X:X-X:X$X{.{.{.{./.{..X.X.X.X.X|.|.|.|..X.X|.|..X.X|.}.}.|.|.}.}.}.[.}.|.|..X.X}.^.}..X X XXX[.[.[.{.[.[.}. X XXX}.[.}.|.[.[.[.}.XX[.XXXX}.[.[.[.}.}.}. X[.XXXX).n., , n./.XXXX}.}.}.[.[..X X}.}.[.|..X.X.X XXXXX.X{.{.|.|.{.{.{.[.[.|..X.X.X|.|.{.{.(.(.{.$X{.{.{.{.$X&X&X&X&X&X<XA.< G VX                                                                                                                                                                                                                                                                                                                                                                        ",
"                                                                                                                                                                                                                                                                                                                                             .4 A #X>X:X:X-X$X{.{./.{.{.{.{..X|.|.:X|..X&X.X|.|./.{.{.[.}.^.^.|..X.X.X.X}.}.|.|.|.|.}.[.!.}. X.X XXX}..X[.[.}.XX XXX X X XXX X X[.[.^.XX.XXXXXXX}.[.[.[.}.}.}.XX[.'.XX/.n.; , n./.XX}.}.[.[.[.}..XXX[.}.|.}.[.!.}.}.XX}.{.|.|./..X|.{.[.^.^.[.|.|.|.{.[.{.{./.(.$X$X{.{.|.{.{.{.$X$X&X*X%XB.< G VX                                                                                                                                                                                                                                                                                                                                                                        ",
"                                                                                                                                                                                                                                                                                                                                            D.4 A #X$X&X$X$X$X$X$X$X:X:X{.{.|.|..X.X|..X.X|.|..X|.[.^.{.}.[.[.}..X.X X}..X|.|.|.}.}.}.}.}. X.X X.X}.}..X.XXX X X XXX X.X|.}.}.}.|.}.}.[.XXXX}..X.X X}.}. X XXXXXXXT.`./.n.; , n.Q.XX.X}.[.{.|.}.[.[.}.}.}.[.^.!.}.}.}..X|.[..X{..X.X[.{.|.^.|.{.|.|.[.[.|.&X.X/.{.{.$X{.{.{.{.{.{.$X&X&X%XB.< G VX                                                                                                                                                                                                                                                                                                                                                                        ",
"                                                                                                                                                                                                                                                                                                                                            D.4 A #X*X&X$X$X$X$X$X$X$X$X{.{.|.|..X&X.X&X:X|.|..X|.^.^.{.|.[.^.[..X.X|.[.}.|.|.|.}.}.|.}. X X.X X X}.}..X}.XX X X X X}.XX}.[.XX}.[.[.}.}.[.[.}.}.}.}.XXXX X}.XX].[.'.'./.n., , n.E.'.}.^.[.{.|.}.}.[.}.}.|.}.[.[.}.}.}.}.}.{.{..X.X|.[.{.{.^.|.|.}.|.}.|..X&X$X{.{.{.$X{.{.{.{.*X$X$X$X*X%XB.< G VX                                                                                                                                                                                                                                                                                                                                                                        ",
"                                                                                                                                                                                                                                                                                                                                            4X> C K.%X$X$X$X$X$X$X$X|.|.{.{.|.|.|.|.|..X:X.X.X.X/.}.{.[..X|.}.}..X.X X^.^.}.|.|.|.|.{.}. X X.X X}.}.[.}.}.}.}.XX}. XXXXX[.^.}.}.[.[. X X X X}.}.}.}. X X}.}.'.'.[.[.'./.n., , n.E.'.[.T.^.[.{.[.}.}.}.}.[.[.^.^.}.XX X X.X&X X}.|.[.[.[.^.^.|.}.}.}.}.|.|.|.|.|.{.{.$X{.{.{.*X$X&X&X&X*X>XA.3 G VX                                                                                                                                                                                                                                                                                                                                                                        ",
"                                                                                                                                                                                                                                                                                                                                            4X> M K.=X@X*X$X$X$X-X$X{.{.{.{.|.|.{..X|.|..X:XOX.X{.}.{.{.|.}.}. X.X.X}.}.^.^.}.|.|.|.}.}. X X.X X}.[.[.}. X|.}.[.XXXX}.}.}.[.}.}.!.[..X X X.X}.[.[.XX X X}.}.XXXXXX}.XX/.S , , N.Q.XXXX!.^.[.}.[.[.}..X.X}.}.}.}..XXXXX X.X.X X|.}.^.[.[.^.{.{.[.[.}.}.|././.[.|.{.$X$X$X|.|.*X{.$X*X{.{.*XB.< Z VX                                                                                                                                                                                                                                                                                                                                                                        ",
"                                                                                                                                                                                                                                                                                                                                            4X> N K.%X$X$X$X$X{.|.{.{.|.OX|.|..X.X(.{./.|.&XOX|.|.[.^.{.}.}.}..X|.|.[.[.[.[.[.[.}.|.|.}.}.}.}.}. X}.}.^.!.}.}.[.}.}.!.}. X.X XT.!.[.XX}.}.|.}.^.}.XX X.X}.XXXXXXXX X].Q.n., , n.{.].].!.!.[.[.[.}. X.X.X X}..XOX.XXXXXXXXXXXXXXX[.^.!.!.^.[.}.[.|.|..X{.{.{.|.{.{.$X&X*X{.{.{.{.*X*X{.{.*XB.3 Z VX                                                                                                                                                                                                                                                                                                                                                                        ",
"                                                                                                                                                                                                                                                                                                                                            4X1 N K.;X-X$X$X$X{./.|.|.|.(.(.|..X(./././.{.{.|.|..X|.[.[.}.}. X.X.X|. X}.[.[.}.|. X X.X}.}.}.}.}.}.}.}.[.^.}.}.[.}.}.}.OXXXXX}.[.!.'.[.[.}.}.^.^..X X}.}.XXXX].XX X XXX/.n., , n./.].].'.].[.[.XX'.XX}..X X X X.X.X X X X}.XXXXXX}.[.[.[.[.}.|.[.{.^.[.{..X{.}.{./.$X$X{.{.{.|.{.$X$X$X$X*XA.3 V VX                                                                                                                                                                                                                                                                                                                                                                        ",
"                                                                                                                                                                                                                                                                                                                                            4X> N K.%X-X$X$X{./.(.$X@X(.(.{.|.|./.).{.{.{.{.}.}.|.|.}.[.[.[.}. XOX.X X.X}.}. X.XXXXXXX}.}.}.}.}. XXX}.}.}.}. X}.}.}. XOXXXXX}.}.^.[.[.[.}.[.[.}..XXXXX}.!.[.[.XXXX X'./.m., ; S Q.].].'.XX[.[.}.!.[.XX X.X}.}..X X X}.}.}.XX[.[.[.[.[.[.^.}.}.[.{.^.^.[.|.{.{.}.^.{.$X/.{.$X|.|.*X*X$X*X*XA.3 V MX                                                                                                                                                                                                                                                                                                                                                                        ",
"                                                                                                                                                                                                                                                                                                                                            4X> N K.@X$X$X{.{./.$X$X(././.(.(./././.{..X|.{.}. X[.}.}.}.[.[. X.X.X X X.X X}.}.XXXXXXXX X}.}. X X.XXX}.}.XXXXXXXX}..X}. X.X.X|.}.XXXXXXXXXX]. XOXXXXX].[.!.].XXXXXXXX'./.M., ; A Q.].].'.XX[.XX}.[.[.XX}. XXXXX}.XX}.}.[.[.[.[.[.[.XXXXXX!.!.[.[.{.{.[.^.^.|..X|.^..X$X{.{.|.|.{.{.{././.*XA.3 V nX                                                                                                                                                                                                                                                                                                                                                                        ",
"                                                                                                                                                                                                                                                                                                                                            4X4 N K.@X{.$X$X$X$X(.(.(.(.{.{.{.{.{.{..X:X&X{.|.|.[.[.[.[.}.}.}..X.X.X}..X.XXXXXXXXXXXXXXX}.[.[.}..X.X.X.X X}.XXXX.X X X X.X X}.[.[.XX X.XXX X X XXXXX].].[.!.[.XX[.'.]./.M.< ; S Q.].XX].}.[.!.T.~.}.!.!.}.}.[.[.[.[.|.^.{.}.}.[.[.}.}.XX[.!.}.|.|.|.[.[.|.[.[.}.}.{.{.{.^.{.&X{.{.{.$X$X>XL.m V nX                                                                                                                                                                                                                                                                                                                                                                        ",
"                                                                                                                                                                                                                                                                                                                                            4X4 N K.@X$X$X$X$X$X$X(.(./.|.{.{.{.|.|.|..X|.|.|.|.[.[.[.[. X}.}.|.}.}. X.X XXX[.}.'.XXXX'.[.[.!.!..X.X X}.}..X}.OX.X.X X.X XXX}.XX}.}.}. XXXXX X XXXXXXXXX XXX[.[.XX[.].{.M.< , S Q.'.XX].XX].'.!.}.}.}.}.XXXX}.}. X}.[.{./.^.^.[.[.[.}.}.|.[.|.{.{.{.[.[.{.[.}.}.|..X.X{.$X|.$X&X$X|.|.$X%XK.B 5 nX                                                                                                                                                                                                                                                                                                                                                                        ",
"                                                                                                                                                                                                                                                                                                                                            4X1 M K.%X$X$X$X$X$X{.{.{./..X{.{.{.|.|.|.{.{.}.|.}.[.[.[.[. X}.}. X X X XXX[.[.^.^.!.[.[.^.[.}.}.XXXX X X[.[.[. X.X.X}.}. X}.XX}.XX}.}.XXXXXXXX X XXXXXXXXXXXXX}.}.XX].].{.M.< , S ).}.XXXX XXX}.}.}.^.!.!.}.}.[.[.}.|.[.}.}.^.!.[.[.[.{.{.{.W.^.[././.)./.{./.[.}.|.OX.X{.{.$X{.{.&X&X{.*X@XL.B 5 wX                                                                                                                                                                                                                                                                                                                                                                        ",
"                                                                                                                                                                                                                                                                                                                                            4X1 B K.;X:X$X&X&X:X{.{.{.{.:X|.{.}.[.}.}.{.}.}.|./.[.[.[.[.^.}.|. X X|.}.'.!.!.^.!.^.}.}.}.[..X X[.XX X}.].!.!.|.OX}.}.XX}.|.}.}.}.}.}.XXXXXXXX}.}.XXXXXX X].XX[.!.[.].].{.n., ; S G.Y.Y.].].].[.}.[.^.[.~.!.^.^.^.[.[.U.J.^.^.!.U.T.^.[.{.^.[.^.[.)./.)./.{.[.[.}..X.X|.{.|.{./.$X&X&X{./.@XL.m 5 0X                                                                                                                                                                                                                                                                                                                                                                        ",
"                                                                                                                                                                                                                                                                                                                                            0X4 B L.;X-X$X$X.X.X{..X&X|..X.X.X.X.X}.}..X}.}.}.}.{.{.|.|..X}.^.[.}.[.^.^.^.[.^.[.[.^.[.|.}..X}.T.[.}.XX}.!.}. XXXXXXXXXXX X}.}.}.}.XXXXXXXX X}.XX].].XX XXX XXX'.'.'.XX{.m., ; S Q.T.Y.'.XXXXXXXX[.[.^.^.^.!.[.}.}.^.!.!.^.!.[.!.^.[.{.{.^.^.[.{./.^.^.^.}.|.{.{.|.|.|.{.&X{.{.&X$X|.{.{.$XK.N 4 0X                                                                                                                                                                                                                                                                                                                                                                        ",
"                                                                                                                                                                                                                                                                                                                                            0X2 B L.#X|.$X$X&X.X{.|..X.X|.|..X.XOX.X.X.X}.}.}.}.{.|.|.|.|.[.[.}.}.[.^.!.[.}.[.}.{.^.^.}.|..X.X[.}.}.}.XXT.XX X}.XXXXXX].[.[.}.}..X.X XXXXX XXXXXXX].XX XXXXXXXXX'.'.'.{.m., , S ).'.'.'.'.XXXX^.[.[.^.^.}.^.[.[.[.[.[.}.[.}.[.}.}.[.{.[.[.[.[.{.[.^.^.U.}.{.|..X{.|.{.{.{.{.|.&X$X$X$X$X%XK.N 4 0X                                                                                                                                                                                                                                                                                                                                                                        ",
"                                                                                                                                                                                                                                                                                                                                            0X5 B L.@X$X$X:X:X{.{.{..X&X|.|.|..X.XOX.X}. X|.{.{.|..X|.|..X}..X.X.X}.[.'.}.}.[.}.}.[.[.[.}.}.XX!.^.}..X}.^.}..X}.XXXXXX[.!.[.XX X.X.X XXXXXXXXX].XXXXXX X}.XX[.].].].'.^.m., , S ).!.!.[.'.XX[.[.[.[.[.^.}.[.[.[.!.^.^.^.^.}.[.}.}.^./.{.}.[.[.}.[.}.^.U.^.{.|.|.{.{.{.{./.{.$X{.$X$X$X$X%XK.N 4 9X                                                                                                                                                                                                                                                                                                                                                                        ",
"                                                                                                                                                                                                                                                                                                                                            qX2 m L.;X-X$X:X:X{.(.(..X:X.X.X.X|.|.OX.X}..X|.{.{.|.|.|..X.X|.XXXX.X XXX[.}.}.[.[.}.|.|.}.}.}.[.[.[..X}.}.[.}.}.}.[.XX[.!.!.}.XX}.XX X X XXXXXXX].XXXXXX}.^.}. X}.^.!.].W.m., , S Q.T.T.!.[.}.}.[.[.[.[.^.[.^.[.^.!.^.^.^.^.^.[.}.^.U.^.{.[.^.[.[._.[.^.U.T.[.{.{.{.{.{./.{.$X{./.$X$X*X$X$XL.N 5 9X                                                                                                                                                                                                                                                                                                                                                                        ",
"                                                                                                                                                                                                                                                                                                                                            qX5 3 G.1X$X$X$X/./././.{..X|.&X.X}.|..X.X.X.X.X{././.^.[. X|.[.!.XX.X X}.XX}.XX[.^.}.}.}.XXXXXX[.[.!.T.[.|.[.^.}.}. XXX}.'.[.}. X XXXXX X X X XXX].XXXXXXXX!.[.}.}.^.^.'.{.M., , n.).!.!.!.[.}.}.}.^.}.|.}.[.[.[.[.}.}.[.^.[.[.[.^.[.^.^.^.^.[.[.[.[.}.[.[.[.{.{.[.$X|.{.{.{.{.{.{.$X$X$X@X@XK.N 4 9X                                                                                                                                                                                                                                                                                                                                                                        ",
"                                                                                                                                                                                                                                                                                                                                            qX6 3 L.=X$X&X/././.(.{.{.}.{.|.|.|.|.|.OX.X.X|./.)./.^./.}.}.}..X.X}.}.}.}.}.}.[.^.[.[.XXXX X XXX[.!.^.[.^.[.^.}..XOX X}.}.!.}.}. X XXXXX X'.XXXX].'.'.[.XX!.}.}.}.!.[.]./.M., ; S ).!.!.!.!.XX}.}.!.[.[.^.}.[.[.^.^.^.[.^.[.[.[.[.^.^.^.^.^.[.|.[.^.W.^.|.{.{.|.{..X{.{.|.{.{.|.|.&X$X$X@X$XK.N 4 9X                                                                                                                                                                                                                                                                                                                                                                        ",
"                                                                                                                                                                                                                                                                                                                                            yX6 3 B.=X$X*X/./.(.(.|..X}.|.|.|.|.[.}.|.{.{./.{.{.{.{.|.|..X}..X}.XX}.}.}.[.}.}.[.}.}.XXXX X XXXXX}.}.[.[.}.}.^.}. X}.}.}.!.}.}.}.}.[.'.XX].].}.}.].].!.!.[.}.}.!.!.[.XX).M.< ; A ).].!.!.].}.}.}.}.[.!.T.!.!.!.T.!.!.[.[.[.XXXX[.T.T.^.[.!.[.|.[.W.T.^.{.{.|.|.|.|.^.^.|.{.{.|.&X&X$X$X@X$XK.N 4 9X                                                                                                                                                                                                                                                                                                                                                                        ",
"                                                                                                                                                                                                                                                                                                                                            yX6 3 B.=X:X$X{.(.$X/..X.X.X.X.X|.|.|..X.X{.{.^.[.{.|.|.|.}.}.}.}.}.XX[.}.}.[.}.}.[.}. X X XXXXX].!.[.}.[.[.}.}.}.}.}.[.!.!.!.[.XXXX}.!.^.[.!.!.!.XX].].].].}.XXXX].!.].].).M.< ; A ).].].].XX}.}.^.[.[.[.[.T.!.[.XX'.!.[.}.'.XXXX[.^.^.^.^.T.^.}.[.^.^.[..X.X.X|..X{.|.|.|.|.|..X&X&X$X$X$X$XK.N 4 0X                                                                                                                                                                                                                                                                                                                                                                        ",
"                                                                                                                                                                                                                                                                                                                                            qX5 3 A.=X$X$X$X{.$X{.{.:X&X/.{.{.{.{.{.{.{..X{.[.[.[.[.[.[.|.[.XX}.}.[.^.^.^.{.}.}.}. X X'.'. X!.~.!.[.'. X}..X}.}.!.}.}.^.[.XX XXX}.}.[.[.XXXXXXXXXX'.'.'.XXXX'.!.^.[.]./.M., ; A E.].'.'.XX[.^.^.!.'.XXXX].XXXXXX[.[.[.[.]. X}.[.[.[.[.^.^.^.^.^.^.[.[.[. X.X|.{..X.X|.{.{.{..X.X$X|.$X$X$XK.N 5 9X                                                                                                                                                                                                                                                                                                                                                                        ",
"                                                                                                                                                                                                                                                                                                                                            qX5 3 L.=X/.{.(.(.$X:X|.|..X|.{./.(.{.{.{.{.{.|.{.[.}.}.}.}.}.[.[.'.XX[.^.^.^.}.}.XXXX'.'.].XX}.}.}.}.!.Y.XX[.}.].].[.[.^.!.[.XXXXXXXXXX}.}.XXXXXXXXXXXX'.'.XXXX[.'.[.}. X/.n.: ; A ).].].'.'.!.!.^.}..X X].XXXXXX}.[.[.[.[.XX X X[.!.^.[.}.{.[.[.^.[.[.[.}..X.X{.{..X{.|.|.{.{.|.{.|.*X*X*X$XK.N 4 9X                                                                                                                                                                                                                                                                                                                                                                        ",
"                                                                                                                                                                                                                                                                                                                                            qX2 3 A.=X{.{.{.{.&X.X.X.X&X&X|.^.[.|.|.{.{.|.|.|.}..X}.}.}.}.[.[.'.[.XX[.^./.}.XXXXXX!.'. X X}.}.^.XX!.'.'.!.[.XXXX X}.^.^.[.XXXXXXXX}.}.}.[.XXXXXXXXXXXX[.XXXX[.'.XX X X/.M., ; A /.].'.'.].].!.^.!.XX}.[.].[.[.XX[.^.^.^.!.XX}.}.^.^./.[.[.[.[.^.[.[.[.}.|.{.{.{.[.[.[.{.$X{.|.|.{.{.*X*X*X#XN 1 9X                                                                                                                                                                                                                                                                                                                                                                        ",
"                                                                                                                                                                                                                                                                                                                                            qX2 < N.=X$X*X$X{.|.:X:X{.{.|.{.[.}..X.X|.|..X.X}.}..X}.[.!.[.}.}.XXXX X}.^.^.[.'.!.[.[.[.XX}.XX}.XX XT.'. XXXXX X.X X[.!.^.[.[.XXXXXXXX}.}.[.[.[.XX[.XX X XXXXX[.'.XXXXXX{.N., ; S Q.`.'.'. XXX!.!.[.[.XXXX!.!.!.[.^.^.^.^.T.!.}. X}.^.^.^.^.^.^.^.[.W.^.}.}.[.{.{.{.{.{./.{.{.|.&X{.*X@X*X$XK.N 4 9X                                                                                                                                                                                                                                                                                                                                                                        ",
"                                                                                                                                                                                                                                                                                                                                            yX6 < N.=X*X*X$X{..X|.&X&X{.|.|.|..X.X.XOX|..X.XXX[..X}.}.[.!.XX}.}.XX}.[.[.^.^.XX!.!.!.^.[.}.}.}.}. X].XX X[.^.XXXXXX[.!.^.^.[.XXXXXXXX}.}.[.!.!.!.XXXX].].XX_.'._.'. X'./.M., ; S E.`.].'.'.XX!.I.!.!.[.[.^.!.[.[.!.}.|.^.T.[.}.[.|.^.^.!.^.^.^.[.^.[.{.|.|.[.{.{.^.{.{.{.{.{.|.|.$X*X/./.*XK.N 4 9X                                                                                                                                                                                                                                                                                                                                                                        ",
"                                                                                                                                                                                                                                                                                                                                            yX6 : N.=X@X@X/./.{.|.$X.X|.{.|.{.|.|.|.OX|..X.X.X}.|.|..X}.XX}.}.}.}.}.}.[.[.}.}.[.[.[.^.^.}. X X}.}.XXXX X[.}.].].[.[.!.^.}.}.XXXXXX[.[.[.^.}.XX].'.!.'.'.'.Y.'..X_.XXXX*XM., ; S E.].].'.].'.^.[.!.^.[.[.[.[.[.[.!.}.}.[.[.}.}.}.!.!.^.[.[.[.[.[.^.^.[.}.{.{./.^.^.|.$X{.{.{.{.|.&X$XQ.E.*XK.N 1 9X                                                                                                                                                                                                                                                                                                                                                                        ",
"                                                                                                                                                                                                                                                                                                                                            yX6 < S.=X@X@X@X/.(.(..X&X|.{.|.{.{.{.{..X{.{.|.[.[.[.}..X}. X}.}.}.}.}.}.[.[.[.!.!.}.}.[.[.[. X X}.}.XXXX'.[.}.].XXXX[.!.!.}.}.XXXX!.^.^.^.[.}.XX[.!.!.'.XX XXXXX X.XXX}.*XM.< ; n.).].'.'.].!.!.}.~.!.}.}.}.}.[.[.[.[.[.{.^.[.}.[.!.!.^.[.[.|.}.^.[.[.[.[.[.{.^.^.{..X|.^.{.{.|.|.$X$X).Q.*XK.N 4 9X                                                                                                                                                                                                                                                                                                                                                                        ",
"                                                                                                                                                                                                                                                                                                                                            yX6 < S.=X$X$X@X@X$X/.|.|.{.|.$X{.{.[.(.|.(././.^.^.[.{..X[. X}.}.|.}. X}.[..X[.!.XX.X}.[.!.T.[.XX[.}..X}.!.!.}.XX.X.X}.[.!.[.XXXX}.[.[.[.[.}.}.XX[.!.[.XXXXXX[.XX].XXXXXX/.N., ; S ).'.].'.!.!.!.!.T.!.}.XXXXXX}.}.|.[.^.[.^.[.}..X}.XX[.^.[.}.[.W.[.^.^.^.[./.W./.{.|.|.{.{.{.|.|.&X&X$X*X$XK.N 1 9X                                                                                                                                                                                                                                                                                                                                                                        ",
"                                                                                                                                                                                                                                                                                                                                            qX2 < N.=X{.$X$X@X@X$X$X$X{.$X$X.X.X/.{.|.(.{.(./././.|.{.}.}.[.}.}.[.!.[.}. X XXX[.|.|.[.[.[.}.^.}..X X}.'.].XXXXXX.X}.[.[.!.[.XX}.[.}.[.^.[.[.[.[.}.}.XXXXT.'.XXXX'.XX X@XN.< ; S ).~.!.[.].XXXX'.].!.!.}.}.}.}.[.[.[.'.}..X}..X}. X X[.!.|.|.[.^.{.{.[.^.[.^.[.|..X|.|.|.|.|.|.$X*X*X*X{.*X#XN 1 9X                                                                                                                                                                                                                                                                                                                                                                        ",
"                                                                                                                                                                                                                                                                                                                                            yX6 < N.=X/.$X$X@X$X$X$X$X$X{.{.|.|.[.{.(.).(.(.{.{.{.|.[.^..X.X}.}.}.[.^.[.[.XXXXXX|.}.}.}.!.[.}.[.[.XXXX X].[.].!.}.[.[.!.'.'.[.[.}.}.^.!.[.[.[.[.[.}.}.}.!.]. XXX].XX'.Q.n., ; S ).!.!.].!.[.XXXX XXXXX[.XX[.!.[.!.!.[.XX.X.X}.}.XX XXX[.}.[.^.^.{.{.{.{.[.^.{.|..X.X&X.X|.|.{.{.{.)./.*X*X#XN 1 9X                                                                                                                                                                                                                                                                                                                                                                        ",
"                                                                                                                                                                                                                                                                                                                                            yX6 : N.=X/.$X@X@X@X{.$X$X{.{.{.$X|.[.|..X|.{.{.{.{.{.{./.^..XOX.X}.|.}.[.[.^.[.XX[.}.[.[.}.T.[.}.^.[.XXXX}.}.}.[.].[.^.'.[.[.[.[.^.}.}.!.!.^.!.^.^.XXXXXXXX!.[..X}.XX'.].E.S , , n.).'.!.!.!.!.[.}.XXXXXXXXXX[.[.XX}.'.[..X}.[.[.[..X X'.^.|.}.[.{././.[.{.{.{./.{..X.X.X.X|.|.{./.$X/./.$X*XK.N 1 9X                                                                                                                                                                                                                                                                                                                                                                        ",
"                                                                                                                                                                                                                                                                                                                                            yX6 : S.=X{.(.(.(.(./.{.$X{.{.|.:X$X{.|..X{.|..X.X{.{.{.|.|..X.X.X.X|.|.}.[.[.[.[.!.^.[.[.}.^.^.}.!.[.}.|.}.].}.}.[.}.^.[.}.XXXXXX[.[.[.!.[.[.[.[.[.[.[.[.[.!.[..X X}.XX'.Q.S , , M.^.'.T.!.!.U.!.XXXX'.[.}.}.[.[..X}.XXXX}.[.[.}.}. XXX!.[.}.|.|.{./.W.W.{.|.{.{.{..X{.|.|.$X{././.*X$X/./.$X=XD 1 9X                                                                                                                                                                                                                                                                                                                                                                        ",
"                                                                                                                                                                                                                                                                                                                                            MXV : S.=X$X$X(.(./.{.{.(..X:X$X{.{.{.|.|.|..X|.|.{.|.|.|.|.|..X}.[.|.{.}.}.^.[.^.!./.}.[.}.[.^.!.!.[.XX}.}.!.!.}.XX}.[.[.[.XXXXXX}.^.[.!.!.[.[.}.}.[.'.!.^.[.[.[.[.!.'.].@XS ; < M./.XXXX[.T.!.!.T. XXXXX[.[.}.XX}.}.}.}.}.}.}.[.}.[.[.[.[.^.[.^.{.).W.W.{.{.{.^.^.{.|.{.{.&X$X{.(.$X$X@X@X$X=XD 1 9X                                                                                                                                                                                                                                                                                                                                                                        ",
"                                                                                                                                                                                                                                                                                                                                            MXV : S.<X/.$X$X(././.{.{..X&X|./.$X{.|.|.|..X|.|.{.|.|.[.[.[.[.[.^.^.[.[.^.[.[.[.[.^.!.[.|.[.^.^.^.[.}.}.}.}.[.XX}.}.[.[.!.XXXXXX[.!.[.!.!.[.[.[.[.[.[.[.[.^.^.!.!.T.'.]./.S ; < M.{.'.[.!.!.!.!.!.Y.XX.X'.!.XX[.[.[.XX[.}..X}.}.}.^.[.[.[.[.}.[.{././.{.[././.[.^.|.|.|..X$X$X{./././.$X*X*X=XD 4 9X                                                                                                                                                                                                                                                                                                                                                                        ",
"                                                                                                                                                                                                                                                                                                                                            MXZ : L.=X(.$X$X@X/.{.{.|.|.$X{./.$X(.(.{.|.|.|.|.|.{.[.^.^.[.[./.^././.[.^.T.!.[.|.^.[..X|.[.^.^.^.^.^.}.}.}.}.[.}.[.[.[.!.XX XXX!.!.[.!.!.[.[.[.[.[.^.^.[.[.[.!.!.].].'.Q.A ; < M./.].'.!.!.^.].'.Y.]..XXX[.}.!.!.[.^.[.}..X.XXX}.[.[.[.^.[.[.W.^./.[.}.[.W./.[.}..X{.{.|.{.{.$X$X*X@X@X@X*XK.N 4 9X                                                                                                                                                                                                                                                                                                                                                                        ",
"                                                                                                                                                                                                                                                                                                                                            MXG < L.=X$X/.$X*X(.{..X$X.X{./.(.(.(./.{.|.|.|.|.|.[.[./.[.[.[.}./.^.}.|.}.^.^.}.[.^.[.[.}.}.[.[.[.!.^.}. X[.!.!.^.^.[.[.[.[. XXXT.^.[.!.!.[.[.^.!.^.!.!.^.}.XX[.'.XXXX'.G.A ; < M.).].!.^.T.!.!.T.T.].}.[.XX.X[.^.[.^.[..X.X}.[.XX}.^.!.!.[.[.!.^.^.}.}.[.W./.{.{.^.W.[.&X$X/.(.*X*X/.@X@X*XK.N 4 9X                                                                                                                                                                                                                                                                                                                                                                        ",
"                                                                                                                                                                                                                                                                                                                                            BXY : N.1X{.{.$X$X$X/.(.|.-X{.{.(.(.(.[..X|.[./.[.{.}.}.[.[.[.^.^.^.}.}.[.[.[.^.|.[.!.!.^.}.}.[.[.[.}.[.}. X}.}.[.[.^.^.^.[.^.[.XX'.XXXX}.}.[.[.XXXX[.[.^.^..XXX[._.'.[.'.Q.A ; < n./.!.~.T.T.!.'.[.T.[.XXXX'.!.^.^.!.U.^.|.[.[.[.[.XX[.[.^.[.}.^.!.}.[.}./.^./.{.[.W.W.{.|.$X{.(.@X@X$X$X$X$XK.N 1 9X                                                                                                                                                                                                                                                                                                                                                                        ",
"                                                                                                                                                                                                                                                                                                                                            CXI : S 1X*X{.$X$X@X(.@X(.|.|.{.(.).|.|.|.|.[.[.^.[.^./.|..X[.^.^.[..X X}.[.^.^.[.!.^.[.[.}. XXX[.[.[.!.!.}.!.[.}.}.[.[.[.[.[.!.!.[.XX X}.}.[.XXXXXX[.[.^.[..X.XXX[.[.[.XX).A ; < M./.XX!.T.T.!.'.[.!.^.XX[.XX^.!.U.W.T.[.|.[.oX[.[.XX[.}.}.[.}.[.^.^.^.[.^././.[.[.[.^.{.{.$X/.).(.(.$X$X$X*XK.N 5 0X                                                                                                                                                                                                                                                                                                                                                                        ",
"                                                                                                                                                                                                                                                                                                                                            CXG : N.1X{.$X{.@X*X$X|.@X(./.{.{.(..X.X.X|.|.^.[.[.^.[.{..X{.|.}.|.|.}.}.}.}.}.}.^.[.}.}.}. X}.[.[.^.!.!.!.!.[.XX}.[.}.[.[.XX[.'.'.XX X}.[.[.XXXX[.[.[.^.^.XX.X XXX[.[.'.).A ; < n.E.'.!.T.T.!.!.^.!.[.[.^.[.^.!.T.^.[.[.}.[.[.XX[.[.[.[.[.[.[.}.[.^.W./.^.[.|..X.X{.^.{./.{.).)./.{.$X$X{.*XK.N 5 0X                                                                                                                                                                                                                                                                                                                                                                        ",
"                                                                                                                                                                                                                                                                                                                                            BXG : N.=X{.$X(.$X$X-X$X@X(.)./.(.|..X.X.X[.|.{.}.^././.{.{.[.}.}.[.[.[.}.}.|.|.[.[.[.}.}.[.XX.X X[.^.^.!.!.[.}.XX!.}.}.[.'. XXXXXXX'. XXX!.[.XXXX].[.[.!.^.[.XXXX'.!.].'.Q.A ; < b.E.T.!.}.T.!.!.^.^.[.[.!.!.!.!.!.[.[.[.}.}. X XXX!.^.^.^.W.W.[.^.).)./.[.}.|.|.|.[.W.^.{.^././././.$X$X/.*XK.B 5 0X                                                                                                                                                                                                                                                                                                                                                                        ",
"                                                                                                                                                                                                                                                                                                                                            BXG : N.=X(.@X(.$X>X-X|.$X(.(.{.{..X.X|.{.|.:X.X|.^./.{.}.[.!.!.!.!.}.}.}.}.[.}.}.[.[.[.[.XXXX}. X}.|.}.}.'.]. XXX!.[.[.[.T. XXX[..X X X[.!.!.[.XX].[.^.!.!.[.[.[.}.!.!.'.Q.A ; < n.E.R.T.[.!.^.[.!.W.^.^.^.!.^.[.[.!.'.[.!.!.XXXXXX[.^.[.|.[.W.[.^.)./.{.}.}.[.}..X|.{.{.|.{.$X$X/././.$X$X*XK.B 5 wX                                                                                                                                                                                                                                                                                                                                                                        ",
"                                                                                                                                                                                                                                                                                                                                            BXG : N.=X(.(.(.$X$X(.(.(.)./.{.{..X.X{.)./.{.(.|.[./..X.X}.[.!.[.|.|.[.[.}.}..X|.}.[.[.[.[.[.[.}.^.[.}.}.XX].XX XXX^.[.[.[.}.XX'.}.}.XX[.!.!.!.!.!.[.'.!.!.!.[.!.^.!.~.~.Q.A ; < n.^.'.'.!.!.^.[.!.!.^.[.[.[.[.XXXX!.T.^.[.}.'.T.T.!.[.[.[.W.[.}.[.{.{.{.}.[.}.}.{.|.|.|.&X{.|.$X/././.$X*X*XK.B 5 wX                                                                                                                                                                                                                                                                                                                                                                        ",
"                                                                                                                                                                                                                                                                                                                                            BXG < N.=X/.@X@X(.(.).(.(.@X/./.{..X.X{.{.{.{./.{.|.OX|.{..X|.^.^..X|.^.!.^.}.|.}.^.^.^.^.[.[.[.[.!.!.^.}.XX XXXXXXX[.[.[.[.[.XX'.}.}.}.XX!.!.!.T.T.[.[.!.!.!.!.!.!.^.!.~.Q.S ; < M.{._.T.'.!.^.[.!.T.^.[.XX[.XX}.[.^.!.T.}.}.!.T.T.XXXX}.^.T.[.T.T./.}.{.{.|..X|.{.|.|.|.&X|.{.{.$X$X$X&X%X$XK.B V wX                                                                                                                                                                                                                                                                                                                                                                        ",
"                                                                                                                                                                                                                                                                                                                                            CXG < N.=X*X*X*X$X/.(.(.$X$X)./.{..X|.[.|.&X.X[.}.|.:X}./.{.{.^.!.^.^.^.^.T.}.}.}.!.^.[.[.[.}.}.}.!.!.^.^.[. X.X].XX.X[.^.^.[.[.[.}.}.}.XX^.!.!.!.!.[.].!.!.!.!.!.!.[. X!.Q.S ; < m.W.'.T.!.!.^.[.!.!.^.[.XX'.'.[.^.[.[.^.^.^.[.}.[.[.}.}.^.[.^.T.!.^.}..X.X{.{.[.^.{.|.|.$X&X{.{.{.$X$X$X*X*XK.B 5 wX                                                                                                                                                                                                                                                                                                                                                                        ",
"                                                                                                                                                                                                                                                                                                                                            MXG 1 N.#X$X*X$X@X(.|.(.{.$X{./.|.|.|.{.[.|.|.{.{.[.{..X|.}.[.[.!.[.!.!.^.^.}.|.[.T.[.}.[.[.^.[.}.|.[.^.!.[.}. XXXXX}.[.^.^.[././.}. X X X[.!.!.!.^.[.!.!.[.^.!.Y.Y.'.XX!./.A , < M.E.!.!.!.!.^.^.~.!.}. X}.!.XX[.^.[.^.^.^.^.[.[.[.!.[.[.U.U.[.[.[.}.}.|.}.^.^.W.).|.|.|.|.{.{.$X/.$X{.{.*X$XL.m 5 wX                                                                                                                                                                                                                                                                                                                                                                        ",
"                                                                                                                                                                                                                                                                                                                                              Y 1 N.=X/.$X@X(./.).{.$X{.$X{.{.{.{.{.[.|.|.|.{.^.[.|.|.}.[.[.^.^.^.^.[.}.}..X}.!.}.}.[.[.[.[.[.^.!.^.[.}.[.}.!.[.[.[.^.^.[.^./.}.XXXX}.[.T.~.!.!.[.!.~.!.!.!.].T.'.XX!.).S , , n.E.!.!.!.!.!.!.!.}.}.}.!.[.}.XX'.[.^.[.[.[.[.^.!.U.!.[.[.U.^.[.^.^.^.^.[.^.[.).{.|.|.|.|.{.{.(./.*X*X*X$X$XL.m 5 nX                                                                                                                                                                                                                                                                                                                                                                        ",
"                                                                                                                                                                                                                                                                                                                                              I 1 N.=X/./.(.(.(./.$X*X).@X@X{.{.{.{.[.|..X(.[.^.[.}.}.[.[.[.^.^.^.[.[.}.}..X}.!.}..X}.}.[.[.!.!.[.[.[.!.^.[.!.[.T.^.[.^.^.^.[.|.XX].XX!.~.!.!.^.}.^.~.!.!.}.XX'.'.XX'.{.n., , n.).!.!.!.!.!.!.}.}.[.!.!.[.}.'.!.[.[.[.[.^.^.!.[.[.[.[.[.^.[.[.^.^.^.^.^.^.^.^./.{.{.|.|.$X{./.*X*X$X*X*X*XL.m 5 nX                                                                                                                                                                                                                                                                                                                                                                        ",
"                                                                                                                                                                                                                                                                                                                                              I 1 S =X(.@X@X@X@X/./.{.{./.$X$X|..X|.[.{..X[./.}.}.}.[.T.T.^.W.!.!.!.^.[.[.|.}.!.!.XXXXXX[.[.[.[.[.}.[.!.^.[.^.[.^.[.[.^.^.^.}..X[.].}.!.!.^.[.[.}.[.[.XX!.XX'.!.XXXX`.E.n., , m.).].!.!.!.~.!.XX!.T.T.!.!.[.!.!.[.[.^.^.!.T.!.[.}..X[.[.!.T./.^././.W.^.[.^.{.{.^.^.{.{.{.{.{.*X%X$X/.@X$XL.m 5 nX                                                                                                                                                                                                                                                                                                                                                                        ",
"                                                                                                                                                                                                                                                                                                                                              U 1 S =X(.(.@X*X@X/.$X&X$X)./.{.|..X.X|.}..X{.}.[..X.X X}.^.^.^.^.^.^.^.[.}.}.^.[.!.!.!.[.[.}.}.[.'.XXXX}.^.^.^.}.[.^.[.}.}.[.!.}.}.'.^.}.}.[.[.}. X}.!.^.!.!.].].[.'.T.G.n., , M.).].].[.!.!.!.[.!.^.^.T.T.^.[.[.T.!.[.XXT.!.!.[.!.[.}.|.[.[.^.[.^.^.[.{.|.^.^.^.^.W.^.{.$X{.{.@X@X$X*X*X#XL.m 5 nX                                                                                                                                                                                                                                                                                                                                                                        ",
"                                                                                                                                                                                                                                                                                                                                              U 1 S #X).(.@X@X)./.{.$X{./.$X$X|..X|.|.}.|.{.[.[.}.}.{.}.[.^.!.!.!.!.^.^.}.}.^.!.[.!.!.!.[.[.[.[.'.[.XX}.[.!.^.}.[.[.[. X}.}.[.!.^.!.!.[.}.}.].[.}.}.!.!.!.!.].].XX'.'.Q.n., , n./.].!.!.!.!.!.[.[.[.^.!.T.^.[.}.}.[.[.'.T.].'.[.[.^.[.[.[.^.[.[.^.^.{.|.{.[.{.{.{.[.{.{.|.{.$X/.$X*X*X*X*XL.m V nX                                                                                                                                                                                                                                                                                                                                                                        ",
"                                                                                                                                                                                                                                                                                                                                              U 1 S #X).(./.@X$X/.{.|.|.{.$X$X|.|.}.}.{.|.[.^.^.}.}.[.[.[.^.^.!.!.^.^.!.}.|.^.!.}.}.[.[.[.[.[.[.^.!.}.}.[.[.^.}.}.XXXX}.}.}.XX!.[.[.}.}.XXXX}.}.}.}.!.!.!.!.].].XX'.'./.n., , M.).!.}.!.!.^.[.[.[.^.^.^.W.W.[.[.}.}.[.'.!.XXXXXX}.^.^.^.^.!.T.^.^./.{.|.{.{.{.{.{.^.[./.{./.*X/./.@X*X@X*XL.m V nX                                                                                                                                                                                                                                                                                                                                                                        ",
"                                                                                                                                                                                                                                                                                                                                              U 1 S #X(.$X@X$X$X/.{.|.|.{.{.{.{.|.}.{.{.|.{./.^./.{.[.^.[.[.[.[.[.}.XXT.^. X[.^..X}.}.}.[.^.^.[.^.!.[.[.[.[.}.}.XX}.}.}.}.}.'.XX[.}.}.|.}.}.}.[.}.XX!.!.!.!.!.].[.'.XX$Xn.; , n.).].}.~.!.[.XX[.[.W.T.^.U.T.T.T.[.[.XX[.[. XXX[.[.[.}.[.T.T.T.W.^.^.{.{.[.{.|.{.[.^.{./.{./.*X/./.$X$X@X*XK.m V nX                                                                                                                                                                                                                                                                                                                                                                        ",
"                                                                                                                                                                                                                                                                                                                                              U 1 S =X(.-X(././.{./.{.&X|.{.{..X|.|.|.|.|.{.{.^././.{.|.[.}.[.}.^.^.[.}.!.T.!.[.XX[.[.[.[.^.!.^.!.!.[.'.!.[.XXXX[.XX^.^.}.[.XXXX}.XXXX}.}.[.^.!.XX X[.'.[.[.!.'.'.XX].(.n., < M.).].!.!.[.!.^.^.^.T.T.^.T.T.[.[.T.[.XX}.XXXX}.}.}.}.}.}.[.[.}.W.W.W.^.[.{.|.&X|.{.[.|.&X{.{./.(.@X/./.@X*XK.m 5 wX                                                                                                                                                                                                                                                                                                                                                                        ",
"                                                                                                                                                                                                                                                                                                                                               .1 S =X(.@X@X{.{.(.{.|.$X$X{.{.{.|.|.{.{.|.{.{.^././.[.[.}..X|.}.[.[.].[.T.T.!.[.].!.!.!.[.!.!.!.!.!.[.'.!.T.}.|.^.}.^.^..X}.}.XX!.XXXXXX[.!.!.'.'.XX!.!.!.!.!.].[.].!./.n.; < n.).].!.!.!.!.^.^.T.T.T.T.T.T.[.[.T.!.[.XXXXXX X X}.[.}.}.[.!.^.[.^.W.W.{.{.[.{.{.{.{.{.{.{./././.@X@X@X$X%XK.B 5 wX                                                                                                                                                                                                                                                                                                                                                                        ",
"                                                                                                                                                                                                                                                                                                                                              U 1 S #X(.(.@X$X(././.(.{.{.{.{.{.[.[.{.|.|.|.[.[./.[.[.[.[.|.}.^.[.[.[.^.T.!.'.[.!.!.!.!.!.!.~.I.!.!.[.[.!.!.!.[.^.}.[.[.}.^.[.!.^.}.}.}.XX[.'.[.[.[.T.!.^.[.XXXX'.'.!.).n.; < M.E.!.!.T.~.!.!.[.^.T.T.^.^.^.[.[.[.T.!.[.[.].[.^.[.'.!.[.T.T.T.^.^.W.^.|.[.^.[.{.^.{.{.{.{.{./.@X*X*X*X$X%XK.B 5 nX                                                                                                                                                                                                                                                                                                                                                                        ",
"                                                                                                                                                                                                                                                                                                                                              D.1 S #X$X(.(.(.)./.(.(.{./.{.{./.{.|.|.{.[.{.[.{.[.[.^.^.!.[.!.!.'.XX[.^.[.[.[.!.!.!.!.!.!.!.!.!.^.[.[.!.!.^.U.!.[.}.[.[.^.!.^.!.[.^.[.!.'.XX[.T.}.}.T.!.[.^.'.'.T.'.!./.n., < M.E.].!.!.Y.~.!.[.[.^.^.[.}.[.[.[.XX[.'.!.!.[.}.XXXXT.U.T.[.}.W.W.W.[.{.{.[.^.{.{.{.|.|.|.{.{.{.*X/.*X$X@X@XK.B 5 nX                                                                                                                                                                                                                                                                                                                                                                        ",
"                                                                                                                                                                                                                                                                                                                                              Z.1 D =X(.(.Q.).(./.{.{.{.{./.(.|.|.|.|.|.|.{.{.{.}.!.!.!.!.!.^.[.!.XX}.[.^. X}.!.XXXX[.[.}.[.!.!.!.[.^.!.!.^.^.!.!.^.|.}.!.^.}.[.^.[.^.!.!.!.T.'.T.[.[.!.[.[.'.Y.R.Y.Y.).n., < M.W.!.!.!.~.!.[.}.!.[.^.^.}.[.[.^.[.XXXXXX}.[.'.'.XX[.^.[.[.[.[.[.{./.W.W.{./.^./.{.|.|.{.|.|.*X*X*XQ.Q.*X*XK.B 5 nX                                                                                                                                                                                                                                                                                                                                                                        ",
"                                                                                                                                                                                                                                                                                                                                              D.1 D #X*X@X/.(.(.(.{.(./.).).(.|..X|.{.|.|.[.{.}.[.}.[.[.^.^.[.}.XXXX[.T.^.}.}.XXXXXXXXXXXXXX}.!.[.[.[.!.[.}.}.[.^.}.}.^.^.XX}.}.[.}.[.[.[.!.!.!.T.T.^.^.[.XXXX'.T.T.Y.E.n., , M.W.!.~.!.~.!.!.!.^.[.T.T.}.[.[.[.[.[.}.[.}.[.XXXX}.XX[.[.[.^.^.^.[.^.W.W.{.{.{.[.{.|.|.{.|.{.&X&X{.Q./.@X$XK.B 5 wX                                                                                                                                                                                                                                                                                                                                                                        ",
"                                                                                                                                                                                                                                                                                                                                              4X1 D =X,X@X(.(.(.(.(.(./.).).).{..X|.[.|.}.[.}.}.!.}.[.!.[.}.[.[.}.}.XXXX!.}.}.}.].XXXX[.XXXXXX[.[.[.[.'.^.[.[.^.^.}.|.}.[.[.!.^.}..XXXXX^.!.!.^.!.T.!.^.XX[.].'.[.].Y.Q.S ; , M./.].T.U.!.!.!.T.[.[.T.T.[.[.[.}.[.[.}.^.}.}.}. X XXX[.[.|.[.W.^.^.^.W.W.{.{.}.}.[.{.{.|.{.{.&X$X{./.{.*X$XK.B 5 0X                                                                                                                                                                                                                                                                                                                                                                        ",
"                                                                                                                                                                                                                                                                                                                                              4X1 N =X$X(.@X(.(.(.(.(././././.{..X}.[.}.}.}.[.[.}..X[.[.[.[.^.^.}.[.[.[.^.^.[.[.'.XXXXXX'.XXXX!.[.[.'.'.^.[.XX^.[.[.!.[. X}.!.[.XX XXX[.!.!.^.}.^.!.!.T.[.!.'.XX!.!.Y.).S ; < M./.].I.I.T.!.^.^.[.[.T.^.[.[.}.[.[.^.{.[.[.[.}. X XXX!.!.[.^.^.^.^.[.[.^.[.[.[.}.[.W.W.|.|.{.&X$X*X@X/.*X@XK.B 5 0X                                                                                                                                                                                                                                                                                                                                                                        ",
"                                                                                                                                                                                                                                                                                                                                              4X1 N #X{./.@X(.).).(./.{.&X{././.{.[.[.XXXXXX}.|.^.}.}.[.[.!.!.T.^.^.^.^.[.[.[.[.XXXX}.[.XXXX[.[.[.'.'.[.}.}.[.^.[.].'.'.}.XX[.'.}.[.^.[.^.!.!.^.^.!.!.~.U.!.[.].!.[.'.).S ; < M.).T.T.U.^.^.[.[.[.[.T.[.[.^.[.T.U.!.}.{.[.'.[.XXXX[.'.XX[.T.^.[.[.^.[.[.[.}.|.|.[.W.^.|.{.{.|.|././.*X%X%XK.B 5 wX                                                                                                                                                                                                                                                                                                                                                                        ",
"                                                                                                                                                                                                                                                                                                                                              4X1 N #X{.@X@X@X(.(.$X{.{..X{././.{.{.}.XXXX[.^.[./.|.}.!.[.[.!.!.[.[.^.^.^.[.XXXXXX}.XX[.XX].'.[.[.!.[.XX[.[.!.!.[.].[.XX[.[.].].[.^.^.^.!.T.!.!.!.[.!.~.T.!.].].[.XX'.E.S ; < M.Q.T.T.!.!.!.!.!.T.!.T.[.[.[.[.T.U.[.[.}.}.[.[.XXXX[.[.XX}.[.[.[.^.^.^.^.[.}.[.[.|.[./././.{.|.{.*X/.Q.@X*XK.B 5 wX                                                                                                                                                                                                                                                                                                                                                                        ",
"                                                                                                                                                                                                                                                                                                                                              4X1 N K.{.(./.(.(.{.$X{.{.|.{.[.[.{.|.}.}.XX^.^.^.}.}.[.^..X}.[.[.[.[.^.^.!.}.XXXXXX}.[.}.XX[.'.!.[.[.[.[.[.[.!.~.].!.XXXX[.[.XXXX'.^.^.!.U.T.!.^.!.!.^.!.^.!.'.XX'.].'.Q.A ; n M.Q.!.'.!.!.!.~.U.T.[.^.[.T.T.T.R.[.!.'.XX}.[.[.[.[.[.[.}.}.[.[.^.!.!.^.^.^.[.[.[.^.^././././.^.W.{.Q.Q./.*X#XN 5 0X                                                                                                                                                                                                                                                                                                                                                                        ",
"                                                                                                                                                                                                                                                                                                                                              4X> N K././.).)./.{.$X{.{.{.{.{.|.{.|.}.[.}.[.^.^.}.^.^.}..X.X}.[.[.[.^.^.!.}.XX'.}.XX[.[.'.XX[.!.[.[.[.XX!.^.[.[.].!.XX X].].'.!.[.[.!.U.T.!.^.^.!.!.!.^.^.!.'.XXT.T.Y.H.A ; n M.U.'.XXXX[.!.~.~.T.[.^.^.^.T.U.U.!.T.[.XX}.[.^.^.[.^.^.}.}.T.^.!.T.!.^.^.T.!.}.[.[.^./.{././.W.{.{././.*X*X#XN 5 wX                                                                                                                                                                                                                                                                                                                                                                        ",
"                                                                                                                                                                                                                                                                                                                                              4X4 N G.$X(././.)..X|.[.^.{././.{..X{.[.[.}.}.}.}.}.}.^.}.|.[.!.[.}.[.!.[.}.}.XX].[.[.[.T.XX[.!.[.}.[.^.[.'.XXXXXX[.XXXX!.Y.!.].].}.[.!.[.!.!.!.!.!.!.!.!.!.^.'.'.'.'.Y.G.A ; n V.W.'.].].].!.!.!.!.'.^.^.!.!.T.T.T.T.'.[.[.[.^.^.^.^.[.}.}.[.T.!.^.^.^.{.[.^.^.[.|.[.{.&X{.$X&X|.$X/.*X*X&XK.N 5 0X                                                                                                                                                                                                                                                                                                                                                                        ",
"                                                                                                                                                                                                                                                                                                                                              0X4 B G.|.$X/.)./..X.X|.{.(./././.{.{.|.}.}.}.^.^.[.}.^.[.^.T.T.[. X}.}.[.[.[.].'.[.[.^.T.!.!.!.[.^.[.!.!.[.XXXX[.].XX[.].Y.'.].].[.!.T.!.!.!.!.!.!.!.!.!.!.^.].'.XXXX`.E.A ; n V.).'.].].].'.'.'.!.!.!.^.^.!.!.!.^.!.'.!.T.[.[.[.[.[.^.[. X[.^.^.^.^.[.{.[.^.^.{.{.^.).{.{.{.&X$X$X{.$X*X*XK.B 5 0X                                                                                                                                                                                                                                                                                                                                                                        ",
"                                                                                                                                                                                                                                                                                                                                              0X4 B G.|.@X(./.(.{.{.{././.)./.).W./.}.[.[.[.^.!.^.}.^.^.^.!.T.T.^.[.[.[.!.!.[.[.[.^.!.^.^.!.[.[.!.^.!.!.[.[.[.!.[.[.[.[.T.'.XXXX!.!.T.!.!.^.^.!.U.!.!.!.!.'.'.!.T.'.`.E.S ; n V.^.'.].].'.'.].].].!.!.[.^.^.[.[.^.!.T.T.T.[.XX}.[.[.[.[.XX'.!.!./.^.[.{.[.^.^.|.{.{.{.{././.|.$X|./.*X*X*XK.B 5 wX                                                                                                                                                                                                                                                                                                                                                                        ",
"                                                                                                                                                                                                                                                                                                                                              4X4 B K./.$X(.(.(.(.|..X{.)./.(.).E.W./.}.^.^.^.^.^.}.^.!.^.^.!.^.^.!.[.}.!.}.}.[.[.^.^.[.!.^.XX}.^.^.^.^.!.[.'.!.XX[.!.!.T.].XXXX^.!.U.!.!.[.[.!.I.^.[.!.'.!.!.!.T.!.`.Q.A ; m V.U.'.'.XX].].XX].'.U.T.!.!.!.^.[.^.!.!.T.T.'.XX XXX[.[.[.[.[.'.^.^.^.^.^.^.^./.{.^.{.|.{.{././.$X(./././.*XK.B 5 wX                                                                                                                                                                                                                                                                                                                                                                        ",
"                                                                                                                                                                                                                                                                                                                                              0X5 m K.-X-X@X{./.).(.(./.(.).).).).W.^.|.{.^.^.[./.^.^.W././.^.^.^.[.^.}.}.[.}.^.T.[.[.[.[.^.[.[.!.!.!.[.!.!.!.T.}.[.^.!.U.!. X[.[.!.T.!.[.^.[.!.T.[.[.!.!.!._.T.T.U.T.Q.A ; m V.U.`.XX].].'.'.].!.T.Y.[.!.T.[.XX[.!.!.[.XXXX[.XX}.[.|.}.^.[.[.^.[.oX[.[.[.[.^.W.W.|.&X{.{./.Q.Q././././.*XK.B 5 wX                                                                                                                                                                                                                                                                                                                                                                        ",
"                                                                                                                                                                                                                                                                                                                                              0X4 m L.@X(.(.(./././.(.(././.(./.).^.).^.|.|.[.^.[.^.^.).^.[.}.[.}.[.!.[.^.[.^.!.^.^.}.!.!.!.!.T.!.!.[.XX!.!.!.~.^.^.!.!.U.!.XXT.[.}.!.^.!.!.[.'.[.[.'.T.!.!.`.Y.U.U.T.G.A ; m V.^.].'.'.].'.!.~.!.!.T.!.I.U.[.XX[.[.[.XXXX'.'.[.[.^.^.^.^.^.^.^.[.[.}.[.[.[.[.^./.|.|.{.|.|././.@X$X*X*X*XB.B 5 wX                                                                                                                                                                                                                                                                                                                                                                        ",
"                                                                                                                                                                                                                                                                                                                                              wX2 m K.@X(./.(./././.{./.).)./.).W.^.).U.^.{.|.}.[.[.[.[.[.[.}.}.^.!.[.[.^.!.T.!./.!.^.^.[.XX[.'.}.[.!.!.!.!.!.~.!.!.!.^.!.[.[.T.!.}.[.!.!.^.!.!.'.'.!.[.!.T.`.Y.R.U.'.Q.A ; m V.^.].'.].'.].'.Y.!.I.T.XXI.U.[.[.'.XXXXXX!.T.!.'.[.T.T.^.^.!.!.^.{.{.[.^.^.[.[.W.{.{.{.{.|.{.{.*X*X&X$X*X@XB.3 5 wX                                                                                                                                                                                                                                                                                                                                                                        ",
"                                                                                                                                                                                                                                                                                                                                              wX4 B L.@X@X@X@X/.).)././.)./.(.).^././.^.U.[.[.[.[.[.{.{.}.{.[.!.!.T.[.[.!.!.^.T.U.^.^.!.[.XXXX[.[.!.!.!.^.!.!.~.!.!.[.[.'.[.[.[.^.[.T.T.T.!.!.^.}.'.T.T.Y.T.Y.Y.Y.T.].Q.A ; m V.[.].Y.!.'.XX].~.!.U.!.[.!.!.'.T.T.'.[.[.!.T.!.^.[.T.U.W.^.T.U.!.[.[.^.^.W.^.{.[.^.W.{.|.|./.{.$X$X$X$X$X*XL.3 5 wX                                                                                                                                                                                                                                                                                                                                                                        ",
"                                                                                                                                                                                                                                                                                                                                              uX2 3 L.@X@X@X).(.(./.).).).).).W.^.^.^.}.}.[.^.^.[.[.^.[.^.[.[.^.^.!.^.[.[.^.!.!.!.^.!.^.[.!.[.[.!.!.!.[.!.!.!.!.!.}.XXXX'.[.XX[.!.T.T.T.!.^.[.XXXX'.[.'.U.Y.Y.Y.U.T.'.Q.A ; m V.T.`.].'.'._.T.!.T.!.!.T.[.XXXXT.R.[.[.[.^.!.[.^.^.!.U.W.^.^.^.T.^.T.W.^.[.{.{.{.^.W.W.{.{./.)./.{./.$X$X*XB.3 5 wX                                                                                                                                                                                                                                                                                                                                                                        ",
"                                                                                                                                                                                                                                                                                                                                              wX2 3 L.$X).@X(.(.(.(.(./.).).).W.^.!.^.[.[.[.[.W.W.[.[.^.^.[.^.!.^.^.[.}.}.}.[.^.^.^.^.[.[.[.[.}.}.!.!.!.[.[.}.[.!.[.[.XX}.XX[.!.!.T.!.!.^.[.[.[.!.T.[.!.U.!.T.T.U.T.'.G.A ; n V.!.].XX'._.'.[.!.T.!.T.T.!.XXXXT.T.[.[.[.[.^.^.^.!.!.W.^.W.[.[.T.U.U.T.[.[.[.{.{.^.[.{.|.{./.@X$X/./.{./.*XA.m 5 wX                                                                                                                                                                                                                                                                                                                                                                        ",
"                                                                                                                                                                                                                                                                                                                                              qX2 3 L.$X@X@X$X$X/.(.{./././.).).^.^.^.[.[.{.{.^.W.{.^.^.^.^.[.!.[.[.[.[.}.}.[.^.!.^.[.].!.!.'.[.!.}.}.!.^.[.!.~.^.^.!.[.}.}.^.!.!.!.^.[.[.!.!.!.T.T.[.!.I.T.T.I.T.T.!.G.A ; n V.T.].].T.[.[.!.U.T.!.!.!.XX!.Y.I.[.[.^.^.[.^.T.!.!.^.^.^.^.[.[.^.[.}.T.^.^.[.[.[.^.^.^.[./././.@X@X$X$X/.@XB.3 5 wX                                                                                                                                                                                                                                                                                                                                                                        ",
"                                                                                                                                                                                                                                                                                                                                              wX2 3 L.*X@X/.$X).).(.(.)././.).).^.^.^.^.{.|.{.[././.).^.^.[.}.}.!.!.^.[.[.^.!.!.^.[.[.'.[.[.[.T.!.}.Y.U.!.[.!.Y.[.^.!.^.}.[.[.[.[.^.[.}.}.[.[.[.T.^.[.^.!.!.!.T.T.T.~.H.S ; < M.^.'.!.T.T.T.T.T.U.!.XXXXXXT.I.T.[.^.T.U.W.T.U.!.T.^.[.^.[.[.[.[.}.}.|.U.^.[.[.[.^.^.^.|.{.{.$X$X(.).{.{.*XB.3 5 wX                                                                                                                                                                                                                                                                                                                                                                        ",
"                                                                                                                                                                                                                                                                                                                                              wX5 3 L.#X/./.(.).).)./././.).E.^.^.T.^.^.[.[.{.{.}.{.{.[./.[.^.!.!.!.^.}.^.!.!.!.^.^.!.!.[.[.^.T.'.[.!.!.}.}.XX'.^.!.^.}.XX'.[.}.!.T.!.[.}.[.[.[.'.'.[.!.!.!.].!.!.T.Y.H.A ; n M.W.T.Y.I.U.!.!.'.[.'.!.!.Y.~.T.T.T.U.U.U.^.!.T.T.{.}.[.'.[.[.[.}.[.T.W.^.^.^.^.[.[.[.{.|.|.{.{.{.).).{.{./.B.3 5 wX                                                                                                                                                                                                                                                                                                                                                                        ",
"                                                                                                                                                                                                                                                                                                                                              uX5 3 L.$X*X(./.(.(././.{.{.{././.[.[.[.[.^.^.{.|.}.[.[.^././.^.!.^.T.T.[.[.!.!.^.^.^.!.[.!.^.^.!.!.'.!.[.^.[.XX[.T.!.^.}.}.[.^.[.[.!.!.^.!.!.[.[.`._.'.!.!.].'.'.!.T.Y.H.C ; n M.W.Y.R.R.U.^.[.'.T.U.Y.!.!.!.T.T.[.!.T.^.^.T.^.[.}.}.[.[.[.[.XX[.[.T.^.^.T.T.!.^.{.{.|.|.{.^.{.|.Q./././.@XB.3 5 wX                                                                                                                                                                                                                                                                                                                                                                        ",
"                                                                                                                                                                                                                                                                                                                                              wX5 3 K.*X*X/.).(.(.{.{./.{././.[.[.[.{.^.[.[.[.^.^.^.^.^.U.^.^.^.[.'.'.XX[.'.[.[.^.^.^.[.].[.[.[.!.!.^.^.^.[.[.[.T.!.^.[. X'.'.[.[.^.!.^.!.!.[.[.T._.'.!.!.].].'.!.!.Y.H.N ; m M.W.Y.I.U.T.!.[.XX'.T.T.[.XXXX^.!.}.}.'.!.T.T.T.!.[.^.XX[.[.}.[.oX[.T.[.[.^.^./.[.|.|.{.{.{./.{.{.$X$X{./.@XB.3 5 0X                                                                                                                                                                                                                                                                                                                                                                        ",
"                                                                                                                                                                                                                                                                                                                                              wX5 3 L.*X{.{.{.{./.$X{.W.{.)./.{.[.[.{.^.[.|.[.T.T.T.^.[.^.[.}.[.!.[.XXXX!.!.!.!.^.^.[.[.[.!.!.!.[.!.^.!.}.}.[.^.^./.[.^.}.'.!.[.!.!.!.^.!.!.!.!.!.'.[.].!.].'.'.'.!.Y.H.N ; m V.W.'.!.[.T.T.'.XX'.'.!.!.[.'.!.^.!.}.}.'.[.!.!.!.!.!.'._.[.}.[._.}.[.[.[.W.^.[.}.}.[.[./.|.{.{.^.).{.$X*X@XB.3 5 wX                                                                                                                                                                                                                                                                                                                                                                        ",
"                                                                                                                                                                                                                                                                                                                                              wX2 3 L.$X/.{.{.|.{.{.{.{.)./.{.[./.{.[.^.[.!.!.[.'.[.!.T.^.^.^.^.[.'.T.[.'.[.'.[.!.^.[.}.[.!.!.}.}.[.[.^.}.}.[.^.^.!.!.[.[.[.XXXX^.!.!.[.!.!.^.[.[.'.].[.XX'.'.'.Y.Y.XXQ.B ; B V.U.Y.'.!.^.^.[.!._.'.T.U.'._.!.[.[.[.[.}.}.}.[.[.T.U.T.[.[.T.[.}.[.[.^.W.U.W.^.^.[.[.[.|.|.$X{.Q.W.{.*X*X#XA.m 5 wX                                                                                                                                                                                                                                                                                                                                                                        ",
"                                                                                                                                                                                                                                                                                                                                              wX5 3 L.@X/.{.{.{.{.{.|.{.).E.).^.^.[.^.^.[.!.[.[.!.[.[.[.^.T.U.^.!.'.!.!.[.XX'.^.!.[.}.XX[.!.[.}.^.^.[.XX^.^.!.^.^.!.!.!.[.[.[.[.[.!.!.^.!.!.!.^.T.T.!.'.].'.'.'.Y.].XXV.m + B V.W.'.'.T.T.T.!.T.'.'.W.T.[.XX[.^.T.!.[.[.[.[.[.^.^.^.[.[.}.[.[.XX[.[.[.W.T.^.^.^.!.T.[.|.{.{.{././.$X{.{.@XB.3 5 0X                                                                                                                                                                                                                                                                                                                                                                        ",
"                                                                                                                                                                                                                                                                                                                                              wX6 3 B.(.@X@X(.{.|.{.{./.(.).).W.^.^.)./.!.}.XX[.!.[.}.}.[.^.^.[.!.[.[.^.[.[.!.^.^.^.!.!.!.!.!.^.!.!.[.}.^.!.!.!.[.^.!.!.!.!.'.'.!.!.!.!.!.T.T.!.T.!.'.].].'.'.'.!.].XXH.B ; m V.[.XXXXT.T.T.!.~.XX}.[.W.T.[.[.T.T.!.!.!.!.[.[.^.^.[.[.[.^.[.}.}.[.[.[.^.^.^.^.^.^.W.^.{.{.[.{.{./.{./.*X*XL.3 5 0X                                                                                                                                                                                                                                                                                                                                                                        ",
"                                                                                                                                                                                                                                                                                                                                              uX6 < B.@X@X@X@X$X$X{././.(.).).^.E.^.^.E.!.}.}.XX[.[.^.!.^.^.^.^.^.!.[.[.}.}.^.^.!.^.^.^.!.~.T.!.!.!.[.!.!.!.!.!.[.!.~.~.!.!.!.!.T.!.[.[.[.!.T.^.^.!.XXXX'.`.'.!.!.!.XXG.m ; m V.^.].!.T.T.!.!.[.[.T.T.T.T.T.[.'.!.}.[.T.T.[.[.^.[.!.T.^.U.T.[.'.T.^.^.U.^.^.!.!.U.U.W.{.{.[.^.{.$X/.E.Q.*XA.3 4 0X                                                                                                                                                                                                                                                                                                                                                                        ",
"                                                                                                                                                                                                                                                                                                                                              wX6 : B.(./.(.@X@X$X/././.).)././.^.^.^.^.^.}.[.}.}.[.^.^.^.[.W.T.^.[.XX X XXX].[.[.}.{.^.!.!.^.^.^.~.~.!.!.!.!.!.!.!.!.!.].].!.T.^.[.}.XX[.!.'.'.[.].'.XX'.].!.!.!.'.].H.m + m V.^.T.U.I.T.^.!.!.XX'.T.T.!.!.[.[.[.^.T.[.[.T.T.^.[.!.!.^.U.U.~.[.!.^.^.W.W.^.!.U.T.U.W./.{.{.^./.{././.{.*XK.3 1 0X                                                                                                                                                                                                                                                                                                                                                                        ",
"                                                                                                                                                                                                                                                                                                                                              uXG : B.@X)./././.{./.$X{.{.|.[.{.^.^.^./.^.[.|.[.^.^.^.^.^.^.^.^.[.[.[.}.'.'.'.'.'.[.^.T.!.!.^.[.[.!.!.[.!.!.!.!.!.!.!.!.[.}.].!.^.^.[.[.!.T.T.T.'.!.].'.[.[.!.~.!.'.].H.m + m V.^.T.U.U.!.!.!.!.XXXX[.T.!.!.'.'.^.^.T._.[.[.^.T.T.[.[.!.!.!.!.}.^.^.W.W.^.W.!.!.[.^.^./.{.|.{.{.Q.{.$X*X*XK.3 4 9X                                                                                                                                                                                                                                                                                                                                                                        ",
"                                                                                                                                                                                                                                                                                                                                              VXG : B.@X/.(././.{.{.{.{.|.&X[.{.[.^.^./.^.}.|.T.^.^.^.^.!.U.T.[.{.[.^.T.T.!.'.'.XX[.^.!.!.!.^.^.!.}.}.}.!.!.!.!.!.!.!.!.!.[.XX[.^.!.!.^.!.!.!.'.!.!.!.~.[.[.^.!.!.].'.H.m + < M.).T.!.U.!.!.'.XXXXXXXX'._.!.'.'.[.[.Y.Y.T._.[.[.[.[.[.[.T.W.[.[.[.W.U.T.U.U.!.^.[.[.{.{.{.$X|.{.{.*X{.{.{.B.3 > 0X                                                                                                                                                                                                                                                                                                                                                                        ",
"                                                                                                                                                                                                                                                                                                                                              VXG 4 B.@X(./.$X$X|.&X{.^.{.|.[.[.|.^.^.!.^.}.[.^.^.^.[.[.[.U.T.[.W.W.[.T.!.^.[.[.'.!.^.[.[.[.!.!.!.[.[.!.!.!.!.!.!.!.].].T.!.[.[.!.U.!.[.!.!.!.].[.^.!.T.T.!.!.!.T.'.'.H.m + < M.W.T.~.I.!.'.'.].[.[.'.].'.'.[.[.[.[.Y.R.I.U.T.!.}.[.[.XX[.[.XX}.T.T.T.W.^.}.^.U.^.{.{.^.^.{.{.{.{.{.{.{.*XK.m 4 0X                                                                                                                                                                                                                                                                                                                                                                        ",
"                                                                                                                                                                                                                                                                                                                                                Y 4 B.;X@X/./.$X/.{.{./.{.|.[.[.{.^.^.^.}.^.^.}.|.|.[.^.^.T.T.^.T.T.T.[.}.[.XXXX}.}.'.!.[.^.!.^.!.!.[.!.!.[.!.!.[.[.XXXX!.].}.!.T.U.!.!.T.[.[.!.[.[.!.~.!.T.T.!._.'.].Q.N ; < M.).'.~.~.T.!.'.[.'._._.'.'.'.!.'.'.T.T.U.^.I.U.[.^.^.[.[.[.}.XXXX[.^.W.^.^.^.^.U.[.|.{.W./.{.{.{.{.{./.{.*XK.m 1 0X                                                                                                                                                                                                                                                                                                                                                                        ",
"                                                                                                                                                                                                                                                                                                                                                Y 1 M.@X/././.$X{.{.{.{./.|.{.|.[.^.!.^.}.}.}..X^.^.[.[.T.U.T.^.[.oXT.!.}.[.!.T.!.}.!.!.!.!.[.}.!.!.}.XXXXXX[.[.!.[.}.}.!.!.^.!.T.T.^.'.T.'.].].[.[.!.!.T.T.!.!.].].].Q.A ; < M.).'.!.!.T.T._.'.'.T.T._.'.U.!.!._.T.T.!.^.T.!.}.^.^.[.XX^.[.!.!.}.[.W.W.^.[./.^.[.{.{./././.{.{.*X*X*X*X*XK.m 1 9X                                                                                                                                                                                                                                                                                                                                                                        ",
"                                                                                                                                                                                                                                                                                                                                                Y 1 M.)././.{.{.{.(.{.{./.{.{.{.[.^.^.[.}.}. X X!.!.!.!.!.!.[.}.}.[.T.T.XX'.T.I.T.[.].!.~.!.[.XX!.!.!.XX}.!.!.[.!.!.[.!.!.!.!.!.!.!.[.].J.T.XX'.[.!.!.~.T.T.!.!.].].].Q.N + n V.[.].XX!.!.'.'.'.!.T.T._.!.XX^.'.!.T.!.^.^.T.[.}.^.[.XX}.W.^.^.[.[.^.[.[.[.[././.^.}./.)././.[.|.$X$X$X$X$XK.m 1 9X                                                                                                                                                                                                                                                                                                                                                                        ",
"                                                                                                                                                                                                                                                                                                                                                Y 4 B.$XQ.@X$X{.|.{.{.{./.{./.).[.[.[.}.[.XX[.].^.^.T.T.T.!.[.XXXX[.T.'.XX'.].].T.!.T.Y.I.!.!.[.[.~.~.].[.[.}.!.!.^.!.U.~.!.!.!.!.!.[.[.Y.'.XX[.^.!.~.T.T.T.!.!.`._.`.G.N ; n V.^.'.].!.XXXX].'.T.T.T.!.[.[.XX[.'.!.!.'.!.T.[.}.[.[.}.}.^.^.T.^.}.}.}.[.}.[.^.^.^./.^.E./.).{.|.$X$X$X$X$XL.m 4 9X                                                                                                                                                                                                                                                                                                                                                                        ",
"                                                                                                                                                                                                                                                                                                                                                Y 1 N.#X#X@X@X/.{.{.[.{.{./.^.W./.^.^.^.}.}.[.XX!.T.!.[.~.T.!.!.[.[.T.[.[.[.[.XX!.[.T.T.T.!.^.[.XX^.!.!.[.[.}.}.}.}.!.~.!.Y.^.!.^.^.[.[._.'.XXXX}.[.!.T.!.!.T.T.T.'.].).A ; m V.).].!.!.XX}.].[.^.!.!.!.[.T.].XXXX!.U.[.!.!.!.XX[.T.'.[.!.T.T.T.!.XXXX].!.XX{.[.^.^.).^.{.{.{.{.|.{.{.$X@XB.3 > 9X                                                                                                                                                                                                                                                                                                                                                                        ",
"                                                                                                                                                                                                                                                                                                                                                Y 1 N.)././.*X/.{.|.{.[././.).).).W.^.^.[.}.^.[.^.T.T.[.[.!.[.}.!.[.!.T.!.'.T.!.!.'.'.'.T.T.!.^.XX^.!.!.!.!.^.^.^.^.!.!.!.~.!.!.^.[.[.[.'._.T._.[.'.'.!.!.!.T.T.T.Y.Y.).A ; n V.E.T.Y.Y.].XX!.!.T.!.!.!.!.!.T.T.T.[.[.[.^.!.!.'.!.[.XX_.T.!.!.T.[.XXXXXX!.[.}.[.^./.{./.{./.^./.{.{././.@XA.3 > 9X                                                                                                                                                                                                                                                                                                                                                                        ",
"                                                                                                                                                                                                                                                                                                                                                Y 1 B.@X/./.*X{./.{.{.{.[.^.^.^.).W.^.^.[.[.^.[.[.!.!.XX!.T.!.!.T.T.[.^.!.!.T.!.!.!.XX[.!.T.!.!.^.^.!.!.!.!.!.!.!.!.!.!.!.!.!.'.'.'.[.[.'.T.T.T._.`.'.'.'.'.T.T.T.Y.+XQ.N ; m V.E.T.Y.I.T.'.!.T.T.!.!.!.!.[.!.!.U.!.XX[.!.!.!.T.!.^.XX_.T.!.^.T.XX!.T.T.!.^.^.[.^.{.{.{./.).)./.{./.).).@XL.m > 9X                                                                                                                                                                                                                                                                                                                                                                        ",
"                                                                                                                                                                                                                                                                                                                                              VXG 3 B.*XQ.{.$X|.).(.{.{.{.^.^.W.^.).^.[.}.[.!.[.!.!.!.'.!.T.!.[.^.T.T.T.^.^.!.^.^.!.[.'.[.T.T.!.!.^.[.!.!.!.!.!.!.T.I.~.T.!.!.XX'.'.[.[.T.T.T.T.'._.`.T.'.'.T.T.T.!.`.G.M ; m V.W.`.T.Y.I.!.T.I.!.T.T.T.!.!.!.[.!.!.[.!.U.!.'.!.[.T.].[.T.^.^.^.^.T.U.U.^.^.^./.W.^.{.{.).)./.{.{./.W./.@XG.3 > 4X                                                                                                                                                                                                                                                                                                                                                                        ",
"                                                                                                                                                                                                                                                                                                                                              MXG 3 B.*X@X/./.)./.{..X{.[.|.{.^.[.{.[.^.}.}.[.!.!.^.[.XX}.^.!.^.T.[.!.T.T.!.^.^.[.^.!.!.XX}.^.U.T.!.[.[.}.^.!.!.Y.Y.Y.!.!.~.!.].'.T.T.T.'.T.U.T._.`.`._.'._.!.!.T.Y.Y.Q.N ; m V.W.T.T.T.T.U.I.T.'.Y.T.[.!.!.!.!.^.!.!.!.U.U.!.[.[.T.[.[.W.U.!./.T.!.^.^.^.^.^.{.^.[.|.{.).)./.).W.{./././.M.3 4 4X                                                                                                                                                                                                                                                                                                                                                                        ",
"                                                                                                                                                                                                                                                                                                                                              MXV : B.$X@X/./././.{.{.^.^.{.}.^.^.^.^.^.!.[.[.!.!.!.[.'.}.^.T.T.T.[.[.T.!.!.!.!.[.T.T.'.XXXXXX!.T.!.[.XX}.[.!.^.].].!.[.!.Y.Y.!.XXY.T.T.T.T.T.`.`.`._._.T.T.T.T.'.`.`.Q.B ; m V.W.T.T.T.T.T.T.T.U.!.U.T.!.!.!.[.!.!.T.!.T.T.T.T.^.^. X}.T.U.T.[.T.T.W.U.^.^.^.[.W.^.{.^.E.W./.{.{.$X{./.%XM.3 4 4X                                                                                                                                                                                                                                                                                                                                                                        ",
"                                                                                                                                                                                                                                                                                                                                              MX6 < B.*X*X{././.{.|.[.}.^.[.}.[.^.).^.^.^.!.!.T.!.[.[.'.!.T.U.U.Y.[.^.!.^.!.!.T.^.T.T.'.[.'.!.T.!.!.!.'.!.T.T.T.^.^.].!.T.!.~.T.T.[.T.T.U.T._._._.].`.R.Y.Y.T.'.'.`.].G.B ; m V.^.!.Y.Y.!.T.!.T.Y.Y.T.'.T.T.T.^.!.T.~.!.T.U.U.Y.T.}.{.[.W.T.T.T.T.T.W.U.[.^.U.U.^.W.^.^.W./.)./.{..X{.$X*XM.3 4 4X                                                                                                                                                                                                                                                                                                                                                                        ",
"                                                                                                                                                                                                                                                                                                                                              MX6 < B.&X*X{.{.{.{.^.^.}.|.{.[.[.^.E.^.[.T.U.U.!.^.[.[._.[.U.R.R.U.[.[.^.[.!.T.T.!.T.T.!.XX'.T.Y.U.T.!.'.!.T.T.~.~.!.!.Y.Y.!.!.~.Y.[.'.T.!.'.'._.`._._.U.U.T.T.'.'.Y.'.H.B ; M V.^.`.Y.Y.T.!.!.T.Y.Y.!.!.T.R.I.U.T.U.I.~.U.R.U.T.Y.[.[.U.W.^.T.!.T.W.[.^.[.T.W.[.[.^.[.^.{.{./.{.{.{.{.%X#XN.3 4 4X                                                                                                                                                                                                                                                                                                                                                                        ",
"                                                                                                                                                                                                                                                                                                                                              MX6 < B.*X/./.{.{.{.W.W.^.^.^.W.W.^.W.T.^.^.T.^.^.[.!.!.T.Y.R.R.R.T.T.'.'.!.!.!.!.!.T.T.'.XX'._.!.!.!.^.^.T.!.~.~.!.T.Y.Y.Y.~.Y.'.'.'.'.T.T.!.!.!.T.T.U.T.T.Y.Y.Y.`.Y.`.H.B + M V.T.Y.Y.`.Y.T.!.T.T.T.!.U.I.U.Y.R.T.!.~.T.T.T.T.T.U.U.U.U.T.oXT.T.oXT.W.[.[.U.^.|.}.W.{.{.{.{./.{.{.{.*X*X@XB.3 1 4X                                                                                                                                                                                                                                                                                                                                                                        ",
"                                                                                                                                                                                                                                                                                                                                              MX6 < B././.)././././.)./.).W.^.^.^.W.W.^.[.[.^.!.!.T.T.T.R.T.U.R.Y.T.T.T.T.T.!.!.T.T.T.'.'.`.T.!.[.^.T.T.T.!.~.~.!.Y.~.~.!.Y.Y.'.'.T.Y.T.Y.U.T.!.!.T.U.I.T.Y.Y.T.'.`.`.H.B ; M H.Y.].`.`.Y.T.T.T.T.T.!.T.T.T.T.Y.[.[.!.T.U.U.T.!.T.T.T.T.[.W.T._.oXU.U.U.[.W.^.[.[.[.|.{.W.W.)./.{././.@X@XB.3 1 4X                                                                                                                                                                                                                                                                                                                                                                        ",
"                                                                                                                                                                                                                                                                                                                                              MXV < B./.).).).)././././.W.W.^.[.^.[.^.W.}.}.^.U.^.^.!.!.!.[.!.I.U.U.U.U.T.T.T.!._.T.Y.`.`.Y.T.!.[.!.T.I.I.!.!.Y.Y.~.!.~.T.T.Y.T.!.T.T.T.Y.Y.T.!.T.T.T.R.U.U.U.T.XX'.'.V.m ; M H.U.].`.T.!.!.T.Y.T.T.!.T.T.!.Y.T.[.!.T.T.U.T._.'.'.T.T.W.W.T.[.XX[.W.W.W.U.^.^.T.W.W.{.^./.W./.{.{./.Q./.@XB.3 1 9X                                                                                                                                                                                                                                                                                                                                                                        ",
"                                                                                                                                                                                                                                                                                                                                              MXZ < B./././.)./.).{.{./.W.W.[.|.^.{.[.T.T.^.!.!.^.^.!.!.T.T.T.I.T.T.U.U.T.T.!.^.!.T.U.Y.Y.Y.T.T.!.T.T.Y.I.!.!.Y.Y.!.'.!.T.T.T.!.!.T.T.!.!.!.'.[.U.W.T.U.U.U.U.T.Y.Y.`.H.m ; M V.U.`.Y.T.I.T._.`._.T.'.T.T.T.Y.T.'.T.T.U.T.T._._._.T.T.W.R.W.[.!.T.T.W.W.W.^.W.^.^.W.^.{.W.Q./.{./././.*X@XB.3 1 Z.                                                                                                                                                                                                                                                                                                                                                                        ",
"                                                                                                                                                                                                                                                                                                                                              VXG 1 B.@X@X/.).).@X{.{.{././.{.{.^.^.{.[.T.W.^.!.U.U.^.T.T.'.'.T.[.W.U.U.^.T.T.R.T.Y.T.U.T.!.!.!.T.T.T.!.T.T.!.'.Y.T.Y.Y.Y.T.T.T.T.T.T.U.U.T.T.T.T.T.T.T.T.U.U.T.Y.Y.`.G.B ; M H.W.`.R.U.T.T.`.`._.'.T.Y.!.T.U.T.T.T.^.[.[.]._._.U.U.T.W.W.^.[.^.T.T.W.W.W.W.W.^.^.W.{.^.W./.{.{.{.{.{.{.*XB.3 1 Z.                                                                                                                                                                                                                                                                                                                                                                        ",
"                                                                                                                                                                                                                                                                                                                                              VXG 4 B.@X)./.).).).).).).^././.{.).^.^.^.W.W.T.!.T.^.^.T._.'.!.Y.U.U.U.R.U.T.T.U.I.I.T.T.'.'.^.[.[.!.U.T.T.T.!.I.I.T.T.Y.Y.T.T.Y.T.'.'.T.T.T.!.T.T.U.T.^.[.U.U._.Y.`.`.H.m + M V.U.Y.Y._.T.T.`.`.Y.U.T.T.T.T.U.I.R.R.U.U.[.].oX_.R.T.T.U.T.^.^.T.T.W.U.U.W.W.W.^.[.^.W.W.W./.{.{.^././.{.{.B.3 1 4X                                                                                                                                                                                                                                                                                                                                                                        ",
"                                                                                                                                                                                                                                                                                                                                              VXG 1 B.@XQ.Q.).).).E.).).^.^.).).).^.T.W.W.W.T.W.!.!.U.T.'.'.`.U.T.oXoXT.[.!.T.!.I.U.T.!.'.T.T.!.^.!.T.!.I.T.!.I.I.!.!.!.I.T.T.Y.`.].XX].'.T.T.T.T.I.T.^.!.T.U.T.I.T.!.V.m + M V.U.Y.`.T.Y.U.`.'.'.'.Y.Y.T.T.T.U.U.U.U.T._._.'.'.R.T.W.U.U.^.^.T.T.W.U.U.W.W.W.^.W.W.^./.W./.W.).W.^.).{.{.G.m 1 4X                                                                                                                                                                                                                                                                                                                                                                        ",
"                                                                                                                                                                                                                                                                                                                                              VXG 1 B.@X/./.Q.E.).).).^.^.^.W.E.^.^.T.U.U.U.U.^.!.T.U.U.T.T.`._.T._.'.[.'.'.T.!.I.T.U.!.[.T.Y.Y.'.XXT.T.T.~.~.I.U.!.!.T.R.T.!.!.Y.`.'.'.`.T.T.T.T.T.T.T.Y.T.U.R.I.I.Y.H.m ; M H.U.Y.'.`.R.I.T.'.Y.'.Y.R.T.!.T.U.^.^.T.U.T._.'.'.U.Y.T.T.U.^.^.T.T.oXT.U.W.W.W.[.W.).)./.)./.W.^.^.^.Q./.#XB.3 > 4X                                                                                                                                                                                                                                                                                                                                                                        ",
"                                                                                                                                                                                                                                                                                                                                              VXG 1 N./././.).).(.(././.^.^.W.W.{.{.W.U.U.I.I.U.W.T.T.T._.'.!.'._.oXT.T.[.[.[.[.Y.I.T.[.!._.T.Y.`.XX[.T.!.T.T.I.I.T.T.Y.Y.Y.T.T.`.Y.T.T.`.`._._._.U.U.U.U.Y.Y.U.U.~.Y.H.B ; B H.T.'.`.Y.Y.T.'.!.'.Y.I.Y.'.[.[.^.W.[.[.T.T.T.U.U.T._.T.U.U.T.[.!._._.oXW.{.oXW.oXW.W.W.W.W.W.E.U.W.).).#XA.N ; > 4X                                                                                                                                                                                                                                                                                                                                                                        ",
"                                                                                                                                                                                                                                                                                                                                              VXG 1 B.@X/./.).)././.).).^.^.W.W.{.{.^.T.W.U.I.I.U.T.^.[.T.'.[.XX_.oXT.T.[.[.[.[.T.Y.T.!.!.'.'.`.'._.U.I.U.!.!.U.!.T.U.T.T.Y.I.!.].`.T.U.Y.Y.Y.`._.Y.T.U.I.I.Y.T.T.~.Y.H.B ; m V.^.'.Y.`.U.T.!.Y.Y.Y.Y.!.[.[.T.T.U.T.T.T.T.T.T.U.T.T.Y.U.U.T.!.[.Y.`.W.W.^.W.W.oXW.W.W.W.W.W.W./.@X#XK.n.3 + + 2 4X                                                                                                                                                                                                                                                                                                                                                                        ",
"                                                                                                                                                                                                                                                                                                                                              BXG 1 B.#X@X@X/.).).E.U.H.^.^.[.[.{.[.^.W.W.^.!.T.U.U.T.U.T.'.[.[.T.T.T.T.^.[.[.^.T.T.T.!.T.T.`.`.'.T.I.I.I.T.!.T.!.T.U.U.T.U.I.Y._.`.U.Y.U.Y._.`.`.R.Y.U.R.Y.'.'.T.Y.`.H.B ; m V.^.Y.`.'.Y.T.T.U.I.I.Y.T.T.T.T.T.R.U.T.T.U.U.T.T.W.W.T.T.U.U.T.'.U.T.W.W.W.W.W.oXoXW.W.W.oXW.W.@XK.m.B ; ; ; + > 4X                                                                                                                                                                                                                                                                                                                                                                        ",
"                                                                                                                                                                                                                                                                                                                                              MXG : N.#X#X#X/.).).Q.U.U.U.^.{.[.^.W.W.T.U.^.^.^.U.!.^.!.!.!.!.!.T.T.T.T.T.^.^.U.T.T.!.!.Y.Y.T.'.`.'.T.T.U.U.T.!.T.T.U.R.R.T.I.R.Y.U.I.Y.!._.[.[.`.R.U.I.I.T.'.!.I.I.].E.B ; m B.T.T.T.T.R.Y.T.T.!.T.U.U.T.T.T.U.R.U.W.^.U.U.W.W.^.W.W.T.T.T.U.T.T._.W.R.W.W.W.oXW.W.W.Q.E.#XB.M.M , ; , M S 1 > 4X                                                                                                                                                                                                                                                                                                                                                                        ",
"                                                                                                                                                                                                                                                                                                                                              BXG : N./././.Q.)././.).E.).[.{.[.^.W.^.[.[.^.T.^.[.[.[.T.T.!.!.!.^.^.!.U.U.U.T.[.!._.'.!.T.!.T.!.[.'.T.U.U.T.T.!.!.!.T.I.Y.Y.U.U.T.T.T.T.!.[.XX`.`.Y.U.U.Y.Y.Y.Y.Y.Y.].E.B ; m G.T.Y.!.Y.Y.]. XXX[.!.T.U.T.T.T.T.W.^.W.U.W.W.T.U.T.T.U.^.T.T.T.U.U.Y.T.T.oXT.R.T.T.).Q.G.N.A m ; ; , M m.G.B.m 1 Z.                                                                                                                                                                                                                                                                                                                                                                        ",
"                                                                                                                                                                                                                                                                                                                                                Y 1 N.#X@X(.)./.{./.).^.).^.^.W.^.W.^.[.^.W.T.^.!.^.^.^.!.!.!.^./.[.'.T.W.U.T.T.[.XX'.T.U.T.I.T.!.T.Y.T.T.T.T.T.^.^.!.Y.Y.U.U.T.[.[.[.'.T.!.'._.`.`.T.Y.Y.Y.Y.Y.T.Y.].E.N + n N.Q.!.!.T.`.].].].T.T.T.!.T.T.T.T.W.W.W.U.U.U.U.R.U.T.U.T.T.T.T.Y.U.T.W.W.W./.E.Q.G.M.b.C < ; + , B n.B./.oXG.m 1 Z.                                                                                                                                                                                                                                                                                                                                                                        ",
"                                                                                                                                                                                                                                                                                                                                                Y 1 S #X@X/././.{.).W.^.W.^.W.T.).)./.[.^.T.T.^.!.!.^.^.!.!.^.^.^.^.'.T.U.U.U.U.[.[.T.U.Y.T.I.U.!.U.T.!.T.'.!.U.T.U.T.U.T.T.U.U.T.!.!.!.!.U.T.'.].`.T.Y.Y.!.!.Y.Y.Y.XXQ.N + + N N.H.).'.].].].].Y.I.Y.!.!.T.T.T.T.T.T.U.U.U.U.R.T.!.U.T.U.T.Y.T.[.W.E.G.B.B.n.A B : ; ; , n C b.V.E.{.{.{.B.m 1 Z.                                                                                                                                                                                                                                                                                                                                                                        ",
"                                                                                                                                                                                                                                                                                                                                                I > 3 n.K.Q.).).E.).)./.W.^.^.T.E.)./.^.T.T.T.^.^.!.!.!.!.T.!.!.T.!._.`.R.U.U.I.T.!.T.T.U.T.U.T.}.!.T.Y.!.[.!.T.!.U.T.T.T.T.U.U.T.T.!.'.!.U.T.!.].].'.T.I.Y.'.!.Y.T.^.B.3 X + ; < C b.C.V.H.W.^.).E.E.).Q.W.W.W.E.W.U.U.U.U.U.U.W.).Q.G.Q.G.H.V.V.b.A C B < , ; ; ; < M n.M.V.oXoX[.{.{./.B.3 1 Z.                                                                                                                                                                                                                                                                                                                                                                        ",
"                                                                                                                                                                                                                                                                                                                                                I 2 + : A B.).G.U.).).W.)./.[.^.).).W.W.^.^.T.T.!.!.!.T.T.U.T.T.T.!.T.'.T.W.T.U.T.U.I.I.Y.Y.I.I.T.T.T.U.T.^.!.'.T.T.[.[.!.T.T.T.T.!._.U.!.!.U.!.~.].].].R.U.'.~.Y.E.M.m + X ; < , ; ; : < B A S S n.N.B.V.H.G.G.E.G.H.H.G.V.V.V.B.N.N.S A D M m : ; ; ; ; , n M C b.V.V.E.E.W.[.{.W.W.{.{.G.m 4 Z.                                                                                                                                                                                                                                                                                                                                                                        ",
"                                                                                                                                                                                                                                                                                                                                                I 2 : + ; M n.B.G.G.Q.W./.).^.|.^.W.U.!.^.^.T.T.!.!.!.T.T.T.T.T.!.!.T._.T.!.W.U.T.U.Y.Y.Y.Y.T.I.U.T.T.I.T.[.'.'.T.!.[._.T.T.T.T.T.T.Y.Y.T.!.!.~.~.`.`.Y._.R.W.E.H.b.m ; X + < n.S C n ; ; ; ; ; , , < n m M C C A A C A C M M m n n , ; ; + + ; ; < m N A A M.V.E.[.XX]._.T.W.{.W.W.W.{.{.G.m > Z.                                                                                                                                                                                                                                                                                                                                                                        ",
"                                                                                                                                                                                                                                                                                                                                                I 1 N C , ; ; m N.L.@X^./.{.{.{.[.U.T.!.^.^.!.T.!.!.T.T.T.'._.T.'.^.!.!.!.T.T.T.U.U.T.T.Y.T.T.I.T.T.U.I.U.T.U.U.T.!.[.'.T.T.T.T.T.T.`.`.Y.`.].!.~.~.`.`.Y.E.V.n.M ; ; ; + + m B.G.H.V.b.b.C C M m n n , , ; ; ; ; ; , , ; ; , , , n n n m M A b.C.V.V.H.H.H.U.^.T.'.XXXXT.oX[.{./././.|.*XK.B > Z.                                                                                                                                                                                                                                                                                                                                                                        ",
"                                                                                                                                                                                                                                                                                                                                                U 1 A A.n.m ; + : M M.#X#X@X/.[.W.T.T.^.[.[.^.W.W.!.T.T.[.XX_.U.!.^.!.[.T.U.U.T.U.T.T.T.T.T.T.I.T.T.T.T.U._.U.Y.T.!.'.'.Y.U.T.T.[.T.`.XX`.T.'.'.Y.!.^./.G.M.M : + + n A 3 + m V.R.Y.].Y.R.    V.V.M.m.n.n.A C C C C C C C A A b.m.m.M.V.V.V.R.T.Y._.`.Y.'.'.'.!.T.~.XX[.oX{.[.^.{./.{.&X&XB.m > U                                                                                                                                                                                                                                                                                                                                                                         ",
"                                                                                                                                                                                                                                                                                                                                                U 1 S #XQ.G.n.m , + : N n.K.#X).U.T.T.T.[.!.^.^.[.T.W.T.U.[.!.'.T.T.^.T.T.I.T.Y.I.T.!.!.T.T.T.T.T.T.T.T.U.Y.T.T.T.T.'.XXT.R.I.Y.T.'.T.[.[.'.Y.`.`.^.Q.M.A : + ; < C C.B.B ; M V.T.`.`._.Y.Y.R.R.W.W.R.R.W.E.H.V.R.R.V.V.V.H.U.W.W.W.W.W.W.R.R.Y.Y.Y._.T.Y._._.T.!.!.[.[.W.W.W.W./.)./.$X{.B.< > Z.                                                                                                                                                                                                                                                                                                                                                                        ",
"                                                                                                                                                                                                                                                                                                                                                U 1 A #X^.[./.B.A m ; + : M S H.G.).W.^.!.!.^.[.^.T.^.U.W.[.!.'.I.R.T.T.U.U.U.I.!.!.'.!.T.T.T.T.^.T.I.Y.Y.Y.T.!.T.T._.'.!.U.T.Y.T.[.'.!.^.U.E.Q.H.C.A < ; ; : M b.J.`.T.M ; M V.oX`.`.].Y.`.Y.T.T.T.`.`.`._.`.`._.`.Y.R.Y.Y.Y.Y.Y.Y.Y.oXoXT.U.R.Y.U.W.T.[.[.[.[.^.!.^.W.W.W.^.^.W.W.).{.*XB.< 1 Z.                                                                                                                                                                                                                                                                                                                                                                        ",
"                                                                                                                                                                                                                                                                                                                                                U > A #X/.{.{./.Q.C.b.M , ; + 3 A N.G.E.^.[.[.^.W.W.^.U.T.T.T._.T.U.U.!.T.!.T.Y.!.!.[.!.U.T.T.!.~.Y.Y.T.T.T.T.!.T.T.T.T.!.~.'.Y.T.[.'.T.E.H.N.S B : + ; < M b.H.U.Y.`.E.M ; M V.T.`.Y.'.T._.Y._.W.oX_._.`.`.`.`.`._.Y.U.T.T.!.T.T.Y.Y._.oXoXT.U.T.U.W.W.^.!.!.[.^.!.T.T.W.W.T.U.W.W.W.{.{.B.< > Z.                                                                                                                                                                                                                                                                                                                                                                        ",
"                                                                                                                                                                                                                                                                                                                                                U > A #X/.{.W.W.T.W.E.V.n.B : + ; < C b.V.G.#XQ.E.W.^.T.R.U.Y._.[.T.W.T.T.!.T.U.T.!.'.!.U.T.T.!.U.T.T.T.!.!.!.'.`.`.Y.Y.U.!.[.^.Q.G.V.V.A M < ; + ; : m b.V.U.J.J.Y.`.V.N ; M V.U.'.T.T.T.[.T.'.W._._._._.T.T.T.R.R.U.[.U.T.'.T.'.T.T._.U.W.oXT.T.U.W.W.T.T.~.!.T.W.T.T.W.[.^.U.W.W./.|.*XB.< 1 D.                                                                                                                                                                                                                                                                                                                                                                        ",
"                                                                                                                                                                                                                                                                                                                                                U 4 A K./.W.W.).{.W.U./.Q.V.C.C n ; ; ; < N S N.G.Q.W.T.U.'.`.T.T.T.U.R.U.I.I.I.!.!.!.Y.Y.U.T.T.T.Y.Y.Y.'.T.T.'.Y.Y.Y.'.^.E.Q.V.M.A B < ; ; ; , B A C.V.H.I.T.Y.T.'.`.V.B ; M H.T.Y.Y.T.U.U.T.[.T.T.'.`.[.[.W.T.R.R.T.T.T._._.Y.`.'._.T.T.U.Y.T.^.^.T.U.U.U.U.U.U.U.W.}.^.T.T.!.^.{.{./.*XB.3 1 D.                                                                                                                                                                                                                                                                                                                                                                        ",
"                                                                                                                                                                                                                                                                                                                                                | 1 N K.Q.W.)./.{.^.[.^.W.W.oXE.V.A B , ; ; ; n C A C.C.G.#X).).H.E.E.E.R.H.R.U.!.!.T.U.T.T.W.W.W.U.U.I.E.Q.).).Q.G.V.V.C.A C m < , ; ; , m A b.V.R.Y.~.Y.Y.Y.Y.Y._.].H.m ; C E.T.Y.Y.T.!.T.T.[.T.[.T.T.W.R.U.T.T.R.Y.T.Y.Y.T.U._.[.oX_.T.Y.Y.T.^.^.U.R.U.U.U.U.U.U.W.[.XX'.T.U.^.^././.{.B.3 > D.                                                                                                                                                                                                                                                                                                                                                                        ",
"                                                                                                                                                                                                                                                                                                                                                D.1 M L.#X/.W./.[.R.U.W.W.[.[.W./.G.V.C.b.C n , ; ; ; : m N S N.B.B.B.V.H.H.G.G.Q.E.E.E.E.G.G.G.G.H.H.V.B.M.m.S A M 3 < ; ; ; , , n C A b.V.V.J.U.T.I.R.I.Y.Y.Y.Y.`.Y.V.m ; C E.U.Y.Y.!.!.!.[.[.T.'.Y.Y.T.R.Y.Y.!.Y.I.T.Y.Y.U.T.Y.oXoXoXT.T.T.W.T.T.T.R.U.U.U.U.U.W.^.^.!.T.T.W.W.^.^.W.oXB.m > U                                                                                                                                                                                                                                                                                                                                                                         ",
"                                                                                                                                                                                                                                                                                                                                                D.4 N K.#X/.{.{.).W.U.W.W.W.W.W.W.U.U.U.W.E.m.n.M < : ; ; ; ; , m m M M M A A A A A A A A A A C M M M M m n , ; ; + + ; ; < m C m.V.V.V.J.I.I.J.  R.R.Y.Y.T.Y.Y.Y.`.`.V.m ; M V.R.Y.Y.T.'.T.T.[.[.U.T.'.T.T.I.U.T.T.U.T.T.U.T.'.R.R.T.T.T.U.Y.oXU.T.U.R.U.U.U.U.U.W.W.W.[.T.U.W.W.).).W.Q.K.B > I                                                                                                                                                                                                                                                                                                                                                                         ",
"                                                                                                                                                                                                                                                                                                                                                4X1 B K.Q.).).E./.E.U.W.W.R.U.^.W.W.W.W.U.W.W.Q.E.V.C.b.A C m n , , , ; ; ; ; ; ; ; ; ; ; ; ; ; ; ; ; , ; , < n n m C A b.C.V.H.E.R.R.R.R.R.Y.T.'.R.Y.`.U.T.T.'.Y.`.].H.m ; M H.R.Y.Y.Y.Y.I.I.T.T.T.`._._.T.R.R.I.T.T.T.T.T.T.T.Y.R.R.R.R.U.Y.T.U.R.R.T.U.U.U.U.U.W.W.W.[.W.R.U.W.W.R.{.#XN.< > I                                                                                                                                                                                                                                                                                                                                                                         ",
"                                                                                                                                                                                                                                                                                                                                                4X1 m K.#X).).E.).U.E.).W.W.^.W.^.E.U.U.U.T.'.`.XX]._.Y.R.V.V.M.m.n.A M m m m < n m m m m m m B B B M A S n.m.M.V.V.V.R.R.Y.`.Y.Y.Y.Y.U.U.U.Y.T.Y.Y.T.Y.R.Y.Y.Y.Y.`.].V.m + M V.R.Y.Y.Y.Y.T.T.T.T.U.Y._._.T.R.R.I.T.T.T.T.T.T.T.T.Y.Y.U.U.U.Y.T.W.U.T.W.U.U.U.U.W.W.W.^.^.W.U.E.E.Q.#XB.n.m + > D.                                                                                                                                                                                                                                                                                                                                                                        ",
"                                                                                                                                                                                                                                                                                                                                                4X1 m L.#X/./.W.E.E.E.W.E.^.W.U.W.U.U.R.I.U.T.Y.!.T.Y.Y.R.U.T.U.U.E.H.H.V.V.V.V.V.V.V.V.V.V.V.V.V.V.V.J.E.E.E.W.W.R.R.U.U._.T.R.R.T._._.T.T.U.U.Y.T.T.Y.U.Y.Y.I.I.Y.`.H.m ; M H.I.Y.Y.T.T.T.T.U._.`.T.'._.T.R.U.T.T.T.U.U.U.U.U.U.U.U.R.R.U.U.U.[.T.U.T.U.U.U.U.W.^.W.^.^.U.W.Q.G.B.S m : X o 6 nX                                                                                                                                                                                                                                                                                                                                                                        ",
"                                                                                                                                                                                                                                                                                                                                                D.1 m K.#X/././.).W.E.U.U.^.U.U.R.U.U.U.I.U.T.T.I.I.Y._.`.T.Y.J.R.Y.Y.Y.].`.`.].Y.Y.`.`.Y.Y.Y.Y.Y.Y.Y.Y.Y.Y.U.U.Y.R.R.U.T.T.T.T.U.Y.Y.Y.T.Y.I.R.Y.T.!.T._.`.T.I.I.I.Y.V.m ; M H.U.Y.!.!.T.Y.I.Y.Y.Y.Y.'._.Y.U.R.T.T.T.R.U.U.Y.U.U.W.oXT.R.R.R.R.^.U.U.U.U.U.U.U.U.E.Q.Q.Q.G.B.m.N < + X X o o 2 0XIX                                                                                                                                                                                                                                                                                                                                                                      ",
"                                                                                                                                                                                                                                                                                                                                                D.1 m G.#X{.*X).Q.E.W.W.).^.W.U.U.U.U.T.I.R.T.!.U.Y.Y._.`.R.R.Y.Y.Y.Y.Y._._.`.Y.J.Y.`.`.Y.Y.Y.!.].~.Y.Y.Y.Y.Y.T.R.R.I.Y.!.T.Y.Y.R.R.R.Y.Y.Y.U.Y.T.T.T.T.`.`.T.T.!.Y.Y.V.m ; C G.U.Y.Y.].Y.Y.Y.Y.Y.`.U.U.T.R.Y.!.Y.Y.U.Y.R.R.T.T.W.T.T.U.R.R.R.`.T.I.U.U.R.U.U.U.^.).G.B.n.N : + X X X X . . X # f 4XVX                                                                                                                                                                                                                                                                                                                                                                    ",
"                                                                                                                                                                                                                                                                                                                                                D.> m G.#X/.Q.Q.W.W.W.W.W.W.W.^.!.T.U.T.U.I.T.!.'.T.`._.`.Y.T.[.`.`.`.Y.'.`.`.Y.J.Y.Y.Y.T.T.I.T.T.T.T.Y.R.Y.T.T.Y.Y.T.~.T.I.Y.T.U.R.U.T._._.T.U.T.T.T.Y.`.`.`.T.T.Y.Y.V.3 + n A B.G.G.U.U.Y.Y.Y.Y.`.Y.U.'.Y.Y.T.T.U.U.U.R.U.T.T.T.T.T.Y.U.Y._._.U.U.U.U.E.G.Q.B.V.n.A m : X X . . . . . . . X o @ 6 U uX                                                                                                                                                                                                                                                                                                                                                                  ",
"                                                                                                                                                                                                                                                                                                                                                D.> m G.#X).)./././.^.^.U.W.W.[.[._.T.T.[.T.U.T.!.T._.[._.`._.'._.T.T.Y._.`.T.T.Y.Y.Y.Y.R.Y.Y.Y.Y.T.Y.Y.Y.T.'.Y.Y.`.!.!.I.I.I.T.U.U.U.T.T.T.T.U.T.T.Y.Y.`.`.`.T.U.Y.Y.V.m + + ; m A n.M.H.J.Y.`.`.`.Y.Y.T.Y.Y.Y.Y.Y.Y.U.U.U.T._.Y.Y.Y.Y.T._.[.^.Q.G.G.B.N.S N m : + X X X X X X X X X X X X X X o # 7 G 7XIX                                                                                                                                                                                                                                                                                                                                                              ",
"                                                                                                                                                                                                                                                                                                                                                D.> 3 S.#X).)./././././.oXW.W.T.[.T.T.T.T.T.U./.U.U._.XX]._.T.U.T.U.U.Y._._.T.T.`.`.Y.Y.Y.!.Y.I.Y.Y.Y.Y.Y.'.'.Y.Y.T.T.!.~.I.I.Y.U.U.U.!.U.U.U.Y.T.Y.T.Y.`.`.`.T.Y.R.Y.V.3 X X X X + ; m C A V.E.E.G.G.G.G.E.E.E.U.U.U.E.E.E.Q.W.H.G.G.G.H.H.V.B.M.A M m < ; X X X X . . . . . X X X X X X X X X X X o @ f | MX                                                                                                                                                                                                                                                                                                                                                            ",
"                                                                                                                                                                                                                                                                                                                                                4X5 : D K.).E.U.W././.{.).W.U.U.oX'.T.T.U.J.U.U.T.T._.'.[.'.T.I.T.U.R.J.U.R.I.U.Y.T._._.'.'.T.T.T.T.T.Y.U.T._.T.Y.T.!.T.T.T.`.`.T.T.T.T.U.R.I.T.!.Y.Y.Y.Y.Y.`.T.`.`.].V.3 X . . . X X X + + m N B N A S n.M.N.B.B.B.B.H.B.B.M.M.n.n.A A N m < : + + X X X X X X X X . . . . X X X X X X X X X X X X X o # 2 F qX                                                                                                                                                                                                                                                                                                                                                          ",
"                                                                                                                                                                                                                                                                                                                                                MXG > : A G.#XH.E.).).W.).E.U.U.T._.T.T.U.I.U.U.U.T.T._.R.U.T.T.T.U.R.V.R.R.I.T.Y.Y.T.T.'.'.T.T.U.T.T.Y.U.T.T.'.R.U.T.U.Y.T._.`._.T.U.U.I.I.U.T.~.Y.Y.Y.Y.Y.Y.Y.[.T.[.M.: X X . . . . . X X + + X + + + : < < < 3 m m m m 3 < < : : + X X X X X X X . . . . . . X . . . . X X X X X X X X X X X X X X X . o = F qX                                                                                                                                                                                                                                                                                                                                                        ",
"                                                                                                                                                                                                                                                                                                                                                  0X6 # + B N.K./.W.W.W.!.T.T.T.Y._.!.T.T.U.!.U.U.T.T.T.T.T.T.T.T.W.T.T.R.R.U.T.T.R.Y.T.!.!.T.U.I.U.U.I.U.T.T.!.Y.Y.T.U.I.T.`.Y._.T.T.U.Y.T.Y.I.I.R.R.Y.Y.Y.Y.Y.Y.U.V.M X . . . . . . . X X X X X X X X X X X X X X X X X X X X X X X X X . X X X X . . X . . . . . . . . . . . X X X . X X X X X . . . . o # @ F 0X                                                                                                                                                                                                                                                                                                                                                      ",
"                                                                                                                                                                                                                                                                                                                                                  IX4X@ o X : A B.#X(.W.T.T.T.T.U.T.T.T.^.T.^.U.I.U.T.T.[.U.I.Y.oXU.U.U.U.R.R.Y.U.R.Y.T.!.T.T.Y.Y.U.U.I.T.T.T.T.`.Y.T.T.Y._.T.R.T.T.T.T.U.T.T.R.J.J.R.Y.`.Y.U.U.H.M.m + X . X . . . . . . . . X X X . . . . . . X X . . . o X . . . . X X . . . . . . . X . . . . . . . . . . . X X X . . . X X X X . . . . . o @ f 4X                                                                                                                                                                                                                                                                                                                                                    ",
"                                                                                                                                                                                                                                                                                                                                                    wX2 o X X X 3 S K.(.^.].'.T.U.W.^.W.U.W.T.R.I.~.I.I.T.U.R.T.Y._.Y.Y.'.U.Y.`.'.Y.Y.T.'._.R.R.Y.'.Y.Y.T.T.U.R.T.'.T.T.Y.Y.T.T.'.Y.R.T.Y.Y.T.T.Y.Y.R.Y.Y.T.).M.A : + X . . X X X X X . . . . . . . . . . . . . . . . . . . . . X X . . . . . . . . . . . . . . . . . . . . . . . . X X X X X . . . . . . . X X o @ f 4X                                                                                                                                                                                                                                                                                                                                                  ",
"                                                                                                                                                                                                                                                                                                                                                    4X7 o . . X X + M n.G.@X).E.W.W.T.U.U.T.T.I.I.U.U.U.U.W.'.Y.Y.T.T.T.T.Y.Y.T.'.Y.Y.Y.[._.Y.R.'.].Y.R.Y.U.R.R.U.T.U.Y.Y.Y.T.T.'.Y.R.Y.Y.Y.T.T.Y.I.I.H.G.V.A < + X X . . . X X X X X . . . . . . . . . . . . . . . . . . . . . . . . . . . . . . . . . . . . . . . . . . . . . . . X X X X X . . . X X X X . X X o @ f 4X                                                                                                                                                                                                                                                                                                                                                ",
"                                                                                                                                                                                                                                                                                                                                                  CXJ @ o X . . X X X + m S B.@XT.!.!.T.U.T.Y.I.U.U.U.T.U.R.U.R.Y.Y.T.Y.T.T.T.U.Y.Y.Y.Y.`.`.Y.J.].'.R.J.Y.Y.R.R.U.U.Y.I.`.Y.Y.U.T.Y.Y.Y.Y.`.T.Y.I.U.V.n.N : + + X . . . . . X X X X . . . . . . . . . . . . . . . . . . . . . . . . . . . . . . . . . . . . . . . . . . . . . . . . . . X X X X . . X X X X . . . . # @ f 4X                                                                                                                                                                                                                                                                                                                                              ",
"                                                                                                                                                                                                                                                                                                                                                  yXf # o X . . X X o X X + m A B.G.Q.Q.R.I.I.I.U.T.T.T.U.Y.R.Y.`.Y.Y.Y.T.[.[.U.R.Y.Y.Y.Y.Y.Y.J.'.Y.J.Y.Y.Y.R.R.U.U.Y.Y.`.`.Y.Y.R.R.R.U.U.W.E.H.V.b.M : X X X . . . . . . . . . . . . . . . . . . . . . . . . . . . . . . . . . . . . . . . . . . . . . . . . . . . . . . . . . . . . . X X X X . . X X X X . . . . o o @ f 7X                                                                                                                                                                                                                                                                                                                                            ",
"                                                                                                                                                                                                                                                                                                                                                  7X2 o X X . . X X . . X X X + < N n.B.).^.T.I.T.T.~.~.`.`.`.Y.Y.Y.Y.Y.T.'.W.T.Y.T.U.Y.Y.Y.Y.Y.Y.Y.I.I.T.R.R.Y.Y.R.T.T.Y.Y.Y.I.R.Y.R.H.G.M.A M < : X X X X . . . . . . . . . . . . . . . . . . . . . . . . . . . . . . . . . . . . . . . . . . . . . . . . . . . . . . . . . . . . X . . . X X . . X X X X . . . . X o # @ f 6X                                                                                                                                                                                                                                                                                                                                          ",
"                                                                                                                                                                                                                                                                                                                                                  D.7 o X X X . X X . . . . . . X X + m A M.V.G.E.).).T.T.U.U.R.R.R.Y.T.Y.T.T.U.Y.Y.Y.Y.Y.Y.Y.Y.Y.I.I.Y.Y.Y.R.R.U.R.I.U.W.E.G.G.V.M.b.A m < + + X X . . . . . . . . . . . . . . . . . . . . . . . . . . . . . . . . . . . . . . . . . . . . . . . . . . . . . . . . . . . . . . . . . . . . X X . . X X X X . . . . . X o o @ F MX                                                                                                                                                                                                                                                                                                                                        ",
"                                                                                                                                                                                                                                                                                                                                                  U @ o X X . . X X . . . . . . . X X X + ; 3 N S N.B.G.E.Q.U.U.U.T.T.T.Y.`.`.Y.`.`.`._.`.`.`.Y.Y.Y.Y.R.T.T.U.R.J.H.H.V.N.N.S B m : + + + X X X X . . . . X . . X . . . . . . . . . . . . . . . . . . . . . . . . . . . . . . . . . . . . . . . . . . . . . . . . . . . . . . . . . . . . . . . . . X X X X . . . . . . . X o = U ZX                                                                                                                                                                                                                                                                                                                                      ",
"                                                                                                                                                                                                                                                                                                                                                MXF @ X X X X . X X . . . . . . . . . . X X X X ; : < m M C A b.C.M.V.H.G.Q.Q.E.Q.Q.)./.E.E.G.G.G.G.H.H.H.C.b.b.b.A C B < ; + X X X X X . . . . . . . . X X X X X X . . . . . . . . . . . . . . . . . . . . . . . . . . . . . . . . . . . . . . . . . . . . . . . . . . . . . . . . . . . . . . . . X X X X . . . . . . . . o # 6 4X                                                                                                                                                                                                                                                                                                                                      ",
"                                                                                                                                                                                                                                                                                                                                                MXf # . X X . . . . . . . . . . . . . . X X X X X X X X X X X + ; : < 3 B N A A A A A A A N M M N S A A m : ; + + + X + X X X X X . . . . . . . . . . . . . . . . . . . . . . . . . . . . . . . . . . . . . . . . . . . . . . . . . . . . . . . . . . . . . . . . . . . . . . . . . . . . . . . . . X X . . . . . . . . . . X o @ 6 7X                                                                                                                                                                                                                                                                                                                                    ",
"                                                                                                                                                                                                                                                                                                                                                0X6 o X . . . . . . . . . . . . . . . . . . . . . . X X X X . . X X X X X X X X X X X X X X + + X + + X X X X . X . . . . . . . . . . . . . . . . . . . . . . . . . . . . . . . . . . . . . . . . . . . . . . . . . . . . . . . . . . . . . . . . . . . . . . . . . . . . . . . . . . . . . . . . . X X . . . . X X X X X X X X o @ F uX                                                                                                                                                                                                                                                                                                                                  ",
"                                                                                                                                                                                                                                                                                                                                                D.2 o . . . . . . . . . . . . . . . . . . . . . . . . X X . . . . X X X X X X X X X X X X X X X X X X X X X . . . . . . . . . . . . . . . . . . . . . . . . . . . . . . . . . . . . . . . . . . . . . . . . . . . . . . . . . . . . . . . . . . . . . . . . . . . . . . . . . . . . . . . . . . . . . . . . . . . . . . . . . . . o @ I VX                                                                                                                                                                                                                                                                                                                                ",
"                                                                                                                                                                                                                                                                                                                                                U @ o . . . . . . . . . . . . . . . . . . . . . . . . . . . . . . . . . . . . . . . . . . . . . . . . . . . . . . . . . . . . . . . . . . . . . . . . . . . . . . . . . . . . . . . . . . . . . . . . . . . . . . . . . . . . . . . . . . . . . . . . . . . . . . . . . . . . . . . . . . . . . . . . . . . . . . . . . . . . . X o o 2 4X                                                                                                                                                                                                                                                                                                                                ",
"                                                                                                                                                                                                                                                                                                                                                I @ o . . . . . . . . . . . . . . . . . . . . . . . . . . . . . . . . . . . . . . . . . . . . . . . . . . . . . . . . . . . . . . . . . . . . . . . . . . . . . . . . . . . . . . . . . . . . . . . . . . . . . . . . . . . . . . . . . . . . . . . . . . . . . . . . . . . . . . . . . . . . . . . . . . . . . . . . . . . . . X X o # f wX                                                                                                                                                                                                                                                                                                                              ",
"                                                                                                                                                                                                                                                                                                                                              MXF @ o . . . . . . . . . . . . . . . . . . . . . . . . . . . . . . . . . . . . . . . . . . . . . . . . . . . . . . . . . . . . . . . . . . . . . . . . . . . . . . . . . . . . . . . . . . . . . . . . . . . . . . . . . . . . . . . . . . . . . . . . . . . . . . . . . . . . . . . . . . . . . . . . . . . . . . . . . . . . . . X X o @ G MX                                                                                                                                                                                                                                                                                                                            ",
"                                                                                                                                                                                                                                                                                                                                              uXf O o . . . . . . . . . . . . . . . . . . . . . . . . . . . . . . . . . . . . . . . . . . . . . . . . . . . . . . . . . . . . . . . . . . . . . . . . . . . . . . . . . . . . . . . . . . . . . . . . . . . . . . . . . . . . . . . . . . . . . . . . . . . . . . . . . . . . . . . . . . . . . . . . . . . . . . . . . . . . X . X X X # 2 |                                                                                                                                                                                                                                                                                                                             ",
"                                                                                                                                                                                                                                                                                                                                              uX6 o X . . . . . . . . . . . . . . . . . . . . . . . . . . . . . . . . . . . . . . . . . . . . . . . . . . . . . . . . . . . . . . . . . . . . . . . . . . . . . . . . . . . . . . . . . . . . . . . . . . . . . . . . . . . . . . . . . . . . . . . . . . . . . . . . . . . . . . . . . . . . . . . . . . . . . . . . . . . . . . X . X X # f wX                                                                                                                                                                                                                                                                                                                          ",
"                                                                                                                                                                                                                                                                                                                                              yX6 o . . . . . X . . . . . . . . . . . . . . . . . . . . . . . . . . . . . . . . . . . . . . . . . . . . . . . . . . . . . . . . . . . . . . . . . . . . . . . . . . . . . . . . . . . . . . . . . . . . . . . . . . . . . . . . . . . . . . . . . . . . . . . . . . . . . . . . . . . . . . . . . . . . . . . . . . . . . . . . . . . X X o 7  .                                                                                                                                                                                                                                                                                                                          ",
"                                                                                                                                                                                                                                                                                                                                              qX6 o . . . . X X X X . . . . . . . . . . . . . . . . . . . . . . . . . . . . . . . . . . . . . . . . . . . . . . . . . . . . . . . . . . . . . . . . . . . . . . . . . . . . . . . . . . . . . . . . . . . . . . . . . . . . . . . . . . . . . . . . . . . . . . . . . . . . . . . . . . . . . . . . . . . . . . . . . . . . . . . . . . . o # G MX                                                                                                                                                                                                                                                                                                                        ",
"                                                                                                                                                                                                                                                                                                                                              wX6 o . . . . . X . . . . . . . . . . . . . . . . . . . . . . . . . . . . . . . . . . . . . . . . . . . . . . . . . . . . . . . . . . . . . . . . . . . . . . . . . . . . . . . . . . . . . . . . . . . . . . . . . . . . . . . . . . . . . . . . . . . . . . . . . . . . . . . . . . . . . . . . . . . . . . . . . . . . . . . . . . . . X X # 6 0X                                                                                                                                                                                                                                                                                                                        ",
"                                                                                                                                                                                                                                                                                                                                              uX6 o . X . . X . . . . . . . . . . . . . . . . . . . . . . . . . . . . . . . . . . . . . . . . . . . . . . . . . . . . . . . . . . . . . . . . . . . . . . . . . . . . . . . . . . . . . . . . . . . . . . . . . . . . . . . . . . . . . . . . . . . . . . . . . . . . . . . . . . . . . . . . . . . . . . . . . . . . . . . . . . . . . X X # 2 4X                                                                                                                                                                                                                                                                                                                        ",
"                                                                                                                                                                                                                                                                                                                                              MXf # o X . X X . . . . . . . . . . . . . . . . . . . . . . . . . . . . . . . . . . . . . . . . . . . . . . . . . . . . . . . . . . . . . . . . . . . . . . . . . . . . . . . . . . . . . . . . . . . . . . . . . . . . . . . . . . . . . . . . . . . . . . . . . . . . . . . . . . . . . . . . . . . . . . . . . . . . . . . . . . . . . X . o 2 U                                                                                                                                                                                                                                                                                                                         ",
"                                                                                                                                                                                                                                                                                                                                              VXG @ o X . X X . . . . . . . . . . . . . . . . . . . . . . . . . . . . . . . . . . . . . . . . . . . . . . . . . . . . . . . . . . . . . . . . . . . . . . . . . . . . . . . . . . . . . . . . . . . . . . . . . . . . . . . . . . . . . . . . . . . . . . . . . . . . . . . . . . . . . . . . . . . . . . . . . . . . . . . . . . . . . X X o 2 U                                                                                                                                                                                                                                                                                                                         ",
"                                                                                                                                                                                                                                                                                                                                                I @ o . . . . . . . . . . . . . . . . . . . . . . . . . . . . . . . . . . . . . . . . . . . . . . . . . . . . . . . . . . . . . . . . . . . . . . . . . . . . . . . . . . . . . . . . . . . . . . . . . . . . . . . . . . . . . . . . . . . . . . . . . . . . . . . . . . . . . . . . . . . . . . . . . . . . . . . . . . . . . . . . X . X # 5 4X                                                                                                                                                                                                                                                                                                                        ",
"                                                                                                                                                                                                                                                                                                                                                U 7 o X . . . . . . . . . . . . . . . . . . . . . . . . . . . . . . . . . . . . . . . . . . . . . . . . . . . . . . . . . . . . . . . . . . . . . . . . . . . . . . . . . . . . . . . . . . . . . . . . . . . . . . . . . . . . . . . . . . . . . . . . . . . . . . . . . . . . . . . . . . . . . . . . . . . . . . . . . . . . . . . . . X @ V 0X                                                                                                                                                                                                                                                                                                                        ",
"                                                                                                                                                                                                                                                                                                                                                4X2 # X . . X X . . . . . . . . . . . . . . . . . . . . . . . . . . . . . . . . . . . . . . . . . . . . . . . . . . . . . . . . . . . . . . . . . . . . . . . . . . . . . . . . . . . . . . . . . . . . . . . . . . . . . . . . . . . . . . . . . . . . . . . . . . . . . . . . . . . . . . . . . . . . . . . . . . . . . . . . . X . . X # 2 U                                                                                                                                                                                                                                                                                                                           ",
"                                                                                                                                                                                                                                                                                                                                                7X2 o . . . X . . . . . . . . . . . . . . . . . . . . . . . . . . . . . . . . . . . . . . . . . . . . . . . . . . . . . . . . . . . . . . . . . . . . . . . . . . . . . . . . . . . . . . . . . . . . . . . . . . . . . . . . . . . . . . . . . . . . . . . . . . . . . . . . . . . . . . . . . . . . . . . . . . . . . . . . . X . . . o @ V 0X                                                                                                                                                                                                                                                                                                                          ",
"                                                                                                                                                                                                                                                                                                                                                wX6 o . . . . . . . . . . . . . . . . . . . . . . . . . . . . . . . . . . . . . . . . . . . . . . . . . . . . . . . . . . . . . . . . . . . . . . . . . . . . . . . . . . . . . . . . . . . . . . . . . . . . . . . . . . . . . . . . . . . . . . . . . . . . . . . . . . . . . . . . . . . . . . . . . . . . . . . . . . . . . X . . # @ 5 4X                                                                                                                                                                                                                                                                                                                            ",
"                                                                                                                                                                                                                                                                                                                                                MXG # X . . . . . . . . . . . . . . . . . . . . . . . . . . . . . . . . . . . . . . . . . . . . . . . . . . . . . . . . . . . . . . . . . . . . . . . . . . . . . . . . . . . . . . . . . . . . . . . . . . . . . . . . . . . . . . . . . . . . . . . . . . . . . . . . . . . . . . . . . . . . . . . . . . . . . . . . . . . . o o # @ V 4X                                                                                                                                                                                                                                                                                                                              ",
"                                                                                                                                                                                                                                                                                                                                                  I @ # . . . . . . . . . . . . . . . . . . . . . . . . . . . . . . . . . . . . . . . . . . . . . . . . . . . . . . . . . . . . . . . . . . . . . . . . . . . . . . . . . . . . . . . . . . . . . . . . . . . . . . . . . . . . . . . . . . . . . . . . . . . . . . . . . . . . . . . . . . . . . . . . . . . . . . . . . X X o o # 5 Y 0X                                                                                                                                                                                                                                                                                                                                ",
"                                                                                                                                                                                                                                                                                                                                                  4X6 # X . . . . . . . . . . . . . . . . . . . . . . . . . . . . . . . . . . . . . . . . . . . . . . . . . . . . . . . . . . . . . . . . . . . . . . . . . . . . . . . . . . . . . . . . . . . . . . . . . . . . . . . . . . . . . . . . . . . . . . . . . . . . . . . . . . . . . . . . . . . . . . . . . . . . . . X o # @ > 6 Y 9XVX                                                                                                                                                                                                                                                                                                                                  ",
"                                                                                                                                                                                                                                                                                                                                                  VXI 2 # o . . . . . . . . . . . . . . . . . . . . . . . . . . . . . . . . . . . . . . . . . . . . . . . . . . . . . . . . . . . . . . . . . . . . . . . . . . . . . . . . . . . . . . . . . . . . . . . . . . . . . . . . . . . . . . . . . . . . . . . . . . . . . . . . . . . . . . . . . . . . . . . . X X o o o # > 5 G Z.0XVX                                                                                                                                                                                                                                                                                                                                      ",
"                                                                                                                                                                                                                                                                                                                                                    MXY > # o . . . . . . . . . . . . . . . . . . . . . . . . . . . . . . . . . . . . . . . . . . . . . . . . . . . . . . . . . . . . . . . . . . . . . . . . . . . . . . . . . . . . . . . . . . . . . . . . . . . . . . . X X X X . . . . . . . . . . . . . . . . . . . . . . . . . . . . . X X X o o # # # # > 2 6 G U 9XnX                                                                                                                                                                                                                                                                                                                                            ",
"                                                                                                                                                                                                                                                                                                                                                      MXI 5 @ # X X . . . . . . . . . . . . . . . . . . . . . . . . . . . . . . . . . . . . . . . . . . . . . . . . . . . . . . . . . . . . . . . . . . . . . . . . . . . . . . . . . . . . . . . . . . . . . . . . . . . . X o o # o o o o o o o o o o . . . . X X . . . . X o # # # o o o o o + # @ > 2 2 V G Z.9XnXMX                                                                                                                                                                                                                                                                                                                                                  ",
"                                                                                                                                                                                                                                                                                                                                                        IX4XV > # o X . . . . . . . . . . . . . . . . . . . . . . . . . . . . . . . . . . . . . . . . . . . . . . . . . . . . . . . . . . . . . . . . . . . . . . . . . . . . . . . . . . . . . . . . . . . . . . . . . . X 2 V 6 5 2 2 2 2 7 > 2 2 > @ # # o o + + + + # # # @ > > > 2 7 2 2 5 6 G Y U D.9XMXVX                                                                                                                                                                                                                                                                                                                                                          ",
"                                                                                                                                                                                                                                                                                                                                                            wXY 2 # o X . . . . . X X . . . . . . . . . X X . . . . . . . . . . . . . . . . . . . . . . . . . . . . . . . . . . . . . . . . . . . . . . . . . . . . . . . . . . . . . . . . . . . . . . . . . . . . . . X # Z.MXnX0X9XD.Z.Z.U Y Y Y G V 5 5 2 5 2 2 2 2 5 5 V G G Y I U Z.4X0XwXnXMX                                                                                                                                                                                                                                                                                                                                                                      ",
"                                                                                                                                                                                                                                                                                                                                                              VX4XG 2 # o o . . . X X . . . . . . . X o # # # # o X . . . . . . . . . . . . . . . . . . . . . . . . . . . . . . . . . . . . . . . . . . . . . . . . . . . . . . . . . . . . . . . . . . . . . . . . . . o > 9XPX                      0X9X9X9X9X9X9X9X9X9X9XwX                                                                                                                                                                                                                                                                                                                                                                                            ",
"                                                                                                                                                                                                                                                                                                                                                                  MXD.G > # o o o o X . X X . X . o o 5 9XZ.V 2 # X o X . X X X . . . . . . . . . . . . . . . . . . . . . . . . . . . . . . . . . . . . . . . . . . . . . . . . . . . . . . . . . . . . . . . . . . . X @ 6 0X                                                                                                                                                                                                                                                                                                                                                                                                                                            ",
"                                                                                                                                                                                                                                                                                                                                                                      MX9XY 5 > # + o X X o X X X o @ Y IXIXnX4XG 5 @ # o o X X . . . . . . . . . . . . . . . . . . . . . . . . . . . . . . . . . . . . . . . . . . . . . . . . . . . . . . . . . . . . . . . . . . . o @ G                                                                                                                                                                                                                                                                                                                                                                                                                                               ",
"                                                                                                                                                                                                                                                                                                                                                                          VX0XU V 5 > # # # o o o # 2 Z.        MX9XY V > # o o . . . . . . . . . . . . . . . . . . . . . . . . . . . . . . . . . . . . . . . . . . . . . . . . . . . . . . . . . . . . . . . . . . X # 2 U                                                                                                                                                                                                                                                                                                                                                                                                                                               ",
"                                                                                                                                                                                                                                                                                                                                                                              IXnX9XU G V 6 2 > > 5 G wX            VXnXD.G 2 @ # o X . . . . . . . . . . . . . . . . . . . . . . . . . . . . . . . . . . . . . . . . . . . . . . . . . . . . . . . . . . . . . . . o @ Z wX                                                                                                                                                                                                                                                                                                                                                                                                                                              ",
"                                                                                                                                                                                                                                                                                                                                                                                    IXMXnXnXwX9X4X9XnX                    MX9XY V > # o X X . . X . . . . . . . . . . . . . . . . . . . . . . . . . . . . . . . . . . . . . . . . . . . . . . . . . . . . . . . . o @ 6 9X                                                                                                                                                                                                                                                                                                                                                                                                                                                ",
"                                                                                                                                                                                                                                                                                                                                                                                                                              VXwXZ.V > # + + X X . . . . . . . . . . . . . . . . . . . . . . . . . . . . . . . . . . . . . . . . . . . . . . . . . . . . X X o # @ V 4X                                                                                                                                                                                                                                                                                                                                                                                                                                                  ",
"                                                                                                                                                                                                                                                                                                                                                                                                                                  IXMX9XG 6 > # o o o . . . . . . . . . . . . . . . . . . . . . . . . . . . . . . . . . . . . . . . . . . . . . . . . . . o # @ > Y 0X                                                                                                                                                                                                                                                                                                                                                                                                                                                    ",
"                                                                                                                                                                                                                                                                                                                                                                                                                                        MX0XZ.G 5 @ @ # o o . . . . . . . . . . . . . . . . . . . . . . . . . . . . . . . . . . . . . . . . . . . . X o o # 2 V Z.MX                                                                                                                                                                                                                                                                                                                                                                                                                                                      ",
"                                                                                                                                                                                                                                                                                                                                                                                                                                              MX9XZ.G V > @ # o o o X . . . . . . . . . . . . . . . . . . . . . . . . . . . . . X X . . . . . . X o + > 2 G 4XnX                                                                                                                                                                                                                                                                                                                                                                                                                                                          ",
"                                                                                                                                                                                                                                                                                                                                                                                                                                                    VXnX9XU G 5 > > # o o X o # o o X X o o X X X . . . X . X . X X X X X X X X X X X o o o + # @ > 5 Y 9XVX                                                                                                                                                                                                                                                                                                                                                                                                                                                              ",
"                                                                                                                                                                                                                                                                                                                                                                                                                                                          IXVXnX9XZ.Y V 5 5 > > @ # + + + o + + o o o o o o o o o o o o o o o o o + # # @ > 5 V Y Z.9XVX                                                                                                                                                                                                                                                                                                                                                                                                                                                                  ",
"                                                                                                                                                                                                                                                                                                                                                                                                                                                                  IXVXnXwX9XZ.Z.I Y Z V V 5 5 5 1 > > > > > > > > > > > > > 2 2 2 5 Z G I 4X0XnXMX                                                                                                                                                                                                                                                                                                                                                                                                                                                                        ",
"                                                                                                                                                                                                                                                                                                                                                                                                                                                                                VXVXMXMXnXnXmXmX0X9X9XD.4X4XD.Z.Z.Z.Z.Z.Z.D.9X9X9XmXMXVXIX                                                                                                                                                                                                                                                                                                                                                                                                                                                                                ",
"                                                                                                                                                                                                                                                                                                                                                                                                                                                                                                                                                                                                                                                                                                                                                                                                                                                                                                                                                                                                                          "
};
