/* XPM */
static char *_58ec2cc93e04a8b87c6a8b28a65f8e6[] = {
/* columns rows colors chars-per-pixel */
"64 64 139 2 ",
"   c #125D02",
".  c #156207",
"X  c #166509",
"o  c #1B660B",
"O  c #1D690E",
"+  c #1E6C11",
"@  c #1F7013",
"#  c #226E13",
"$  c #257116",
"%  c #287117",
"&  c #277419",
"*  c #2A751B",
"=  c #27781C",
"-  c #2C791E",
";  c #30791F",
":  c #2F7B21",
">  c #2F7B20",
",  c #2F7920",
"<  c #2D7C20",
"1  c #2C7D20",
"2  c #2D7C21",
"3  c #2E7D21",
"4  c #2D7E21",
"5  c #2E7D22",
"6  c #2F7E22",
"7  c #2F7E23",
"8  c #2E7F23",
"9  c #2F7C21",
"0  c #307920",
"q  c #317A20",
"w  c #307B20",
"e  c #307A21",
"r  c #317A21",
"t  c #327B21",
"y  c #317B22",
"u  c #327B22",
"i  c #307C21",
"p  c #317C21",
"a  c #307C22",
"s  c #317D22",
"d  c #317D23",
"f  c #337C22",
"g  c #327D22",
"h  c #327C23",
"j  c #307F23",
"k  c #327E23",
"l  c #337E23",
"z  c #347D23",
"x  c #337D24",
"c  c #307F24",
"v  c #327E24",
"b  c #337F24",
"n  c #337F25",
"m  c #347D24",
"M  c #357E24",
"N  c #347F24",
"B  c #347E25",
"V  c #357E25",
"C  c #367F25",
"Z  c #357F26",
"A  c #367F26",
"S  c #317D22",
"D  c #318024",
"F  c #308125",
"G  c #328125",
"H  c #328126",
"J  c #338226",
"K  c #328326",
"L  c #348025",
"P  c #358025",
"I  c #348026",
"U  c #358126",
"Y  c #358127",
"T  c #378026",
"R  c #368126",
"E  c #368027",
"W  c #348327",
"Q  c #368227",
"!  c #378227",
"~  c #348126",
"^  c #378128",
"/  c #348328",
"(  c #368228",
")  c #378328",
"_  c #378329",
"`  c #358428",
"'  c #368529",
"]  c #37862A",
"[  c #378328",
"{  c #388328",
"}  c #388229",
"|  c #3A8329",
" . c #388429",
".. c #398429",
"X. c #38842A",
"o. c #39852A",
"O. c #39852B",
"+. c #3B842A",
"@. c #3A852A",
"#. c #3A842B",
"$. c #38872B",
"%. c #3A862B",
"&. c #3B862B",
"*. c #3C852B",
"=. c #3B852C",
"-. c #3A862C",
";. c #3B872C",
":. c #3B872D",
">. c #3D862C",
",. c #3C872C",
"<. c #3E872D",
"1. c #3D872E",
"2. c #39852A",
"3. c #39882C",
"4. c #3A892D",
"5. c #398A2D",
"6. c #3B8A2E",
"7. c #3B8A2F",
"8. c #3C882D",
"9. c #3D882D",
"0. c #3C882E",
"q. c #3D892E",
"w. c #3F882E",
"e. c #3E892E",
"r. c #3E882F",
"t. c #3E8A2F",
"y. c #3F8A2F",
"u. c #3C892D",
"i. c #3F8930",
"p. c #3F8B30",
"a. c #3F8B31",
"s. c #3D8C30",
"d. c #3E8D31",
"f. c #3F8E32",
"g. c #408B30",
"h. c #418C31",
"j. c #418D32",
"k. c #428D32",
"l. c #438E33",
/* pixels */
"% ; * - l l $ * l R R > l J - < - * l l $ * e.# - l $ - b * - * & w # w w N # - l b R * R J - < l & N l & - @.# - l # - l * - - ",
"# ; - N R $ l l ) R * & - - - - $ * - - - R R N - * $ w * - @.* # w & ) w & w N R R * & * < - - $ * - - - R R l - & $ l - l { * ",
"@.- $ & l $ b * & * & * - - l * l - > * - ) $ l N R l - $ - l b ;.w # * w & l * & - $ - - - < - < > * - - R & - R R l - $ - l b ",
",.# - * - * l l R - * * - l ` $ l $ * * $ - # * l N l l - b * * ,.& - - - - w l R > * & < l ` $ l $ & * $ * # * b b l - * l & * ",
"w # R e.R l - R > - R & $ - l & < $ - - * $ * l * # - l $ - - - > # R e.b b - b - - R & $ - < & > $ > * * * & l * # - l $ * * * ",
"* & $ R l - # O & $ @.* $ & < - < - - * R * * - - & - - - - - < & & # { w - # O $ * R - + - - - l - > * l - * - - & - - - - * l ",
"w N - N l R - b j.> - $ l l R - $ $ & - - - * $ - - - & s.` & $ w b - R N R - R e.b * * * R l > $ $ & - - - - & < < - $ s.` & & ",
"w - * # * { & R l * * > ) * R l $ # ` s.+ & - $ # $ - + & $ < J w * & # - R $ R > * * l R * l b $ $ ` s.# $ < $ + & - # - $ < l ",
"@.- - l * * - & & O - $ & R * $ J + - < # & e.$ R - - ` - & - - R - - l & & - $ & O - $ & R * & J + & < $ & 4.$ R - < ` - - & < ",
"# # # - R * $ - @.R R - & - + * 4.` < & < + O l > b & O < J J - - # O * R - & l ) R R * * * # * s.J J - - # + < < R $ + l < R - ",
"& b R o $ @.* e.- > l ;.l ) - l ` * & l ) l R * # l - $ J < < l $ l @.+ $ b $ e.- - R ) R b > l R l $ > @.- b - $ l > # l l - R ",
"b p.R * - * * l - @.$ * ) ) $ b - - & J e.* l * * l * - - - * & ) p.R * - * * b - R * & ;.R * b * * * b ) - l - - - - * * l $ * ",
"R * R @.l - $ & ) R * * * * & # - > $ * R $ $ - R ,.- & $ - > * ) * R R l l & & ) R * & - * & # - l $ * R $ - * R e.- * $ - l * ",
"# l b b $ * @.# - ;.- $ l - $ - - O - $ $ R R - - @.> & R - * - o > ) R # $ @.# - ;.- $ l - # - - # l # * @.- - - R > $ R - * - ",
"$ & l * $ * $ & l R > - * * - R # - ;.> - w R R * * # $ e.b * $ * * - * & - * * l b l * * * - ) $ * @.N * - @.w - # $ # @.@.$ & ",
"@.l $ # l > O - $ - * l > > # l l R - e.e.# - R - l * * $ J e.b ) - $ # l - o - & - > > R - $ l l { - ,.g.# - ,.w l * * $ R e.b ",
"- R $ - N N l $ ; R l * j.- * b > $ b b * * b # R - & $ & & J l * ) * $ ) > N $ - @.* w e.- * z w # N w & > b # J - $ & & * l l ",
"O < * l * - z w ; e.- . - w > * N * $ + $ - ) l - . J 4.= = $ < O - - - > * - l - e.- . ; N w - N & # o # > R > < X J s.- - @ < ",
"- & * - - j.l - @.w N R l - R - & - * & b b - - l & < - $ < $ & - - $ - l e.l - ,.- @.N z w N ; - - - & N N - - < $ - - $ - $ & ",
"< < O - * l R * N # - @.- - e.l - N > $ & * * l * - - < - $ O & * - # - # R l * R # w @.; ; ,.l - b w $ & * * l * * - - < $ + & ",
"- & # - $ * - - l * # - w l - $ * > l l > > * & $ & @.> - ) b # * - + l # * l > > - # - w w w & & > b - - l * $ & * e.- - J J + ",
"< J # R b * { - l l & - - l - $ ) l * * * b > $ ) * $ * R > ) b ) l + ) l - b - l R # w - l w # R l - & * R - $ ) * $ * J - R < ",
"- l l - - & - > * - * * o N e.- R b * * $ - * $ $ ,.- & - $ l l l l * b > & > - * - * * O l p.- N b - & $ - * $ $ e.- * - * b b ",
"* - - # * * - * l $ # @.w * $ * * ;.@.b * * & l - l ,.R - @.- * * - > $ & * > * b # $ b b * # * * ) { N * * $ b * l @.R * @.* * ",
"* * * l - * * R - # R @.- @.- - $ l $ l - * & l R # l { & l * > - * * l * > & b > + @.) b ) - & # < $ J * - & > > # R R * l & b ",
"R * * b R - # + * l l l o R - * R l * * * > $ * l - O - l - > w b * * R b l # # & - b - O R w * l ` & & - l O * @.& # R * * ) * ",
"R * & * - < J J - R * l $ b * * * # * & * R * b - R $ > & O > & R * * > - l l b l ) * l # > * * $ $ * $ * ) $ R * @.# * * # > * ",
"& * l l & - J - > - - l R - * l * # - * - R * - - - * R R l b * & & l > * > b - l - * l ) > * l * O - - * R > > - l - R b * > * ",
"* - R @.< - & O & - R $ - & * l R - * - l b - $ < < - 7 4.- + > - * R ) l - & O * - b $ l * * l @.* - > - l l $ > & > @.) - * l ",
"- & * R - - * - - < l # - l $ * R l # * > > R l + - - - < & > J l * > R - * $ * - l R $ - > $ & R b $ * l - b l $ l - * b * * l ",
"* * $ - & < & - l R * - N R $ $ N R $ - - * - J < < < - = = J $ $ $ & - * - * - > l - * R b * * l R $ * > * - R l > < - - - ) $ ",
"N @.$ & # @.l - - 4.> > > - - * R R $ l l - $ - * * < < < + O * R R * $ $ ;.l * l ;.l * l * - $ @.l & R l - - * * * b < - O O & ",
"& w & > w R $ * b R @.- R J * > w - l R $ * ,.# * l # * l * > - $ > & b > R # * > R ) * R R - > l & R R $ * ,.# * l # - l * - - ",
"# w * N b & l l R R * * & < - - $ * l - - R R N - * $ l - w R $ # l * ) R - l l R ) * & * l - - & * - l - N R l - & $ l * w R $ ",
";.- # * l & l & $ * $ - - - < * > * > & - R $ > R R l - $ - l b ) - # * > & l & $ - # - - - l - l - * - - R * - R R l - $ - R R ",
",.# * - - - l b N - - & < < ` $ l # - * & - # - l b > - * l * - e.* l > - - b R R - * & l l R $ l $ * * $ - # * b l l - - l * - ",
"w # N p.b b - b > * R $ $ * l $ > & - - * & & l * # - l $ * * * > # l ;.l b - - l - R * $ * > * - $ > * * & $ l * # > > $ * * * ",
"* & # { > - # O & * ) - $ - - - > > * * l * & * - * - - - - * l - * & @.b > $ O * - R > # - - > l - l * b - $ > - * > - - - * l ",
"w R * ) w ) - N j.l - * > b R - & & * - < - - & - - * $ s.` & & - b - R l l - R p.R * * * R l > $ $ & & - - & $ - < * & s.@.& - ",
"w - & # & { & R l & - - @.$ R l $ + @.4.$ $ - $ + & < $ - $ - < l * $ # - @.* R - * * > R * b l # & J 4.$ & < $ + & - $ & $ - l ",
"R * > N * & - & & O - $ & R * $ J $ - l $ & 4.& R - < 4.- - - - R * - l * $ - & $ O - & * R * $ J # & J $ - 4.& ` - < ` - - & J ",
"& # o & R - $ - @.R ) * * - # * 4.< J - - $ + < < - & O - J l - * # O * R - & > @.R @.* * - + - s.l J - * + + < & < + + J < J & ",
"# b ;.+ & ) $ ;.> - R ) R R - l @.R $ l @.* l * $ l < & R l l b # l @.O $ R $ ;.- l l ) R > l l R l & - @.* b - $ l l $ R b - R ",
") p.R * > - * l * R * & ;.R * l * & * R @.- l - * - * - * - * * R p.R * - - * b * l - & @.) # b * * - l @.- b - - - - * * l $ - ",
") * R ) l > & * R R * & - * & # * l # - R # * - R @.- $ $ > - - @.* R R l > & * R @.* * > & * # * l $ * ) # - * l e.* * $ - l * ",
"O > ) ) & & ) # - ;.- $ l - # - - # b # & R * * l @.l $ R < * l O - R R $ $ R # - @.l # l > # > * + l # * @.- - > @.l & R > - > ",
"* & - & $ * $ & l b l * * * - R # * @.R * - @.l * * # # e.N $ $ * * - * $ * $ * l R * * * & > R # * @.R * - @.l - $ $ # R ) $ * ",
"@.l & # l - O - $ * - > b - # > l @.- @.e.# * { - l - * * @.@.R R > $ # l - O - & * > > ) l $ > w @.- e.e.# * ,.- l - - & R e.l ",
"- J * * @.l l $ - R - * g.- & R b & N w & & N $ b & * $ * - < ` & ` * & N l l * * @.* w e.- * b w $ R w & - b $ b - $ & & & < J ",
"O < * * - - N l - ,.l   z - l * l & # # & > N * - O J 4.= & $ & O < * - w * w w - ,.- . - l - * b $ # + & l R - > o ` 4.= < $ - ",
"- * * * - j.l - { w l R z - R - & > - & w w - l R $ - - & < @ - < * * - l g.w - *.- { l l ; R - * - > & > > - l R $ * - & - + * ",
"& < O l & l l * z # * e.- l ;.b w l & # - w - - * * < * & - + $ - < # - & l R * N # w @.- w e.l > w - # - - & - $ - - & - & $ $ ",
"- & # > O * - l l * $ & R - - & # > b l - - * & * * b R < < l + & & $ - # - - - l - # - w l w $ # - R b - * $ * * $ @.l l l > # ",
"l J O ) l * @.- l l & - - l - $ @.l * & * b w $ b - $ & J < 4.l J J O @.R * R - l R # l - l l # e.l & $ * ) - $ R > * $ l - R > ",
"- - > l > * - * * - $ - o R @.- - b l - & * & $ * R - $ - * * l l > - b - * * - * * * * O l e.- l J < * $ - & $ $ e.* * w & w R ",
"* - - $ * $ - * l $ # R l * # * > ;.b - * - * > * l R l - @.l * * - - $ $ * - * l # $ l l * # * * ;.` < & - * l * l @.b * ,.- - ",
"* * * l > - * R l # R @.- R - - $ l $ J - - $ > b $ b b $ l * > * - * R - > * J < O R @.w { - * # J $ l - - $ l b # b R $ l * > ",
"R * * R R - + # $ * - l O { - * b < & - * l # * R & O R l * > > R - * R l - # # * * > - o R l * l J & - & < # - R $ o R l * w - ",
"R * * - - < < J l R * R # l * & * $ * * & R * l - ;.& * # + l & l * * > - < l J l b - l $ - * & * $ - & & J & b - @.& * # # N $ ",
"* & l > * - < - l * - l R - * N $ # - * - R - l * - * ) ;.< - * $ * l l - - < - > * > l { * * l $ + - & - R - l & - - @.@.> - - ",
"- * R @.< - $ O $ & R * l * * l R - * - l l - & R - - R @.* # < > - R ) < - & O & & R $ l & * l R - * * l b l $ ) - * b R & # l ",
"- * - R - - & - - < l $ - l $ & ) R & * - * l > o - l - > * > > - * - R - & * - < < l # - w $ $ @.b $ * - - R - + - > * > - b - ",
"& * & - $ < & - J J * - l R * * w l $ - - * l ) l b - & - & - * $ * * > & - & * < < * - R R * & < l $ - - * b R R b - * > * > * ",
"R ) $ $ # 4.< & - 4.l l - * * & R R * l R * $ * * * J < - + + & R @.& $ $ @.J - - 4.l l w & - * R R * l l * * * & & R b * O + & "
};
