/* XPM */
static char *_1c7775ceb324678af102810cb6a24d2[] = {
/* columns rows colors chars-per-pixel */
"64 64 252 2 ",
"   c #000402",
".  c #150000",
"X  c #1B0102",
"o  c #1B0708",
"O  c #0F1609",
"+  c #220102",
"@  c #2D0402",
"#  c #26060A",
"$  c #330906",
"%  c #33140C",
"&  c #371818",
"*  c #2E1112",
"=  c #393815",
"-  c #312A14",
";  c #3C1C23",
":  c #3E252A",
">  c #3C2426",
",  c #263A2E",
"<  c #1A261A",
"1  c #5C080A",
"2  c #4E1013",
"3  c #671919",
"4  c #7C1D1B",
"5  c #761917",
"6  c #6C0E0C",
"7  c #48291C",
"8  c #59281C",
"9  c #4C371B",
"0  c #523619",
"q  c #7D221E",
"w  c #76281D",
"e  c #6A2D1A",
"r  c #421E28",
"t  c #781A20",
"y  c #42242B",
"u  c #472929",
"i  c #562D24",
"p  c #4A3725",
"a  c #543B24",
"s  c #573729",
"d  c #4B2933",
"f  c #583934",
"g  c #512D36",
"h  c #7D2423",
"j  c #772B26",
"k  c #783828",
"l  c #6C3C3D",
"z  c #663A37",
"x  c #783C37",
"c  c #673229",
"v  c #155D13",
"b  c #13530E",
"n  c #384919",
"m  c #38571C",
"M  c #2A5016",
"N  c #1C680C",
"B  c #1C6B15",
"V  c #1E7315",
"C  c #18710E",
"Z  c #226A0D",
"A  c #246E14",
"S  c #2A6C15",
"D  c #2C6C1B",
"F  c #276919",
"G  c #336C1C",
"H  c #35661B",
"J  c #247315",
"K  c #2A7315",
"L  c #25741A",
"P  c #2A751B",
"I  c #257A1C",
"U  c #2C7A1D",
"Y  c #2E7B16",
"T  c #31751D",
"R  c #327B1E",
"E  c #3B731E",
"W  c #25710E",
"Q  c #3C4921",
"!  c #3A5822",
"~  c #2D4E21",
"^  c #1E6721",
"/  c #336D23",
"(  c #3B6928",
")  c #2D7522",
"_  c #2D7B22",
"`  c #297B24",
"'  c #337524",
"]  c #3A7324",
"[  c #327C23",
"{  c #397C26",
"}  c #357C29",
"|  c #3A7C2A",
" . c #39742A",
".. c #34712D",
"X. c #1E5E21",
"o. c #434918",
"O. c #4F4A1D",
"+. c #444A24",
"@. c #554223",
"#. c #584528",
"$. c #435524",
"%. c #485A28",
"&. c #594734",
"*. c #5D5537",
"=. c #4D572B",
"-. c #7A432A",
";. c #684739",
":. c #734D3C",
">. c #744839",
",. c #63543B",
"<. c #69523A",
"1. c #75523D",
"2. c #62452A",
"3. c #45682C",
"4. c #43792C",
"5. c #4B6C34",
"6. c #487834",
"7. c #583841",
"8. c #6D3E41",
"9. c #663E46",
"0. c #733D41",
"q. c #6C4445",
"w. c #724D42",
"e. c #734447",
"r. c #675744",
"t. c #745342",
"y. c #7B5648",
"u. c #785553",
"i. c #51774F",
"p. c #69737B",
"a. c #6A7368",
"s. c #5B655B",
"d. c #831D1D",
"f. c #851D17",
"g. c #811709",
"h. c #82221D",
"j. c #8A241D",
"k. c #851F21",
"l. c #842323",
"z. c #8C2424",
"x. c #842924",
"c. c #8C2A24",
"v. c #8C2C2B",
"b. c #862829",
"n. c #932A26",
"m. c #932C2B",
"M. c #962929",
"N. c #8C312C",
"B. c #843A2C",
"V. c #93322E",
"C. c #99342D",
"Z. c #8C2E31",
"A. c #962E31",
"S. c #8D3332",
"D. c #833C32",
"F. c #933434",
"G. c #9B3433",
"H. c #9C3934",
"J. c #9B3639",
"K. c #9B3A3A",
"L. c #953938",
"P. c #A13B3B",
"I. c #A23937",
"U. c #A33230",
"Y. c #84432E",
"T. c #844133",
"R. c #874838",
"E. c #97473A",
"W. c #8C4E36",
"Q. c #A8453B",
"!. c #B4483B",
"~. c #B0563B",
"^. c #D0553E",
"/. c #8C3B45",
"(. c #A03D40",
"). c #9C4846",
"_. c #86564A",
"`. c #845957",
"'. c #8F474B",
"]. c #A24945",
"[. c #A74947",
"{. c #B24A44",
"}. c #AB5644",
"|. c #B85648",
" X c #B55852",
".X c #886757",
"XX c #92695A",
"oX c #956E54",
"OX c #A67759",
"+X c #B66757",
"@X c #966E63",
"#X c #997265",
"$X c #AB7564",
"%X c #C75848",
"&X c #C95D52",
"*X c #D55743",
"=X c #C6614E",
"-X c #C56358",
";X c #D1645D",
":X c #2A821C",
">X c #30801F",
",X c #2D8123",
"<X c #2E8329",
"1X c #338125",
"2X c #34832A",
"3X c #3A832B",
"4X c #398628",
"5X c #3B8632",
"6X c #488734",
"7X c #6A986F",
"8X c #6FA272",
"9X c #5C9051",
"0X c #AB8565",
"qX c #B48D71",
"wX c #94946A",
"eX c #C19D7D",
"rX c #C5A37C",
"tX c #6C7681",
"yX c #938E8C",
"uX c #BA9986",
"iX c #98A49C",
"pX c #B0B4AF",
"aX c #9FA4A4",
"sX c #C49D86",
"dX c #C8A888",
"fX c #D7B88D",
"gX c #D5B493",
"hX c #DCBC94",
"jX c #DDBB9B",
"kX c #DAB696",
"lX c #CFB08E",
"zX c #E1BE9B",
"xX c #E2BC95",
"cX c #E1BB8F",
"vX c #DDB8B1",
"bX c #CBB7A4",
"nX c #E2BDA2",
"mX c #B1CFAA",
"MX c #DDC297",
"NX c #DAC18C",
"BX c #E2C295",
"VX c #E4C39B",
"CX c #E8C79B",
"ZX c #E0C08F",
"AX c #CAC7AD",
"SX c #E5C3A2",
"DX c #EAC7A5",
"FX c #F0C9AC",
"GX c #C6E3BB",
"HX c #B7BEC4",
"JX c #D5E4CD",
"KX c #D4DDCE",
/* pixels */
"A _ V U ' | ' ) [ 1X1XP } 3X:X:XU P [ 1XL L 5XA P [ A U } P U P J U A [ [ 1XA P [ 1X3XP 1X1XU [ R K 1X,XL ) 3XS T { A [ } ) ' ' ",
"L L I ,X|  .) [ ,X:XK K ) [ J ,XJ P _ U U 1X1X[ _ L A _ P _ 3XP A [ P 3X} L [ [ 1X3XL L P _ U U S P U ` ` } 3X| ' P A _ I _ 3X) ",
"' 3XJ L [ T [ :X:X:XK T _ ` _ U _ U _ I _ 4XL _ [ 1X[ _ L U [ 1X3XU A P [ P [ P L U A U U ` _ U [ _ I ` ` } P [ 1X1X_ U V I 1X1X",
"5XL B U S  .} L V B Z H ) ` 3XL [ J U L J _ A L _ 1X[ [ U _ L P 3XJ P P P U [ [ 1X_ P L _ ,X2XL _ J I I J U A P } [ ,XU I :XL K ",
"` B { 6X|  ...i.i.i.i.( X.} 1XW U L _ P P L P [ P A U [ A P P U [ L 1X5X} } _ [ [ _ 3XI L U _ L _ J _ I L I L [ P A ` ` J L U P ",
"I P T [ } / i.a.a.a.s.7Xi.F Y Y U U U P 1XP P U U K U U P Y P [ P L J 3X[ U A N L P [ U A U U U [ Y R P ,XU L _ _ L _ U U P P [ ",
"1XU P 3X' ( i.    O   , i./ 3XY L J P U [ U P L _ [ P P 6X3XP L R [ P 1X1X1X[ 1X6X1XP P P 1X[ U K K K Y Y I U L U [ P P 5X4XJ J ",
"[ [ P D / 5.+.          i.(  .] G D 4.6XG / ] G D /  .D ] /  .4.| ] G G ] 4.G 4.] ] ] ] 4.] 4.| G G 4.6XS D { G D G ] D P L U 1X",
"{ '  ./ m %.a.O < <   s.a.Q $.n %.n n %.n n 3.n %.$.$.$.m m m $.%.m m $.n n ! n n n ! M n $.$.n ! M n o.n n %.n 3.m m 3.' U R R ",
"K G M ! +.= yXaXiXiXiXiXa.% #.&.@.9 @.#.@.@.#.a 9 @.@.#.@.@.@.9 @.@.@.#.@.@.9 a #.a @.@.#.9 9 @.#.@.a a 0 0 @.#.@.@.9 %.6.} } U ",
"W E =.a >.f s.tXtXp.p.p.&.c R.T.k k R.T.T.T.D.k j D.T.T.D.T.T.j D.T.D.T.R.T.j k R.T.T.T.R.k j T.D.D.D.B.k j D.B.R.D.T.0 $. .5X_ ",
"4X4.@.8 D.c 7.p.tXtXtXs.z j h x.4 q b.h.h.4 l.h.4 h.l.h.4 l.q 4 h.c.5 h.c.l.5 h.h.h.h.h.h.h.4 x.4 x.G.H.V.N.H.m.5 z.x.e n 6.P I ",
",XH @.B.I.h u.pXpXpXHXaX'.{.n.H.G.H.G.H.m.n.I.H.G.A.G.m.z.G.V.H.G.G.z.A.G.G.G.G.G.n.n.P.G.G.G.I.j.!.&X&X&X&X&X&XC.C.C.k o.F 3XP ",
"J H 2.w U.l.w.pXiXa.pXbX).{.z.A.V.V.n.H.c.z.G.m.A.A.G.c.j.G.V.V.A.A.d.m.G.A.G.A.G.z.z.G.m.G.m.H.c.Q.%X%X%X%X%X|.z.m.C.B.o.G [ P ",
"I H 0 w C.1 u.pXiXaXpXyX1 M.d.v.q q l.b.d.d.z.d.d.z.z.l.4 b.l.4 z.z.d.l.z.b.4 k.b.k.l.b.l.d.d.z.k.k.m.m.j.j.V.j.d.z.M.1 =.4.S Y ",
"2XH #.D.P.3 .XAXmXpXyXu.S.P.J.J.N.S.K.F.K.K.K.F.v.K.F.K.K.L.L.h L.L.K.F.K.K.b.F.K.F.K.F.K.v.v.K.J.J.J.G.V.b.F.K.H.G.I.B.o.4.3X1X",
"` ( #.j S.3 y.bXuXs 2 j S.F.v.F.h l.v.F.v.v.n.l.4 v.c.m.v.S.N.5 F.m.v.m.b.V.5 b.v.v.v.F.S.l.l.F.Z.S.F.V.x.q V.m.v.N.J.j o.G } 1X",
"B ( a e F.h 8 >.i 3 v.A.v.4 x.c.v.b.v.v.h.H.{.{.[.{.{.Q.h.v.v.v.c.n.l.[.[.[.Q.[.{.V.h.v.v.v.v.Z.h h v.c.c.x.c.c.4 v.v.e $./ P U ",
"_ H @.D.H.I.w j L.L.I.U.P.v.H.C.G.G.H.H.c.{.;X&X&X&X-X XN.F.G.H.I.C.V. X-X;X&X-X-XQ.n.I.H.I.G.K.S.b.H.G.H.K.I.H.V.F.F.-.%.H S T ",
"Y H 0 w z.M.4 x.v.z.M.M.m.d.j.c.n.c.n.c.f.C.!.!.!.!.!.I.h.c.c.c.n.M.f.Q.{.Q.{.Q.{.n.f.n.m.m.c.b.h q n.z.c.c.z.z.5 V.m.e o.H S K ",
"I G 9 j N.n.c.v.A.d.z.c.v.m.m.v.4 h.m.n.n.c.n.f.5 j.z.z.c.v.c.4 v.j.z.z.z.c.6 j.c.c.n.n.c.4 d.m.v.m.M.n.z.h.m.n.n.c.G.w o.E 3XN ",
"2XG @.x K.G.P.K.J.b.F.P.K.(.J.K.F.F.K.G.K.G.H.G.N.Q.I.G.K.K.L.b.L.P.I.I.H.L.c.H.H.H.K.G.E.N.m.J.K.P.I.H.S.b.K.H.P.G.I.B.=.E [ :X",
"I 4.@.3 v.b.4 b.b.5 q l.b.l.l.v.4 4 b.x.x.h b.l.5 l.c.l.x.h h 5 b.l.l.l.l.b.5 q b.q x.x.b.5 4 b.h h x.x.h w x.x.4 z.v.e = E { U ",
"` H @.j S.m.4 v.S.S.S.N.F.l.b.F.S.Z.S.S.h b.F.v.F.N.S.b.h S.S.S.S.v.q N.N.v.F.v.N.q l.S.F.v.S.S.b.q N.N.N.N.N.v.h F.Z.k o.4.T _ ",
"I D #.x L.F.b.F.L.L.V.H.P.z.A.G.K.L.K.L.v.v.J.J.J.F.K.Z.b.F.L.J.J.P.l.F.J.J.J.K.F.v.Z.J.J.J.J.K.A.v.H.C.L.K.L.F.Z.(.(.x +.( P _ ",
"<X] 9 8 j b.5 h b.l.c.z.z.f.z.n.l.l.v.v.l.l.c.z.z.c.v.l.l.b.v.l.z.n.d.c.c.c.d.z.v.l.z.m.v.k.z.m.z.d.z.n.b.h l.b.5 b.h 8 n  .} I ",
"5XH 9 2 3 1 3 1 1 1 l.c.M.M.M.m.h.j.M.C.n.n.M.z.f.c.M.M.n.n.c.5 n.M.M.M.M.M.f.j.C.M.n.m.n.j.j.M.A.m.M.m.l.6 1 1 6 1 3 2 +.H ) ) ",
"S ( p ;.'.'.0.'.'./.).).].[.].].).).].].].].].).E.].].].].].].E.).).].].).[.L.).].].].].).E.E.[.).).).[.)././.'./././.z +.6.D _ ",
"{ ( - & q.9.9.q.q.7.q.z z l e.0.0.8.8.8.8.8.0.l l z 8.l z 8.l l 0.0.l 8.8.e.l 0.8.q.8.8.e.8.l q.q.q.z l l 8.q.8.0.8.e.& M / ' ' ",
"T  .~ O # # o o o o o o o . # X o o o o X o + + o X # # o o X # + + X o o o # o X o o o o + o X . o X + + # # o X o * o b  .} [ ",
"W T ~ O > ; y : y y > > > > y y > y y y y y y y y > y y > > : y y y : y y > y : : : y : > y y > : : y y y y ; > > > ; < X.) 1XJ ",
">X} ..M < * * # + + X X X . X X X X X X X X X X . X X + X X X . X X X X X X X X X X X X . . X X X X X + X X . * * * O ! ..B V V ",
"L [ L  .+.,.u z w.1.:.1.:.1.1.:.w.w.t.:.:.:.1.1.1.1.:.:.:.:.t.1.<.t.1.:.t.;.y.:.:.y.;.1.t.t.w.t.t.<.1.:.w.w.y.f f r.n ( } ) _ I ",
"A ` P 6X=.,.f uXDXlXkXkXkXkXjXgXjXkXjXlXkXzXkXkXkXgXkXzXkXSXgXjXjXgXxXkXjXjXjXzXkXxXkXgXgXjXjXkXgXgXjXjXkXjXnXqXi ,.m } ' [ [ U ",
"5X_ L G $.,.9 sXhXCXBXMXVXCXBXCXVXVXBXVXCXhXxXBXMXVXBXxXVXfXCXfXhXVXxXxXVXMXfXBXcXxXCXBXBXBXBXBXCXCXzXVXBXBXDXsX8 ,.3.} L P [ 2X",
"5XL L { $.,.a dXCXfXhXgXdXlXdXdXdXgXdXlXkXhXhXfXMXMXhXhXzXxXhXBXBXhXcXxXMXMXMXfXZXhXgXlXlXdXlXdXdXlXdXgXCXfXxXqX8 ,.3.} P [ _ L ",
"' L 1X6X$.&.a dXSXzXdX2.7 i i s i u u & .XgXSXhXhXCXrXoX$X$XOXoXOXoX$XoXrXMXNXNXBXkXy.% s i i s s 7 7 ;.dXSXCXdXi ,.( ' L Y P P ",
"A P L | %.,.a uXSXgX;.+ & * * d & * & ; . #XSXhXCXrXW._.k k k Y.k k k W.W.lXBXNXxXoXX y * & & g # & ; X y.kXCXqXs r.( ' T Y Y _ ",
"} U L 4.=.*.0 dXSXgX7 y r ; : y ; y & & % y.jXhXCXOXR.W.E.E.E.E.E.E.E.Y.R.OXBXfXVX_.# y r & d d ; ; y * <.lXVXeXi r.m ' 3X1XU J ",
"[ U P / $.*.a dXDXdXf u y g d 7.u u u u % .XzXxXxX0X-.R.-X|.=X=X-X|.=X}.Y.0XBXBXzX.X* 7.d d g f d g d y <.lXDXqXi r.m D Y K U 1X",
"} _ P | $.*.a uXDXlXs u d y y f u u u u $ .XnXxXCXOXY.E.|.g.!.%X!.j.|.}.Y.0XCXfXzX.X* g d u d f y u d & <.gXCXqXi r.( 5XY Y _ U ",
"P A J / %.*.0 dXSXdX7 & * & & u & & & & + y.jXxXBX0Xk E.-X!.!.%X|.{.%X}.Y.0XhXBXjX_.# ; & & & u * & > + 2.lXCXqXi r.! F [ [ [ _ ",
"P _ _ D $.,.a dXSXjX.XX & & % u & & & & X qXDXhXBXOX-.E.-X{.|.&X{.|.-X}.R.0XBXNXhXqXX ; & * & g % % 7 X .XhXBXeXi r.( D [ R [ [ ",
"} 5X4X] Q ,.s uXzXkXgXXX;.:.;.t.t.t.t.f qXnXjXhXVX0Xk E.}.6 !.&X!.6 }.}.-.0XVXfXMXgX0X;.w.t.;.;.;.t.;.XXjXjXhXeXi r.! ' P [ U I ",
"} [ [ 4.%.,.p dXSXzXjXMXzXjXjXgXfXfXfXMXSXkXzXhXVX0X-.T.+X%X%X%X%X~.~.~.-.0XMXMXhXjXnXjXkXgXhXxXkXjXkXSXhXBXDXeX8 ,.m ' P [ _ ` ",
"L I _ { %.,.u sXnXVXjXzXzXnXSXVXCXVXBXBXBXjXDXnXSX$X-.E.=X%X*X*X^.~.|.E.-.0XjXSXSXnXjXDXCXBXCXhXSXjXSXDXSXgXFXsXi ,.m P | P P _ ",
"L U U G Q ,.f `.#XXX#X@X@X#XXX@X@X@X@XXX#X@XXX#XXX>.W.E.&X*X^.^.%X%X|.}.W.>.XX#XXX#X@X@X@X@X@X@X@XXX@X@X@X#XXX_.c ,.m F 3X1XU J ",
"2X_ A G $.*.&.@ $ $ @ $ @ $ $ $ $ $ @ $ $ @ $ @ @ k E.V.=X*X*X*X*X*X%X|.'.c @ @ $ $ @ $ @ $ $ @ $ @ $ $ @ @ $ $ z r.m ' L 1X4X:X",
"V 2XP ] 3.&.;.;.`.e.e..Xz y.`.>._.w.;..Xw.w.u.;._._.E.E.=X*X*X^.*X*X&X}.E._.y.;.`.e.e.`.q.u.`.l _.w.;..X;.w.`.>.;.,.! / I L :X:X",
"C ` ) ( 3.*.#.7 f s p f 7 a s 9 a a 9 @.p p &.p s :.R.D.+X|.%X%X%X%X+X]._.c a p f p p s p p a i s s p &.p p s 9 #.*.5.| <XL C :X",
"I U T 4.m $.n = +.+.Q +.$.n n n = +.Q n n n Q n +.= 7 1.OX$X+X+X$X+X$XXX9 9 n n n +.+.Q $.n n n = +.n n Q n n = o.$.( ) ` ,XJ J ",
"U P S ] m m ! 3.5.! 3.6.( 6.6X3.5.5.3.! 3.3.3.5.M wXAXbXbXvXvXvXvXvXvXbXAXwXm 3.6.H ( 6.( 4.6X3.3.5.3.m ( 5.3.3.! M / } I V J K ",
"P P Z T T ] |  . ./ F ' ' ' ' G D  .4.| ' ' D ] v 7XmXGXJXJXKXKXKXJXJXGXmX9XF | { S Z { ' }  ./ G  .| } '  ./ / /  .| _ ` U 3XA ",
"_ 1XJ 1X[ L [ ) _ 3XB U [ 1XA T | } P L A 1X_ A 3Xv v 9X8X8X7X8X8X7X7X7Xv v 3XU U 4XK Y [ 3X) ) 1X[ P U V _ ) D [ [ L L 3X[ { [ ",
"` ` U _ _ J ` ,XI I V L N 3X6XT [ } _ _ J _ U A I 5X2Xv v v ^ ^ B B v B <XI <XI [ K K T Z } 6X' } 1XP U V U P A J 2X[ J L U U } ",
"I ` ` B I U ` I U J V 4X[ P A L _ 2X1X1XL L U _ _ _ 1X4X2X<X2X` ` <X<XI V ` I U _ A S { { D L L P 3X4X[ J I U U I ,X} 3XU 3XP [ ",
") P P _ _ _ P 1XU J _ 3XU 3X) P J :XC 1XP U L [ [ A } } A _ P U L ` L _ _ _ L } [ N | { [ } U P A 1XS R U _ J U ,XV } { L [ P _ ",
"[ P ) } } P A J P _ [ [ B 3X) I ,X:XL U P [ A P | S Z { [ P R Y [ U L 1X3X[ A D P ) [ P N 1XU L _ 1XP P P [ A P 1XJ Z { ' I _ ) ",
"3XP P U R [ [ R R [ [ [ L 2XI ` ` J ) P P | P } ' 3XD Y A Z [ A } P P _ _ [ [ } _ [ P 1XJ ,XI I I L _ P L 1XL } _ 3XL P A B 1XL ",
"J L 1X[ K Y R R [ Y [ [ 3XU L 2XL A ) ) ' | ' } D P P 3X3XU U P L L _ _ P R } U _ I ` 1X3XI I ,XV B ` I U 3X_ ' L U P 3X3X_ ` U ",
"U L _ 1X,X1XL N K Y [ Y [ P P [ 1XT P T [ [ [ P 3X) ) } 2XI L ` U U 2X2X_ Y P N I I 1XJ _ P ) ` 2XU I I _ [ _ L 3X) U 1X1XL A [ ",
"U I _ 1XI L J U U [ P P P [ P P 3X} K Y R Y } [ B ` _ ` ` ` ` ` _ P ` 2XU P P P U ` ` J _ [ L I 4X1XJ I _ ` 2X_ A ) _ U _ U [ U ",
"L J A U L ,XL U 2X1XP _ _ [ P L U [ J U _ L _ 3X1X[ U P U L U P L L L ` L U T U 1X,XU P 3X{ P K R R J U U P 1X1X} } U I _ P [ P ",
"| 3XL L J 5X` I ` 2X1X_ U P P P 1X1XL _ 1XU J U L L 1X1XP N Z K 3X3XL L A 3X} L _ 2X1XU R S T K 3XR K >X[ P L L L L 2X,XI N Z K "
};
