/* XPM */
static char *cbe74ec3b9f948e2aade5a12275685cc[] = {
/* columns rows colors chars-per-pixel */
"64 64 243 2 ",
"   c #0B0B00",
".  c #070700",
"X  c #130100",
"o  c #180800",
"O  c #0A1300",
"+  c #1B1201",
"@  c #181503",
"#  c #230903",
"$  c #241403",
"%  c #291405",
"&  c #221903",
"*  c #25140C",
"=  c #2B150C",
"-  c #2B1A0B",
";  c #291B07",
":  c #32130B",
">  c #341909",
",  c #2D1B12",
"<  c #2A1611",
"1  c #331B13",
"2  c #351814",
"3  c #182902",
"4  c #1A3907",
"5  c #082300",
"6  c #35250C",
"7  c #27390D",
"8  c #382913",
"9  c #293B14",
"0  c #2D270E",
"q  c #441809",
"w  c #462918",
"e  c #542D18",
"r  c #45341A",
"t  c #523115",
"y  c #503629",
"u  c #751E1E",
"i  c #1C4A00",
"p  c #1A5A06",
"a  c #254907",
"s  c #374704",
"d  c #295705",
"f  c #294816",
"g  c #344818",
"h  c #2C591B",
"j  c #32551D",
"k  c #385808",
"l  c #1B650C",
"z  c #1D6A0E",
"x  c #176A07",
"c  c #1E6C12",
"v  c #1C6916",
"b  c #1D7213",
"n  c #1D7619",
"m  c #1C720D",
"M  c #26680D",
"N  c #33610A",
"B  c #236D14",
"V  c #2B6E15",
"C  c #256E19",
"Z  c #2B6E1B",
"A  c #266416",
"S  c #346818",
"D  c #247116",
"F  c #2A7415",
"G  c #257A16",
"H  c #267419",
"J  c #2A751B",
"K  c #257A1C",
"L  c #2C791E",
"P  c #2A7A16",
"I  c #32751D",
"U  c #327B1D",
"Y  c #377A1C",
"T  c #355A23",
"R  c #355225",
"E  c #296C20",
"W  c #3B6B2C",
"Q  c #376729",
"!  c #2C7522",
"~  c #267C22",
"^  c #2D7B21",
"/  c #297927",
"(  c #327523",
")  c #317D22",
"_  c #337E25",
"`  c #327D23",
"'  c #3A7C26",
"]  c #35752C",
"[  c #347D2A",
"{  c #3A7D2B",
"}  c #3B7429",
"|  c #397A32",
" . c #3E6C32",
".. c #494805",
"X. c #485D0E",
"o. c #505812",
"O. c #705010",
"+. c #586617",
"@. c #4A6E18",
"#. c #696A1A",
"$. c #5A4837",
"%. c #474F2C",
"&. c #794B2A",
"*. c #724E31",
"=. c #496D27",
"-. c #447927",
";. c #427934",
":. c #51702B",
">. c #6E6E26",
",. c #744648",
"<. c #6C5943",
"1. c #676A45",
"2. c #6D764E",
"3. c #892731",
"4. c #8B5B1C",
"5. c #8A4D1A",
"6. c #9C661A",
"7. c #8B6113",
"8. c #A76C1A",
"9. c #8E532E",
"0. c #976924",
"q. c #9B7439",
"w. c #907031",
"e. c #A36B28",
"r. c #A7742A",
"t. c #B6762B",
"y. c #AF6C35",
"u. c #C67D27",
"i. c #9B3A49",
"p. c #983A58",
"a. c #942C58",
"s. c #A4305B",
"d. c #B53B68",
"f. c #B0336E",
"g. c #942358",
"h. c #C63C7A",
"j. c #C53176",
"k. c #885257",
"l. c #914A56",
"z. c #AD5052",
"x. c #9B6A4A",
"c. c #906C59",
"v. c #AE6E50",
"b. c #994D65",
"n. c #A84667",
"m. c #B74675",
"M. c #B34F71",
"N. c #B76A67",
"B. c #946160",
"V. c #C54479",
"C. c #CD5272",
"Z. c #C96670",
"A. c #29821E",
"S. c #34801D",
"D. c #2D8224",
"F. c #2C8329",
"G. c #358126",
"H. c #348126",
"J. c #3A8225",
"K. c #358329",
"L. c #3A842B",
"P. c #3B892E",
"I. c #368A2A",
"U. c #3E8B31",
"Y. c #388632",
"T. c #43852C",
"R. c #418C33",
"E. c #448534",
"W. c #748431",
"Q. c #6C8345",
"!. c #938637",
"~. c #B28732",
"^. c #CE8C3B",
"/. c #ED9E3C",
"(. c #E89D39",
"). c #F49D3C",
"_. c #EDA23C",
"`. c #E7A23C",
"'. c #F3A13D",
"]. c #969747",
"[. c #8D944C",
"{. c #AF8F54",
"}. c #B2A656",
"|. c #B99364",
" X c #B3B368",
".X c #CA9445",
"XX c #D0944C",
"oX c #EC9D41",
"OX c #E59C46",
"+X c #F59D40",
"@X c #DDAB54",
"#X c #CDA64F",
"$X c #ECA444",
"%X c #ECA44B",
"&X c #E7A548",
"*X c #F2A342",
"=X c #F5A548",
"-X c #EAAB55",
";X c #ECAE59",
":X c #D59170",
">X c #E29678",
",X c #D1B469",
"<X c #E8B665",
"1X c #E8B974",
"2X c #E5AD6E",
"3X c #D9C371",
"4X c #ECC87A",
"5X c #BF3E81",
"6X c #D73F89",
"7X c #BF598D",
"8X c #C84686",
"9X c #D7478B",
"0X c #CB5585",
"qX c #D7548B",
"wX c #DC4B95",
"eX c #DB5695",
"rX c #E14A8B",
"tX c #E74A98",
"yX c #EC549C",
"uX c #E85798",
"iX c #F45499",
"pX c #EB5295",
"aX c #D56999",
"sX c #F0649A",
"dX c #E858A4",
"fX c #F55AA3",
"gX c #DD63A4",
"hX c #F766A8",
"jX c #FB69B4",
"kX c #FF76B8",
"lX c #E866AA",
"zX c #FF7DC9",
"xX c #D9B281",
"cX c #E6B581",
"vX c #EDC186",
"bX c #FF84C5",
"nX c #FC87CA",
"mX c #FF8CD6",
"MX c #FF97DA",
"NX c #FF92C7",
"BX c #FFA9E7",
"VX c #FFB5F6",
"CX c #FFA0DC",
/* pixels */
"H L D ^ ` _ C J ` G.G.` ` K.J H.^ K D.A.G G I.b K / D / [ / / / D ~ H ^ ` _ V I ` ' L.J I.D.K A.^ H ` ` H L L.C J ` B ) ` J L L ",
"B ) J G._ H ) ` K.K.J J J ^ J L D J L L K H.H.H.^ H D ^ ! ^ K.H C ^ J K.G.H ) ` ' L.H H K ^ K L D J L ^ L _ K._ L H C ) J ^ K.J ",
"L.^ D J ) D ` J H L D L J J ^ J ` L ) ! ! L.Z ` _ J.U U D L ` ` L.! B J ` D ^ D H ~ D L J U ` I ) ^ J L ^ G.H ) G.K.` L H L ` ` ",
"L.C J J J J ` ` G.^ J J J H.G.D ` D J J Z ( C ( ` ` U U P S.D K R.H L ^ ^ ^ H.H.H.^ H J ) ` { Z ` D H J H J B J _ _ ` ^ L ` J J ",
"^ D _ P.` _ ^ ` ` L ` J D L ^ H L D L J J J J ` ~ D ^ D.b G G K L D _ P.) ) J ) ^ J H.H H ^ ` J ^ D ^ J J J H ` J c ^ L D H J J ",
"J J C L.^ ^ B l J J G.J D J L J L L K J G.K J ^ ^ H / ~ K K G S.K J D L.` ` C B D J H.^ c ~ J ^ ^ J ^ H ` L H ^ ^ H ^ L J J J H.",
") G.J K.) G.L ` R.` J J L ` G.L D D G G P G K D J ( ! J R.L.F F L ` J G.` G.L G.P.H.H J J I.D.^ D D H J J J J H ^ ` J J R.P.H H ",
") J H D H L.D L.` J J ` G.J ` ` D b I.P.m G P D B J I B J D ^ _ ` L H H J K.D G.L K K ^ H.K D.D.D H K.U.B D ` D c H J D H H ^ H.",
"L.J L ) J J ^ H H c L D H G.J H D.D D ^ B J P.D U U U J.J J ~ ~ { L J ^ ~ D D K D M F J B ) ^ D ^ c J ^ H H K.J G.L ^ K.J J J ^ ",
"C B B J G.J D ^ L.G.G.L D L B J U.~ L.! ` M B ` U P D z K.[ [ | E ( v E Y.~ / H J.U S.U J ` l J U.H.H.J J D z ` L K.c c ^ ^ K.J ",
"H ` K.l D L.J P.L ` ` L.` G.J ` K.) ! ! { _ L L H J [ H ! ] | W Q h ;.] E [ ! L.L J.U J.G.H.J D.H.H.D ^ P.L ` L D ` ^ D H.^ ^ H.",
"` U.K.J L J J ` L G.H L ` G.J ` J J C R.L.J L.! ] ] Q h 4 4 4 4 3 4 j j Q ;.] [ J J.L D G.K.B H.H J H H.L.L G.J L ^ L L J ` H J ",
"G.J K.L.` ^ H H G.L.J D L J B D J ` H D G.H ] } T 9 O   o + X + & @   O 4 j T ] { ^ D.G K J H C J H.B L G.B ) J _ U.J J H J ` J ",
"B ` ` ` D J L.B ^ L.^ H ` J H J U z ` B C } T f O + - 1 1 : : > $ - - 0 @ O f Q | Y.K K D.H ! ! J c ` B H K.) L L L.^ H G.L J L ",
"D H ` J D J D H ` K.L J L L J H.b K G.;.=.g O & - * - % % = 1 * - % < # = -   3 ;.] ^ K D ^ J L.H H L.G.H J L.) L D H C L.K.H H ",
"L.` D B ` ^ c L J L J ` ` ` B ^ D.D.{ ;.g @ 8 % - - % , - & + - * 1 2 : = = & O a } ! H.^ ` H ( K.` ` L.L.B J P.) _ H J H ` U.` ",
"J L.H J K.` ^ H ^ L.L L P.` H ^ ^ H { T + w $ - % - % o   O @   $ 1 8 1 = - & O 5  .] J P.L F ` ^ c K.) H ` D.b G.L D F H J ^ D.",
"l ` J ^ ~ ! ` ) J L._ p ` J ` ! ^ C E 4 w q > $ % - X 0 7 T %.9 8 # w w % % * @ .  .;.p U U P F K.H J z C ^ D.L ^ l J.R.J L b ^ ",
"J J H J ~ U.^ ) L.I G.D.H.J L.J P ' h 7 w 2 $ - < X 6 2.Q.A W 2.r # w e % , * +   9 | { Y S.J.^ J ! ) J ` ` J ` ^ H ) J n ^ D J ",
"^ D.l ^ D H.` J J.B J I.L ` T.U F } %.8 8 = $ , * X <.1.S ] W g $ > w w : * < * + O W [ Y U P.~ [ ` J c L ` J ) J J ! L ~ n B F ",
") J B ^ b K K ^ ) H D K D.L U I U S 8 w 8 $ - * + & 1.g ;.W g 3 $ r w 1 1 * * * o 3 Q | J ^ ~ / C ` L.^ J J H J H H Y.~ ^ D.J.M ",
"` G.B K.D.n F.K ` ` D ^ K H.I V ' S $ t 6 & - * * @ O 7 =.7   & 8 w ; % , * + + @ 3 E ! K._ / v L._ H D J L.) B L.! D H D.J G.U ",
"^ ^ ` ^ K n A.~ J ( V ) l K.L.I L.=.; e w $ , < < * + + o X ; ; 6 - % - % $ * & . f ` L v [ E._ ` H.H D H ^ J H C E.! H ^ J H.H.",
"L J U C K n ^ H ) V C L.H.H H I ' :.8 w e > * < , * - ; : 2 % & % = % - % $ * X . g a h  .W S Z J L.I.H.P F H ` ! { Y.K.J L.J K ",
"V I I Y J J J _ ( C [ K.D.Y.` p i s o y e > $ - * , - % : : 2 < : : : < # , X $.<.e ,.$.1.=.A [ ! ^ D I.P G L L ` B { L.C ^ H L ",
"L.I V ' J.J B B J ! [ ^ B V i :.[.{.*.o q e $ $ * # > > : : = 2 * 2 * * 1 X e c.l.b.p.p.B.c.1.7 Q E.H ~ D I.M P K.J B ' ! J ^ H ",
"G.J D K L U G.' ` ` ` -.d +.].,X<X<X{.t *.o r 8 1 2 : = % - , * , 0 + + X t x.z.i.f.aX7Xg.m.n.l.$.g ] v H H.F U H K.C ( ^ c ^ H ",
"D K D.K K L G.J _ J ' d W.3X1X;XOXOX<XXX|.{.X # X # 2 > > 6 % - X X + ; *.x.x.i.h.f.nXBXdXj.h.m.l.y Q | ! L.U U L J ) L.^ J ` H ",
"L J I.I.H.D H c D _ N W.3X<XOX%X$X$X&X@X{.,X|.w.x.*.X X X X X X *.&.w.w.q.x.p.s.uXuX5XjXjX9X9Xd.n.k.%.=.} [ ^ D L J ~ F.L.! D ` ",
"^ H J D.H.K K K D.I @.,X<X%X=X'.(.'.(.-X<X{.XX2XvXcX|.|.|.|.{.|.cX:Xq.x.9.l.d.MXfXjXmX6XwXjXbXh.V.n.k.%.;.^ I.D.V ` K K ` H J ` ",
"H J J J F U J H J.N !.4XOXoX(._.'.*X%XXX.X@XXXt.{.,X,X4X1X<X1X2X:Xv.z.u a.qXeXMXhXkXMXtXfXfXfXyXwXf.M.,.R / n I.` J D.D.H J L.B ",
"H.H.H D F ' ` L I @.,X;XoX=X_._.*XOX~.6.O.r..X@X.Xr.7.8.8.8.t.y.5.u 3.NXbXwXuXqXpXrXh.V.wXyXfXyXdX9Xd.l.R | K K F J D.^ ^ z l J ",
"K K b K ) { Z ( B @.,X-X$X$X(.=XOXr.#.+.X.s ..}.@X-XOXu.t.6.4.5.9.z.d.MXMX9XuX9XuX0Xi.i.s.hXbXwXyX9Xf.M.$.h R.x K ` D J ` J ^ L ",
"c L G D.` ( } ;.d [.<XoX$X$X*XoX^.7.>.=.-.:.s w.@X$X_.=XOXt.0.9.z.Z.uX6XwXwXzXbXeXp.&.N.i.d.qX8XyXmX8Xn.,.%.-.S.L H H ` J ) I.D ",
";.` D G ` I ( } 4  X<X$X$X`.*X%X^.r.o.k S N s ~.-X_._.*X%X.X4.N.N.0XyXfXtXtXfXmXhXn.8 1.x.3.aXkXsXhX9Xm.b.<.S A.D.H.^ ^ V U ` H.",
";.E J P I I I T.d }.<XoX$X_.*X*X%X.Xw.#.X.W.#X@X&X_.'.(.-X.X5.:XN.0XrXnXzXtXdX9XuX0Xy r v.3.aXBXuXrX9X8Xl.y p D.D.D./ ^ J ` J ^ ",
"] ! ' T.` H.J T.N >.<X%X/.'._.'.=X$X@X#X#X-X-X$X_.'.+X=XOXr.4.{.N.C.pXjXzXtXiXfXyXwX0Xn.z.M.uXfXpXiX8Xs.b.$.h I.J c / D.D J J ! ",
"/ ! V ' ` L c B V k ,X;XoX'._.'.).).=X`.$X*X(.'.'.).oX=X^.e.4.XX>Xz.iXtXjXuXyXrXtXjXuXuX0XqXyXrXyX9Xh.CXb.y h [ ~ H ~ ~ P I J [ ",
"_ ^ L U H.H./ K.U.S ].<X-X*X'.).).*X(._.$X_.*X).*X/.=XOXt.r.4.v.:XN.qXjXBXqXeXbXuXMXbX9XdXuXyXfXuX8X9XNXb.$.h ~ ~ ^ H D T.J.H K ",
"H.H J z K H.! Y.F.B +.,X;X`.*X*X).)./.$X`.$X*X*X$XOX-X^.6.e.w.O.xXN.V.hXkXeXeXBXhXeXkXf.mXzXj.kXVXeXs.s.,.R ;.D c D ^ B J D ^ D.",
"L.J L H.K H ! ! E ! i [.3X;XOX%X$X$X$X$X&X$X$X$X&X-X^.6.r.q.w.O.1X>Xz.qXqXyXuXpXuXuXtX6XbXkXrXyXeX8Xf.M.$.T E.D G.L ^ K.J L P ` ",
"Z B z D D.^ ! ! Y.{ ' d ].#X<X@X&X&X&X&X&X$X$X%XOXt.e.0.q.w.+...!.cX>Xz.sXpXpXiXfXyXyXyX9XrXiXhXgXf.5Xl.%.E B G.F G.c c ` ^ G.F ",
"Z ` K.b K G.C E.! K.` T.k +.].#X;X%X&X%XoX=XoXu.8.e.e.q.>.o.@.-.k  XvX:XC.uXpXiXiXyXlXgXdXyXh.NXBXg.M.k.j [ J P D ` U F { ` L A.",
"{ R.H.H J L ! ` L L ` H T.-.a +.!.#X#X#X#X~.r.0.0.w.>...s =.` J -.@. X1X:XC.C.uXiX9XmXVXdXtXuXqX0Xn.k.$.;.H.L.G L L I I ( ` D P ",
"H.J K.K.^ ^ J H L D.H H J ) Z d d a d :.W.#.#.>.X.N S M S I C _ L.N +.}.>X>Xv.z.C.9XlXgXdXdXtXh.n.B.%.T Y.x B Y ` T.J J J J L G ",
"z J H.Y.H D [ C D.P.^ D I.K C ! ~ ^ ^ l l S h d } L.^ K L._ ` ! B I S X.>.{.xX:XN.Z.C.m.M.s.s.p.,.r W ! n I.J.F U L.) J K.L L L ",
"F F ~ n C ( ! Z _ D ^ J D ` _ [ J H H.P.` ' -.T.J D D D [ L.D C J ( ' V p d Q.{.xX|.&.&.9.&.. 9 f W E.` K L ` ` J D C B K.H.H H ",
"T.U n n [ ( A ` D L ^ ^ ` J C ) ^ L.~ L.L.B J K.~ K.H ! H K.P._ L.[ D D D.^ i s #.o...o.o.o.S [ Y.K.L P.P.c J K.K D.! ^ H I.U.) ",
"L G.H D L.` ` C J L.J J R.J J _ _ H ` ) H J _ C K.H H D H J ^ H.J K.J D H.` { I N S S S -.S ( K.^ H K.) H L K.D H.^ H H H H ^ G.",
"l ^ L L ) J _ ) L L.) p ` L ^ J ` H C B H ) _ J L z H.P.J H H H z ^ J L ` J ` ` ` R.` l ^ ` ^ J ` D D B J ` _ J L l K.P.H ^ D ^ ",
"J J J L L R.` ) L.J G._ ` ) ` ^ H ) ) H ) ^ J ) K.H J ^ J ^ c K ^ J H L ` R.^ J L.J G.` ` ` G.^ J J ^ J ` ^ J ` K.H L L J L c J ",
"J ^ l ^ H ` ` J _ C J L.J _ L._ ) _ J C J ^ J J J J ^ H H J c H J ` z L D ` ` H G.c L K.L ` P.` ) ) J C J J J ` H ^ L J J D B D ",
"J H B ` B L J ) ) J B H _ L ) H C ^ _ ` J J J H H J ` ` ^ ) ` B J J B ) B L J ) _ J B L ) ) ) D B L G.` J L J J H B K.^ ` ` ^ D ",
"^ H.c L.` J L.J ) _ C J ^ ) ` D L.` H H H _ ` H G.` J J G.` L.^ _ _ z L.` J G.L ^ ) C ^ L ) ` D L.` J D J K.` B G.` J H G.` L.` ",
"L ^ ` ` L J L L H ^ C L l L.L.) L ` ` L H L J D H G.^ J ^ J J _ ` L L ` L H J ^ J ^ J J z _ U.J ^ H.` J H ^ H B H P.J J ^ D L _ ",
"J J J D J J ^ J ) C C G.` J B J ^ L.` L J ) J ) J ` K.` J K.` J J L ) D J J ) J ` C B K.^ L B J J K.L.^ J L J ` J ` L._ J P.L J ",
"L J J ^ L L J H.L D ^ L.J L.J J D ` B G.L L H ^ ` D _ _ H ) H ) J L F ` L L H G.) z L.G.) G.^ J B H.D ^ L ^ D ^ ` B _ G.H ` J ^ ",
"` J L G.H.L B D J ^ ` ` z L.J H ` ` H L J ` B J L.B z K.J H _ J ` L H G.G.) B C J J ` L z _ ) J ` H.H J J ` B J G.D z _ ) J ) J ",
"L.J J J ^ H.^ ^ ` ` ^ ` H _ J L J D J J H G.J ` J P.H J J B L C G.L J L L ) ) ` ^ ` J _ C ` J J J H L J H G.H ` ^ L.H J B B _ H ",
"D H G.` H J ^ ^ ` J ` ` K.J H _ D B L J L G.L ` L L J K.G.L ) L H J ` ` J L ` L ) J ^ G.K.J H ` D c L J J G.L ` J L J L.L.^ L J ",
"^ J ` G.` ` H l H J ` J ` J J ) G.L J L ` ` ^ J G.J ^ L.K.J D ^ L J G.L.` L J z J J G.H ^ J J ` G.L J J ` ` ^ H K.L L G.G.H B ` ",
"L J ` K.J H H ^ J ` J J J ` J H L._ D J L J ` ` c ` L D ^ J ^ ` ` J ^ G.L J J J ^ ^ ` B L ` H J L.` D J L L G.^ c L ^ L ` L ` L ",
"H H B L H ` H J K.H.J ^ ) _ J H ) ` D L L J ` K.` L L ^ J H ` D H D H L H L L L G.G.L J G.` J D ` ` D L L J ` G.G.` L J ^ J ` J ",
"G.K.H H D P.^ J ^ H.G.` L J J H G.G.J ` _ J H J H J G.` L z c J K.G.J D D L.` H ` L.G.L ` D L J K.` J ` ` J H J H H K.` J z B J "
};
