/* XPM */
static char *_af3727dc20340e4b5472c287c876649[] = {
/* columns rows colors chars-per-pixel */
"64 64 245 2 ",
"   c #010401",
".  c #010806",
"X  c #020717",
"o  c #0D1208",
"O  c #173012",
"+  c #313109",
"@  c #00112A",
"#  c #0E2B31",
"$  c #293121",
"%  c #185A08",
"&  c #1D500F",
"*  c #285803",
"=  c #355B02",
"-  c #2A540B",
";  c #1A650C",
":  c #1D690E",
">  c #186708",
",  c #1D730C",
"<  c #1E6C11",
"1  c #1B6A18",
"2  c #1E7213",
"3  c #1E771C",
"4  c #22650C",
"5  c #296809",
"6  c #356409",
"7  c #28730C",
"8  c #266415",
"9  c #226D13",
"0  c #236D1B",
"q  c #2C6F1B",
"w  c #2A6916",
"e  c #336A19",
"r  c #257216",
"t  c #2A7414",
"y  c #247A14",
"u  c #2A7A15",
"i  c #267419",
"p  c #2A751B",
"a  c #267B1C",
"s  c #2C791D",
"d  c #337415",
"f  c #31741C",
"g  c #327B1D",
"h  c #357918",
"j  c #31720C",
"k  c #2F4F29",
"l  c #1D6E27",
"z  c #356826",
"x  c #2B7522",
"c  c #2E7C21",
"v  c #287726",
"b  c #337523",
"n  c #327D23",
"m  c #3B7C24",
"M  c #32742A",
"N  c #347D2A",
"B  c #3B7D2B",
"V  c #3C7423",
"C  c #2C7833",
"Z  c #367A33",
"A  c #2E692E",
"S  c #4B7112",
"D  c #465A3B",
"F  c #42782B",
"G  c #456637",
"H  c #467937",
"J  c #537631",
"K  c #637B23",
"L  c #6B7132",
"P  c #635416",
"I  c #053553",
"U  c #38785B",
"Y  c #346F4B",
"T  c #337B65",
"R  c #306374",
"E  c #27526B",
"W  c #4E744B",
"Q  c #6E7064",
"!  c #4D6C5E",
"~  c #907A31",
"^  c #977041",
"/  c #2C811C",
"(  c #218115",
")  c #34821D",
"_  c #3C831D",
"`  c #2D8224",
"'  c #268322",
"]  c #348125",
"[  c #3B8323",
"{  c #358329",
"}  c #3A842A",
"|  c #3C892D",
" . c #368A28",
".. c #3C8C32",
"X. c #398434",
"o. c #4F881E",
"O. c #6A881B",
"+. c #43862B",
"@. c #418C32",
"#. c #428637",
"$. c #5B8434",
"%. c #66872A",
"&. c #678A38",
"*. c #709532",
"=. c #7BA235",
"-. c #3B815E",
";. c #398277",
":. c #4F8449",
">. c #6C8F4A",
",. c #45856C",
"<. c #789272",
"1. c #879A36",
"2. c #90932E",
"3. c #A59831",
"4. c #97A83A",
"5. c #ACAA39",
"6. c #9C830F",
"7. c #D5B737",
"8. c #C8AB30",
"9. c #E4BC39",
"0. c #E0AF2C",
"q. c #D1A621",
"w. c #F6CC1D",
"e. c #F9CA27",
"r. c #FDD224",
"t. c #FDD32B",
"y. c #F5D22A",
"u. c #F7CB36",
"i. c #ECD43B",
"p. c #F5D332",
"a. c #FDD33B",
"s. c #F9D638",
"d. c #EDC632",
"f. c #88985B",
"g. c #89914B",
"h. c #B69E49",
"j. c #95AB45",
"k. c #B4B252",
"l. c #B38866",
"z. c #99AE6B",
"x. c #A8B46F",
"c. c #C3BA55",
"v. c #D9BA58",
"b. c #D0BB48",
"n. c #E5BA46",
"m. c #E7BD51",
"M. c #D6BD66",
"N. c #CCBB6E",
"B. c #D9A573",
"V. c #B1C153",
"C. c #D6C849",
"Z. c #D6C758",
"A. c #CACA52",
"S. c #EBC946",
"D. c #F4CC44",
"F. c #EAD848",
"G. c #F9D548",
"H. c #E5C855",
"J. c #E9D657",
"K. c #F2D653",
"L. c #DBC776",
"P. c #D3CD6B",
"I. c #E6C869",
"U. c #EECF72",
"Y. c #307891",
"T. c #1976AD",
"R. c #267CB8",
"E. c #317EAF",
"W. c #467B93",
"Q. c #2A7EC3",
"!. c #3D888B",
"~. c #3E909C",
"^. c #3583AB",
"/. c #2885B9",
"(. c #3885B7",
"). c #3B94BD",
"_. c #3E94A1",
"`. c #438E95",
"'. c #49959A",
"]. c #408A8B",
"[. c #4789A9",
"{. c #4996A5",
"}. c #4495BB",
"|. c #4C92A8",
" X c #70A4BB",
".X c #2E8DC5",
"XX c #2C86C6",
"oX c #328DCB",
"OX c #368AC6",
"+X c #2E93CB",
"@X c #3C94C4",
"#X c #3392CD",
"$X c #3499CD",
"%X c #3894C7",
"&X c #2F95D4",
"*X c #3494D4",
"=X c #349AD4",
"-X c #3898D5",
";X c #348CD1",
":X c #34A1D9",
">X c #4599C8",
",X c #469BD6",
"<X c #519DDB",
"1X c #47A3D5",
"2X c #50A1D0",
"3X c #6DAFCF",
"4X c #7DC3E5",
"5X c #8EB28E",
"6X c #B3BD8E",
"7X c #CDBA89",
"8X c #ADC78F",
"9X c #B6D7AF",
"0X c #D9D597",
"qX c #DBC983",
"wX c #F4D586",
"eX c #EAD898",
"rX c #F0D192",
"tX c #FCEA99",
"yX c #D2D3AE",
"uX c #E5D8A6",
"iX c #E6DDB5",
"pX c #F7E6B9",
"aX c #F0EAAF",
"sX c #D6E9B3",
"dX c #89C5EC",
"fX c #9DC7D7",
"gX c #CED8CD",
"hX c #E9DDCC",
"jX c #D5EFCC",
"kX c #E7E5DB",
"lX c #FFFFDE",
"zX c #FBF8D5",
"xX c #F4EDCF",
"cX c #D3ECF3",
"vX c #E9E9E5",
"bX c #FEFCE3",
"nX c #FFFFEC",
"mX c #F7F6E9",
"MX c #EAFEFF",
"NX c #EDFFF4",
"BX c #FCFCF5",
"VX c #F5FCFC",
"CX c #FDFDFD",
"ZX c #F6F8F7",
"AX c #F0F1EB",
/* pixels */
"r g p s n n r p n ] ] c n ] s n x x c n p a ` , f V z H :.C 3 ( r u 3 ' g h t s c N B b N ] y / s r ] n p s } 9 s n 9 s n p s s ",
"9 g s n ] r n n { ] p i s s s c i x s c c { ` s e J L >.J e t 7 t s a ` ] t g s { { x p p s a a r p s s s ] ] n s i r n s n { p ",
"} s r i n r n p i p i p s s n p c s a r i B p m >.g.2.3.5.5.1.6 B x p r g p s s i s r a s s g s g c s s s ] i s ] ] n s r s n n ",
"| 9 s p s p n n ] s p p s n { r  ., y s p f 4 $.*.h.H.K.G.K.Z.j.F b i p s i n n ] a y y a ] [ r n r p p r p 9 p n n n s p n i p ",
"n 9 ] | ] n s ] c s ] i r s n r y a s r r m 4 %.Z.S.a.p.p.u.s.J.*.* } } n } p n c s ] t r s n r c r c p p p i n p 9 s n r p p p ",
"p i r ] n s 9 : i r } p r i c s a a p p { d 5 4.F.t.t.y.t.t.r.i.V.* g ` n N 9 < i p n s : s s s n s c p n s p s s i s s s s p n ",
"n n s n n ] s n @.c s r n n ] s t r a v ] j S A.i.r.r.r.r.r.r.p.C.O.5  .{ x } N @.n p s i ] n g r r i s s s s i c c s r ..{ i i ",
"n s p 9 p { i ] n p p c { p ] g r r { ..i > O.A.s.w.r.t.d.u.i.F.Z.1.* r a | 0 m n p a / ` a n m 9 r { ..9 r c r < i s 9 s r c n ",
"} s s n p p s i i : s r i ] p r ` 2 p m r 5 %.V.i.y.a.S.I.rXL.qXaXsX>.% n s p i t 7 y , 2 ` p q ] < i c r i | r ] s c { s s i c ",
"9 9 9 s ] p r s } ] ] s i s < s ..c [ d p w * V.F.u.d.U.zXbXpXiXbXbXsXe m p 9 s ) u  .y a c 4 f @.] ] s s 9 < c c ] r < n c ] s ",
"i n ] ; r } p | s c n | n { s n { n t h } } * 1.F.G.H.tXbXBXnXxXxXbXjXe 8 ] g  .s ] s  .` s n n ] n r c } s n s r n c 9 n n s ] ",
"n ..] p s p p n s } r p { { r n c p u ) { m b K 7.G.H.L.pXbXlXuX7X0Xx.% n s 9 s p n p i } { i ] s p p n ] s n s s s s p p n r p ",
"] p ] } n s r i { ] p p p p i 9 s g , y ] 9 B K 3.n.G.H.tXpXwXv.I.Z.j.7 { v p b { N s i a a r 9 s n r p ] r s p ] | s p r s n p ",
"9 n n n r p } 9 s | s r n s r s p : / > a N B &.3.n.u.D.I.v.b.m.n.b.*.5 i x B 9 n @.i r / 2 i p s 9 n 9 p } s s s ] c r ] s p s ",
"r i n p r p r i n ] c s p p s ] r t } ` v v X.$.2.7.u.G.H.M.wXU.wXtXx.* f 0 x 0 c s g t s ` s { r p } n p s } n s 9 r 9 } } r i ",
"} n r 9 n c < s r s s n c c 9 s ] ] s ..X.1 Z e j.7.G.d.v.wXwXrXrXeX0X&.8 b 0 x B F V n n s r c n { s | @.9 s | n n p p r ] | n ",
"s { w f n ] c i s | n x X.` u s s r ] c i c m 5 K 5.K.9.U.rXrXrXrXeXuXz.8 n n H D D W H } g i ] n 9 n s i n n 9 ] s r i i p n n ",
"; n f m p s ` c s +.m ; N 0 n t g r p > s s m F = 1.J.n.L.7XrXrXqX0X6X&.q p B :.$     G H 5 ] 2 n i s 9 9 n n n c > ] ..s s 2 c ",
"a a p s f @./ a } p m B x X.B b b g s n n c h h 6 j.J.m.^ ^ l.l.x.f.V j g } H G   ! k   J $.4 { i s n i n n p s c r s s r s r i ",
"' ' > s t g / y ) r b } v { #.M f g s r 0 { t [ * j.J.n.B.B.P l.z.- q s 9 m &..   Q Q   P z.>.9 c n s 9 i s p n p p s s c r < i ",
"a y < s r p u u s p 8 s ] r ; n n s c ' ' i ' 4 >.k.S.G.m.U.U.qX>.e p N % S k.~       L h.P.z.w b c c c c c p r i p | s s ] ] < ",
"/  .9 n n i [ u s { i f j o.*.* 6 +.r ; i ` v 8 yXeXI.H.v.v.I.k.f.F 0 X.#.* k.L.^ + o h.U.h.%.8 m n p s p n s r { p r p ] s ] c ",
"a ' n b v i s g p x v 4 j.c.Z.c.K = S &.d +.% >.nXmXzXiXuXN.I.I.sX5X8 0 Z f S P.U.7.7.K.Z.K e N n n p p r s p r r | s p s p n n ",
"y s x 0 x x x s n 0 3 d j.b.q.H.Z.3.c.P.&.f & <.vXCXCXCXBXuXI.M.yXgXW :.& 8 6 j.F.a.a.F.4.= h r s | ] n p s p s p n } ] p } p p ",
"t i v N v x p N v i c +.6 k.7.9.D.S.K.c.S z 6XgXkXkXAXCXvXmXaX7XhXgXAXjX9X<.= 5.F.p.s.F.=.7 f s 9 c r ] p s i c c 9 ] ] p n i n ",
"_ p i { B b 9 9 i i } m % V.S.u.e.0.u.5.- 9XNXCXCXmXyXvXgXZXbXhXnXkXCXBXnX6X+ C.G.p.G.C.o., ] p n { i i s n : p } i 9 ] p p { p ",
") t i f b n ] ] n n c { 4 %.C.a.e.e.u.6.x.bXBXBXZXBXkXAXZXCXBXBXCXAXvXBXlXN.8.a.y.y.G.A.S i s i r r p r p { r ] p } 9 p p 9 c p ",
"t t n n f f ] s f n i c | = 3.D.u.t.a.8.M.uXuXlXnXBXAXZXCXCXCXCXCXAXZXnXaXv.G.t.t.p.K.k.d v p n p : s s p ] c c s n s ] n p c p ",
"i s ] } s s r : r n ] < ` 5 S A.i.e.t.u.0.S.n.v.uXlXkXZXVXCXCXCXCXCXvXzXZ.D.a.u.t.s.J.2.5 s p n } p s c s n n r c i c } { s p n ",
"a i p ] s a a s n g n s r [ * j.F.t.e.e.e.e.t.u.M.uXhXCXCXCXCXCXCXCXmX7XZ.G.u.a.u.G.A.S d n r r ] n r p n s n n r n s p n p p n ",
"i p r s i v i p n c r [ d h 8 *.F.w.t.w.t.e.e.a.U.N.hXCXCXZXCXCXCXCXCXzXL.S.u.u.G.H.*.4 [ g s s n ] r p c p s ] n c c s s s { r ",
"n } r i 3 X.c p n | ] u h d i 6 b.G.e.r.w.e.e.G.v.pXnXCXCXCXBXBXCXCXZXnXaXZ.K.K.J.4.5 ` s r m 0 } n i ] n s s p p p n c s ; : i ",
"i n i c n { r i n { { s [ s n e 2.C.i.w.w.r.a.n.eXbXBXCXCXCXCXBXCXCXCXCXbXuXM.A.=.5 m { c n { f n i ] ] r p | 9 p n 9 s n p s s ",
"9 c p n n i n n { n c r p ] s f * 1.C.F.i.S.n.U.zXCXCXCXCXCXBXCXBXCXCXZXBXzXg.S 9 ..s 9 c c p g i p s n s n ] n s i r n p n ] r ",
"| s 9 p n i n i r s r p s s ] s m 5 *.k.N.L.uXlXBXCXCXCXCXBXZXCXBXCXCXCXCXnX6X* ] a i v a ] t h g s p s s ] p s ] ] n s r s ] ] ",
"| 9 s s s s n n n n p r c s { i ` r 5 * f.bXBXCXCXCXCXCXCXCXCXBXBXCXCXVXCXZX9Xe { ] i i v ` ) 7 g r p p r s 9 p n n n s s n p s ",
"n 9 n | n n s n n i | 9 r c i r a i _ * yXBXCXCXCXCXCXCXCXCXCXCXCXZXCXCXVXVXjXH 9 ] ] i 3 v g t s r c p p i r n p 9 c c r p p p ",
"p i 9 { c s 9 : p p { s r c i s a i u 8 jXVXCXCXCXCXCXCXVXCXCXCXZXBXCXCXVXNX8X8 n r ] c 1 v t g g s n p n s r c s p c s s s p n ",
"n ] p n n { g ] | ] r s s c } s i s u 4 9XNXCXBXCXCXCXCXCXCXCXCXCXCXVXMXcX5X8 g [  .t s ' c  .s r r i i s s i r s c p i ..} p s ",
"n s i 9 i | i { n p s n n r ] c r <  .+.k <.fXcXMXMXMXMXMXMXMXMXMXcXfX X! Y p ) g p s s ] i { c 9 i ] | r i c r < i s r i r s n ",
"] p c n p i s i i : s r i ] p r / 2 i Z z W Y.|.3X3XdXdXdXdX4X3X3X[.^.^.W.U x 7 p 0 x i p m x i ] 9 i ] r s | i { s c { s s i ] ",
"i 9 ; i ] s r s } ] { p p s 9 s  ./ { b b Y {.1X>X^.E.^.E.R././.@X1X+X/.|.,.1 / X.Z X.p f b 9 v ..n ] s p < < c i c < < ] c ] i ",
"9 n | 9 i { r | c s ] { ] ] s g  .u p f m Y _.1X1X>X2X2X<X<X1X,X@XR..X1X{.U v  .s n N } m h c c ] n i s } p n s r n n r ] n s ] ",
"{ @.n p c s p n p ] p i | ] p n i s p { [ C ~.,X-X-X>X%X,X,XOXT.(.-X=X@X'.-.0 s p n x p +.[ r ` p p s n } s n s s s s p p n r s ",
"{ p ] { n c i i ] ] p i s p i 9 x N i s ) l '.>X=X=X-X-X=X+X.X/.-X#X-X>X'.U 0 f ] | x x f r s < p n r p { 9 s p n | p p r s n p ",
": n { { i i { r s | s r n s 9 s x x p r t C `.>X1X&X*X=X:X=X.XR.$X#X-X>X'.,.M t g } n 9 c s 9 n p < n 9 p } s s c } n i ] c s c ",
"i i s i r p r i c ] n p s p s ] r r | { 7 X.!.,X*X-X-X*X+X+X.X/.-X#X*X>X[.T l r c ] s r a i c N 9 p } ] p s } n s r r 9 ] { r p ",
"{ n i 9 n s : s r p s c n s 9 s ) ) n } o.0 '.>X-X=X-X*X$X$X.XR.-X-X*X@X|.T 1 / r s s s  .c 9 n n } s | | 9 p | s n s s i ] | n ",
"p ] p p } n n r s ] s p @.g r ] / r N n 7 v '.>X$X&X&X&X&X$X/.R.*X&X=X@X{.-.x t s { p n | s s n n r n n i s n r n s r i i i c ] ",
": c p p s s n n s | n % n s n p s t 0 0 t M `.).$X&X*X*X=X=X/./.&X&X*X).'.,.M n s | c ; s g g s n r 9 < i n n s c ; { | a c r s ",
"s p p p s @.n s { n n ] n s ] s t g b p h C ].>X%X#X*X#X#X#X/.R.*X-XoX@X{.,.Z s } s { n n s ] s p s c i c c s n ] r p s i s < p ",
"i c : n i n n p n 9 p | s n | n g m q 8 d Z ].}.%X#X*X#X#X#XXXR.oX#X;X@X{.;.C s ] 4 n } g g | n c n s 9 s s i s r s s i s i r r ",
"s i 9 c : p s n n p r i ] s s i 9 c N n h C !.).%X#X#X#X#X#XXXR.#X.X+X@X~.T C n g p 8 f n n c r 9 s ] n s p r p p r } n n n c r ",
"n ] : { n p } s n n i s s n s r { ` i i t Z `.}.%X+X#XoX#X#XXXR.-X.X#X).{.T C s g g w m s n c r | n i r p { s r ] c p r n s ] c ",
"s s c n c p s p p g r s ; { } c ' ` v p 7 M !.}.OXoXoXoXoXoXXXR.oXoX#X).!.U M h 7 t p x 1 N ..s c ] c p r s i r r | p p n i n ] ",
"p s s r p r s p n r 9 ] n p 9 p a { n g d C ;.(.%X;X;XoXoX.X/.T.XXXX/.^.Y.U M u ) 9 0 N N x 9 t i | { c i s p n p n } n p | s s ",
"p p p n c s p ] n 9 ] } s ] s s p n r g u v ;.Y.R.Q.Q.XXR.R.T.T.oXXXXX(.`.T l { a 2 N Z N } g t 9 ] r n s s r n n 9 n ] r n p c ",
"] p p ] ] s < 9 r p s n : { s i m B p u y C ;.[.E.(.R.R.(.^.E.Y.(.(.(.Y.E U A 8 s a { x ; | t p n ] i s i c 9 s ] r ; ] n p n s ",
"] p p s s c c ] n ] p ] 9 n p i p i s 7 7 M U R [.E.(.(.[.W.E @ @ # @ X . o G J f ] p n i n s p p r s i i ] i n s } i p 9 9 n r ",
"p i n c p s c s n p s n ] s p n p ; t s ) #.Y . # I I I I X X X   .   o o   o J V g p ] | i s s r < s p s ] s n i s s } } c s s ",
"s p ] } c s r ; r i ] p n p p n n c n s t B G     X X X X X X X o           . z M i } r c s r n ] s p p n n n r { s p n ] i 9 n ",
"s p s ] s s i s s c n r s n r i n n r p s m H $ o $ .             O $ $ k k A Z M x ] r s s r p } n r p s s ] s < s c p c s n s ",
"i p i s r c i s ] ] p s n ] p p ` ` i s p i B H H W W k O o o O O H M Z w #.N x ` ` i n ] s x 9 c n r s s p n ] ] n s p c p c p ",
"] { r r 9 | c i s | n n s p p i  .a p { g p p x x M Z W W D D W :.Z x v 9 ] ` a ' ` c c c c x i { ] p n n p p p i i ] n p : < i "
};
