/* XPM */
static char *cc3ec9cf7211491083d186a1b0ee267c[] = {
/* columns rows colors chars-per-pixel */
"64 64 232 2 ",
"   c #5D320F",
".  c #4F3C1E",
"X  c #5D3918",
"o  c #613613",
"O  c #6A3E15",
"+  c #643D1C",
"@  c #6B3E1B",
"#  c #633816",
"$  c #703F1F",
"%  c #543C24",
"&  c #5C3B25",
"*  c #563C2B",
"=  c #5B3D2A",
"-  c #553627",
";  c #4D3D35",
":  c #4C3E3B",
">  c #543D33",
",  c #5B3F33",
"<  c #543E3D",
"1  c #623E23",
"2  c #6B3E22",
"3  c #623E2A",
"4  c #6A3D28",
"5  c #703F21",
"6  c #603E32",
"7  c #63421D",
"8  c #6B411C",
"9  c #664114",
"0  c #75461C",
"q  c #56432D",
"w  c #5C422C",
"e  c #5B4328",
"r  c #4D433C",
"t  c #4D493D",
"y  c #4C4334",
"u  c #544234",
"i  c #5B4233",
"p  c #54443C",
"a  c #5B453C",
"s  c #54483D",
"d  c #5D4A3D",
"f  c #5E4A36",
"g  c #644225",
"h  c #6B4323",
"j  c #63432B",
"k  c #6B452C",
"l  c #6B492E",
"z  c #62492B",
"x  c #714223",
"c  c #624433",
"v  c #6A4632",
"b  c #634A35",
"n  c #6A4A34",
"m  c #62463B",
"M  c #634A3D",
"N  c #6A4D3B",
"B  c #714E3A",
"V  c #704E35",
"C  c #6C523D",
"Z  c #645139",
"A  c #73513B",
"S  c #4D4443",
"D  c #4E4B4D",
"F  c #4B4843",
"G  c #534543",
"H  c #5B4642",
"J  c #554A43",
"K  c #5C4B44",
"L  c #544C4B",
"P  c #5B4C4B",
"I  c #52454C",
"U  c #5C5245",
"Y  c #5C514D",
"T  c #58544C",
"R  c #4E4C52",
"E  c #4E4E58",
"W  c #524D53",
"Q  c #5C4E53",
"!  c #545154",
"~  c #5C5454",
"^  c #56555B",
"/  c #5C565A",
"(  c #5D5B5D",
")  c #595A5B",
"_  c #4F565E",
"`  c #624740",
"'  c #634C44",
"]  c #6A4D42",
"[  c #614E4B",
"{  c #684F48",
"}  c #655245",
"|  c #6B5244",
" . c #64534C",
".. c #6B554B",
"X. c #65594D",
"o. c #6B5A4D",
"O. c #735644",
"+. c #755C44",
"@. c #715A4C",
"#. c #7A5E4B",
"$. c #795D44",
"%. c #635553",
"&. c #6A5753",
"*. c #645A55",
"=. c #6B5B54",
"-. c #62565A",
";. c #645C5C",
":. c #6B5D5C",
">. c #6A565B",
",. c #725C54",
"<. c #725E5A",
"1. c #755953",
"2. c #5E605F",
"3. c #7B604F",
"4. c #656055",
"5. c #64615D",
"6. c #6B615D",
"7. c #6D6153",
"8. c #726155",
"9. c #7C6054",
"0. c #72635C",
"q. c #7A645B",
"w. c #7D695B",
"e. c #726A5E",
"r. c #4D5767",
"t. c #535563",
"y. c #555B64",
"u. c #5D5C64",
"i. c #50576A",
"p. c #555C69",
"a. c #5D5D6A",
"s. c #5C5765",
"d. c #635D63",
"f. c #6A5E63",
"g. c #635E6A",
"h. c #695D6A",
"j. c #5D6165",
"k. c #576168",
"l. c #5D616B",
"z. c #5C6271",
"x. c #5E6B7E",
"c. c #646165",
"v. c #6B6363",
"b. c #6A6865",
"n. c #64636B",
"m. c #6A646B",
"M. c #66686D",
"N. c #6D696D",
"B. c #736463",
"V. c #786565",
"C. c #746963",
"Z. c #7A6A63",
"A. c #726669",
"S. c #736C6D",
"D. c #786B6C",
"F. c #7B646A",
"G. c #7D726E",
"H. c #74706D",
"J. c #636472",
"K. c #6C6B73",
"L. c #646B7C",
"P. c #6D6C79",
"I. c #6A6874",
"U. c #736D73",
"Y. c #7B6F74",
"T. c #736D7B",
"R. c #766A77",
"E. c #6C7176",
"W. c #6C717B",
"Q. c #747174",
"!. c #7B7474",
"~. c #74737A",
"^. c #7A757B",
"/. c #75787C",
"(. c #7C7A7C",
"). c #7C7874",
"_. c #826959",
"`. c #836B62",
"'. c #817165",
"]. c #84746C",
"[. c #82796E",
"{. c #89786E",
"}. c #827574",
"|. c #837975",
" X c #8C7A73",
".X c #82757B",
"XX c #837B7C",
"oX c #8A7E7C",
"OX c #917E7B",
"+X c #917E77",
"@X c #85827F",
"#X c #8D827D",
"$X c #92827C",
"%X c #908277",
"&X c #727784",
"*X c #757B85",
"=X c #7C7B83",
"-X c #7D7E8A",
";X c #797683",
":X c #7F7C91",
">X c #837D83",
",X c #837F8A",
"<X c #8A7F87",
"1X c #907F85",
"2X c #837E92",
"3X c #7E8285",
"4X c #7E838C",
"5X c #7F8988",
"6X c #7E8590",
"7X c #848285",
"8X c #8B8384",
"9X c #85848B",
"0X c #8A858B",
"qX c #85898D",
"wX c #8B898C",
"eX c #898886",
"rX c #928583",
"tX c #928887",
"yX c #918A8B",
"uX c #95888B",
"iX c #858591",
"pX c #8A8592",
"aX c #848992",
"sX c #8B8A92",
"dX c #828998",
"fX c #8E8C98",
"gX c #858398",
"hX c #928C92",
"jX c #948791",
"kX c #8D939C",
"lX c #8F9297",
"zX c #919298",
/* pixels */
"aX&XN.[ n N |.sX9XsXwXwXhXD.@.b ..<.:.~ ^ K.0X7X>XU.J.L.u.c.oX8Xg.m.m.v.v.0.$.z 8.@XhXsXqXqXfXsX~.n.8.' <.B.m.n.M.X.h 0 j `.XX,X",
"lX3X;X:.3 O.8X7X9X9X9X9X0XB.| * , ; : d.=X0XeX>X0X;Xa.l.s.~ v.-.n.d.( ( c.:.N % s 5.!.=X(.3X=XP.u.d.=.a a :.( M.c.} + O +.+X0X0X",
"lX9X^.>.c 9.8X9X9X9X9X9X>XA. .i i  .A.,XsX0XeX0XsX~.y.n.;.Y ;.f.d.f.c.n.z./ d q y J ~ m.c.c.M.s.k.u.,.] * G d.( 5.o.+ o w.tX8X7X",
"wXQ.m.%.M @..XsXaXaXiX9X>Xv.p u =.|.wXiX9X7XeX0XE.u.j.c.;.Y p P %.;.s.t.i.t.*.e.C.;.Q >.;.( u.l.l.( =.a [ %.R u.:.@.h + w.8X7X,X",
"8X( c.:.H p m.(.3X*XP.M.c.P s =..X8X7X9XqX7X7X7Xn.j.n.( v.B.a * p L E y.L.*X7XrX0X.X;.*.v.c.d.n.d.;.> ' :.N.u./  .N + + @.8XpXaX",
")./ v.f.%.G ~ c.u.n.a.g.v.P Y S.9XsXiX9X9X7X9X3Xu.c.( ;.v.=.C w ' B.^.6XdXaX7X>X0XeXA.~ ;.c.d.c.5.G K =.N.9X=Xc.} b + 1 } }.9X6X",
"S.d.c.d.m.d.! ) c.c.g.g.:.J *.S.4XdX9X7X7XqX9XW.u.c.c.v.:.' k 1 N C.7XsX9X9X0XpXpXpXN.~ ( f.c.;.s P -.n.7X9XsX>X6.} l 1 d :.U.K.",
"S.( c.n.g.m.;.( c.u.n.m.*.J =.;.4XiXwXwXeX7X/.n.d.d.v.;.P p & & m  .S.>X7X9XeX,XsX=Xc.~ ;.6.;.L K ;.~.7X0X7X7XwXS.=.O.w i d :.;.",
"N.u.l.l.a.m.;.~ 5.c.d.m.%.p Y v.d.U.!.A.S.c.d.c.c.c.-.S ; d ] | p s ~ ;.S.Y.XXeX,Xm.d.Q K ..K L v.^.0X0X7X7X0XeX~.( ;.=.w = M [ ",
"/ L ( n.g.f.[ d =.6.v.%.d u d  .6.;.%.:.f.f.d.;./ L P :.G.$X$XOXrXv.J G %.f.c.c.u.;.f.' j = p ;.=XwXwX7XeXsX7X=Xu.l.M.v.| j = % ",
"=.p G G P K & 1 w M ' , & 3 = * H K m M < G I L G L D.tXwX>X^.(.=XM.;.U K :.n.j.c.:...3 2 g ..!.wX7X7X9X7X9X=Xz.l.n.d.:.,.N 3 v ",
"{.0.:.%.[ M 1 h = > a | O.n b | K K = - H %.~ S s [ }.uX/.n.u.s.a.c.v...i o.M.u.d.:.c h @ h &.Q.9XwX9X9XeX~.l.l.l.c.d.v.,.b c #.",
"tX8XsX7XU.=.k g } }.oXXX X+X$X|.}.V.N = `.#X7XS.K a =.A.a.p.l.j.l.u.:.| X b ;.M.n.%.e h @ k =.N.0X7X0X7XM.u.z.l.n.v.f.:.N = o.].",
"zX7XiX-XU.6.v & Z.eXqXwX0X<XwXeXeX!.| c {.8XeX8X,.i M =.d.l.n.n.a.c.v.] + 7 K ;.Q r % e j 6 =.c.m.~.S.d.u.l.l.J.c.;.~ K - c ).eX",
"zXK.J.J.d.=.n & ].sXaX4X9X9X9X3XwXS. .[ oX8X9X8Xw.j j O.6.c.y.y.u.c.:.m 8 O & u K *.e.Z.q.' %.v.u.s.u.u.;.v.m.( W ! W J * | 7X4X",
"=Xs.s.n.d.=.V 3 ].7XqX4XiX9X3XaX4XM.P P B.S.K.Q.0.b g j u S R ^ ( ~ P > h 8 n '.|.8X7XwXXXB.P %.c.n.n.m.;.P D W ! u.f.;.' =.9XaX",
"P.a.M.d.d.=.B & =.XXsXqX9X9XsXiXE.( =.a >.;.d.( :.} + @ % e.^.=X=X~.f.' 1 j ].0X9XqX7X7XwXB. .p P >.-.L P v.(.,X^.K.u.m.-.-.=X(.",
"P.s.d.u.n.6.N = K v./.3X3X7X=XP.l.d.,.m H :.d.M.d. .@ 8 +.%X0XpXiXiX~.>.c O.@X9X9X9XqXqXeXB. .u p : : ;.XX8XeX9XsX/.c.c.u./ m.;.",
"Q.d.I.J.z.( a * > S ~ c.c.c.M.y.n.;.6.' > a f.u.c.o.7 o _.rXeX9XaX9X!.:.b #.8X9XiX9X9X9X>XB. .a q } B.>XwX8X8X0XaXE.( c.;.~ / d.",
"v.! ^ t.r.y.:.q.C.;.~ ;.f.d.n.n.c.;.=.a '  .I d.:.o.h o w.8X9X9X9X~.v.:.m ...XsXiX9X0X9XXX:.a a o.[.0XsX7X7X9X9XW.l.j.c.f.Q G K ",
"T F ^ s.L.&X7X8X8X^.;.-.f.f.a.k.u.;.> } :.U.g./  .n 8 7 q.8XsXaX=Xc.;.;.[ H m.;X9X=XK.m.v.P G :.XX7XiXgX0X9XdXiXz.l.c.u.f.:.f . ",
"4.*.^.9XdXaXwX7X9X0XS.-.f.m.l.l.;.G K =.m.iX=Xf.} j + 1 } ).9X9XU.( d.5.%.G ~ d.d.g.u.d.f.P [ S.7XqXiXiX9X9XiX-Xa.a.d.( f.0.V 7 ",
"0.6.@XeXiX9X9X7X9XiXK./ -.v.n.u.G Y ( m.7X0XsX(.0.| k 1 i :.U.~.n.d.n.c.f.-./ ( c.n.f.f.:.K >.S.3X5X7X7X7XqX4XE.u.d.m.m.f.[ g 9 ",
"=.X.D.XX7X0X0X0XfX=Xg./ ;.v.;.L J ;.U.9X9X9X7XeXA.=.| i w d *.d.d.c.u.c.f.m.;.;.d.d.m.f.&.p :.;.7XqX9XwX7X7X/.c.;.c.d.d.Q p & X ",
"=.: ~ d.m.Q.>X0X,Xm.;.~ K =.K P v.^.wX0X9X9XwXeXK.;.d.=.w & M [ d.c.j.u.a.n.c.~ c.u.u.v. .u Y v.u.~.^.R.T.h.u.c.5.5.-.S : K ] N ",
"uX:.L D ;.v.d.m.g.d.6.d i * p *.XXwXwX7X9XwX9X=Xc.u.M.v.| j - , : W u.n.c.;. .K *.v.v.%.i u K ~ v.f.-.>.h.h.;.6.*.J L ;.!.rX$XOX",
"0XK.( L P :.u.n.g.:.| & g g | G.wX7X7X8X8X9X*Xz.l.n.( *.,.M 3 n ' H r r K a j 3 d d ' i & & * u a H m N p G s s u J D.hXsX7X^.^.",
"P.u.c.%.> =.m.a.d.:.z 8 @ g o.!.9XsX9X9X7X~.z.z.u.c.( :.,.M b #.w.w.6.=. .a 1 h * u d } C n m ' K a w % a %.X.s u [ }.wX/.n.a.s.",
"L.t.v.o.& n f.n.c.%.w h @ k =.N.0X7X0X9XM.y.l.l.l.n.c.6.] c o.|.8X8X7XXXG.=.n j  .!.XXXX X X#XXX.XF.N w Z.8X8XD.` a =.m.j.k.g.a.",
"L.u.v.| + h K ( ! r * 3 j , *.c.N.~.K.u.u.c.l.n.n.( ! P = c G.wX3X9XsX7XQ.=.v - B.wXwX7X8X8XuX7X<XY...f  X8X0X<X1., ` :.j.l.n.g.",
"Q.v.%.i @ @ % u U *.C.Z.q.[ %.c.u.u.u.d.d.v.M.( ! W D G = | >X9XaX~.J.n.d.=.B & }.0X9X9X0X0X7X7XsXD.U U XX7X0XjX`.c w } 4.5.u.a.",
"c.T L > @ @ n '.|.8X8XuXXXB.P %.f.n.v.m.;.! D D W d.n.;.K 7.eXiX~.u.u.c.;.=.A & }.7XaX9X0X0X9XiX7Xb.J J b.N.I.R.0.c 1 g u t R ^ ",
"9XE.;.a 1 k ].wX8XeX9X0X8X0.o.p P >.-.L W n.(.@X).K.s.n.( ( >X>Xu.c.c.;.;.=.A & =.XXwXqXqX9XpXsXE.j.=.u &.;.g.s.:.| + @ % e.).;X",
"kX3X(.=.3 O.8X9X9X9X9X0X8XB.| i > : S f.=X0X8X@XwX^.a.a.( ) m.d.f.d.u.5.c.:.N % p v.^.=X(.7X3XP.y.2.,.M H :.d.m.d...@ O +.%XeX9X",
"kX9X).=.c 9.8X9X9X9X9X9X7Xv.[ d u } v.=XsX0X8X0X0XE.j.c.( L *.v.f.c.n.n.J.s.K u y r P f.c.c.n.y.j.( <.' > p c.u.c.o.+ o _.rXeX7X",
"sX~.v.%.M @.).sXiXiXiX9XXX:.p a o.[.eX9X9X,X0X0X~.j.y.c.v.~ J K %.( ^ _ i.t.%.8.C.*.P >.v.u.u.M.n.;.=.a K P D ( 5.o.h X w.8X0X9X",
"eX( c.:.K p m.;X4X=XK.M.c.Y J :..X8X7X9XsXiXgX2Xg.n.c.u.f.:.d % ; L E y.L.*X7XtX8X.X;.%.v.c.y.u.f.:.u } 6.U.u.( U Z 7 g 9.8XpXiX",
"^./ c.;.%.G / n.n.a.u.u.;.Y ~ B.7X0X9X9X9X9XgX:Xa.n.n.d.f.<.C j ' B.^.4XdXdX7X>XeXwXS./ ;.5.j.n.f.G K =.m.iX-XM.U q + 1 | }.0X9X",
"Q.d.c.d.v.;.~ u.n.n.c.c.:.P ;.S.9XiX7X7X7XeXiXT.c.;.;.6.:. .g X C C.>X9XiX9X0X0XpXiXK./ ( 5.c.c.G P %.m.,X9XsX3Xv.} l g i :.Y.T.",
"S.u.n.c.;.c.d.u.d.c.c.v.:.J *.c.iX9XeXtX8X7X;Xu.;.v.v.:.P > & 1 M &.D.>X7X0X0X0XpX,Xn.! *.6.;.L G =.U.9X0X9X3X9XS.:.| w w d :.;.",
"N.u.l.n.u.c.f.~ c.d.( v.%.p  .v.g.~.~.U.U.m.d.f.d.c.( S : K ' { H p ~ ;.A.Y.>X0X7Xm.;.~ K =.J L c.).eXwX7X9XeXwXU.;.;.X.q = M ' ",
";.W s.c.d.;. .H :.v.v. .a i [  .v.d.>.>.f.f.;.;.( L L ;.G.#XrX1X8Xv.P P &.f.g.n.d.( :.` a , s 4.(.qXwX7XeXwX0X,Xg.d.n.v.| j & * ",
"<.p G S J ' & 1 m M M i & 3 = , K G ` ` p r J t t J D.yXwX@X^.;X;XK.;.P K =.g.a.M.6.| 1 4 3 } H.wX3X3X7X8X0X=XJ.d.c.d.:.,.N w z ",
"'.0.B.*.K a 1 k * i d ] A B N ] K a i * a X.~ t u U }.tX/.n.a.p.l.n.f. .i ..c.a.g.:.n h @ k  .Q.9XaX9X7XeX~.a.a.u.c.;.:.1.m b +.",
"hX8X7X>X!.8.v & ..!.oXoX X XOXXX.XV.N j w.#X7XS.K a =.A.a.p.l.l.a.s.f...& b :.M.g.%.w h @ k =.N.0X7XwX7Xm.s.a.a.n.v.c.:.N w =.).",
"fXiX9X=XU.=.n & C.wXsX9X8X8XuX7XwXY.] m ].8X0X8X=., M <.n.l.n.n.l.u.B...X g } -.Q G u = g 3 %.d.M.~.U.d.u.l.l.n.m.( ~ P = c G.wX",
"kXP.n.n.d.=.n = }.9X6X9X0X9X9X9XsXD. . .XXeXiXwX`.b j | :.f.d.j.M.c.&.m @ @ = u K Y C.C.<.{ %.v.d.u.g.d.;.v.M.^ ! W W L * | >X9X",
"-Xs.u.c.d.<.v j }.9XdX4X9X0X4XaX9Xb.P J A.N.P.~.8.b 7 j a G L ) ^ / L * h @ m '. X#XeXwXXXB.K X.f.m.m.m.;.! D R W d.n.;.K ,.0X7X",
"I.g.m.;.6.<.B = =.XXwXqX0XpXsXiXE.;.=.a >.d.g.( ;.Z + O * B.!.(.=X~.d.K & l ].0XeX7X9X7X0XV...i ' >./ D ! c.^.>X^.K.u.M.;.;.XXXX",
"K.u.d.d.c.6.N = K v.^.,X,X,X=XW.y.( =.m H f.;.M.c.} 8 O #.OXyX0XiXaX=X=.j O.@X9XiX9X9XeX8XB...* i > : ;.(.7XeX7XsX~.u.u.u.u.v.*.",
"U.f.M.n.z.s.a * ; G ~ f.c.d.n.s.n.d.8.} > H v.( c. .+   _.rX8X7XaX9X^.=.b 3.8X7X9X9X9X9XXXv.&.i i  .m.-X0X7X0XwXsXW.j.n.u.W -.v.",
"v.! ^ t.r.i.:.q.C.;.~ ;.6.;.n.J.n.d.o.i M [ L ;.v.,.h # _.8XeX9X9X~.m.%.m @.XX9XiXaX9X9XXX:.K p o.].wXpX7X7X0X9X~.n.( n.c.~ G K ",
"~ S ^ y.x.&X7XrX8X^.;./ v.c.u.l.a.d.> C :.U.u./ [ m + + 8.7X0XiX(.c.d.:.K H v.=X4X*XP.M.v.~ p :..X7XpXpXwX9X9X-Xg.g.c.( c.f.a - ",
":.:.^.4XdXdX0X8XeXwXN.~ :.v.c.l.c.G d =.v.pX=Xn.[ c + 7 } |.9XiXK.( ;.6. .P ! c.u.a.u.u.v.Y J S.9XiXpX0X7X7XiX-Xg.h.v.d.f.:.N h ",
"0.0.7X9XaX9X7X0X9XiXN.~ ;.c.c.5.G P ~ c.,X9XsX>Xv.} g 7 i :.U.~.m.d.c.c.f.;./ ( c.n.d.d.6.P *.U.6XdXpX,X7XqXaX~.f.d.d.v.f. .j # ",
"o.X.D.=X9XeXeX0XsX-Xc.~ ;.:.;.L s *.Q.iXpXpX7XeXS.:.C z * [ ;.f.f.d.n.d.c.m.;.( u.n.d.v.=.s :.c.4XiXwXuX8X7X/.u.d.f.f.;.P u 1 + ",
"X.: ~ d.v.~.,XeX7Xm.d.Y K o.P L v.).eX9X,XiXwX8X~.( *.o.i & M  .d.c.j.u.a.M.f.~ c.u.d.v.&.; Y f.d.~.).A.U.m.d.c.c.c.( r ; d M m ",
"uX6.P L -.f.d.M.d.d.:.K i * p *.XX7XeXeXpXpX7X7Xu.u.n.6.| c = > S W u.n.c.;.[ d :.v.v. .a u [  .v.;.X.*.>.f.;.;.( L L ;.G.$X$XoX",
"7XN.;.L K :.u.n.d.:.| 3 2 1  .!.eX9X8X8X7X9X*Xl.u.n.d.;.<.] g l ' J r r K a j 3 m d ` , & & & , p K f Z p G G G r J D.tXtX@X^.^.",
"W.u.v. ., @.M.a.u.:.v x @ h ..Q.sXsX7XeX0X~.k.k.u.g.d.f.<.m j $.q.0.6.=. .a 1 4 * > M N B n n ] K d e % a %.%.G s U }.uX/.M.j.u.",
"W.y.v.,.X v ;.n.n.*.j x 2 v =.m.9X7X9X7XI.y.j.j.n.n.f.v.] * ..[.8X0X7XXXD.=.v 3  .G.XXoX X XOXXX.XV.n & w.#X7XS.K a =.A.u.u.l.u.",
"P.u.v.| + h K ;.! r * 1 j c *.c.M.^.~.u.s.l.n.n.n.u.~ P = c G.wX7X9XsX7XQ.=.v = B.wXwXeX8X8XuX7X7X!.O.c  X8XeX@Xo., ` >.c.l.l.a.",
"U.d.%.i 2 $ - p P %.C.Z.8.K %.v.n.s.( c.d.c.c.u.W ! L s = | >X6XqX~.n.n.;.=.A = }.sX4X9X9X7X9X9XsXQ. .K XXeX9XwX`.v 3 | 6.n.g.a.",
"v.P K * 5 @ k _.{.#X8XwX|.:.P -.g.a.u.d.;.-.W D ^ d.5.X.b o.7XdXW.u.s.d.;.X.B - Y.3X6X4X9XiX-XaX3XM.P G m.K.I.S.1.j 1 w p F R t."
};
